(G-CODE GENERATED BY FLATCAM v8.993 - www.flatcam.org - Version Date: 2020/06/05)

(Name: TeensyPCB_mounting_hole.drl_mill_cnc)
(Type: G-code from Geometry)
(Units: MM)

(Created on Sunday, 30 August 2020 at 12:18)

(This preprocessor is the default preprocessor used by FlatCAM.)
(It is made to work with MACH3 compatible motion controllers.)

(TOOL DIAMETER: 0.0313 in)
(Feedrate_XY: 4.0 in/min)
(Feedrate_Z: 1.0 in/min)
(Feedrate rapids 59.0551 in/min)

(Z_Cut: -0.055 in)
(DepthPerCut: 0.02 in <=>3 passes)
(Z_Move: 0.1 in)
(Z Start: None in)
(Z End: 0.5906 in)
(Steps per circle: 64)
(Preprocessor Geometry: default)

(X range:    0.0576 ...    2.6924  in)
(Y range:   -3.9424 ...   -0.0577  in)

(Spindle Speed: None RPM)
G20
G90
G94



G01 F4.00
G00 Z0.1000

M03
G00 X0.1423 Y-0.1000
G01 F1.00
G01 Z-0.0200
G01 F4.00
G01 X0.1415 Y-0.1083
G01 X0.1391 Y-0.1162
G01 X0.1352 Y-0.1235
G01 X0.1299 Y-0.1299
G01 X0.1235 Y-0.1352
G01 X0.1162 Y-0.1391
G01 X0.1083 Y-0.1415
G01 X0.1000 Y-0.1424
G01 X0.0917 Y-0.1415
G01 X0.0838 Y-0.1391
G01 X0.0765 Y-0.1352
G01 X0.0701 Y-0.1299
G01 X0.0648 Y-0.1235
G01 X0.0609 Y-0.1162
G01 X0.0585 Y-0.1083
G01 X0.0576 Y-0.1000
G01 X0.0585 Y-0.0917
G01 X0.0609 Y-0.0838
G01 X0.0648 Y-0.0765
G01 X0.0701 Y-0.0701
G01 X0.0765 Y-0.0648
G01 X0.0838 Y-0.0609
G01 X0.0917 Y-0.0585
G01 X0.1000 Y-0.0577
G01 X0.1083 Y-0.0585
G01 X0.1162 Y-0.0609
G01 X0.1235 Y-0.0648
G01 X0.1299 Y-0.0701
G01 X0.1352 Y-0.0765
G01 X0.1391 Y-0.0838
G01 X0.1415 Y-0.0917
G01 X0.1423 Y-0.1000
G00 X0.1423 Y-0.1000
G01 F1.00
G01 Z-0.0400
G01 F4.00
G01 X0.1415 Y-0.1083
G01 X0.1391 Y-0.1162
G01 X0.1352 Y-0.1235
G01 X0.1299 Y-0.1299
G01 X0.1235 Y-0.1352
G01 X0.1162 Y-0.1391
G01 X0.1083 Y-0.1415
G01 X0.1000 Y-0.1424
G01 X0.0917 Y-0.1415
G01 X0.0838 Y-0.1391
G01 X0.0765 Y-0.1352
G01 X0.0701 Y-0.1299
G01 X0.0648 Y-0.1235
G01 X0.0609 Y-0.1162
G01 X0.0585 Y-0.1083
G01 X0.0576 Y-0.1000
G01 X0.0585 Y-0.0917
G01 X0.0609 Y-0.0838
G01 X0.0648 Y-0.0765
G01 X0.0701 Y-0.0701
G01 X0.0765 Y-0.0648
G01 X0.0838 Y-0.0609
G01 X0.0917 Y-0.0585
G01 X0.1000 Y-0.0577
G01 X0.1083 Y-0.0585
G01 X0.1162 Y-0.0609
G01 X0.1235 Y-0.0648
G01 X0.1299 Y-0.0701
G01 X0.1352 Y-0.0765
G01 X0.1391 Y-0.0838
G01 X0.1415 Y-0.0917
G01 X0.1423 Y-0.1000
G00 X0.1423 Y-0.1000
G01 F1.00
G01 Z-0.0550
G01 F4.00
G01 X0.1415 Y-0.1083
G01 X0.1391 Y-0.1162
G01 X0.1352 Y-0.1235
G01 X0.1299 Y-0.1299
G01 X0.1235 Y-0.1352
G01 X0.1162 Y-0.1391
G01 X0.1083 Y-0.1415
G01 X0.1000 Y-0.1424
G01 X0.0917 Y-0.1415
G01 X0.0838 Y-0.1391
G01 X0.0765 Y-0.1352
G01 X0.0701 Y-0.1299
G01 X0.0648 Y-0.1235
G01 X0.0609 Y-0.1162
G01 X0.0585 Y-0.1083
G01 X0.0576 Y-0.1000
G01 X0.0585 Y-0.0917
G01 X0.0609 Y-0.0838
G01 X0.0648 Y-0.0765
G01 X0.0701 Y-0.0701
G01 X0.0765 Y-0.0648
G01 X0.0838 Y-0.0609
G01 X0.0917 Y-0.0585
G01 X0.1000 Y-0.0577
G01 X0.1083 Y-0.0585
G01 X0.1162 Y-0.0609
G01 X0.1235 Y-0.0648
G01 X0.1299 Y-0.0701
G01 X0.1352 Y-0.0765
G01 X0.1391 Y-0.0838
G01 X0.1415 Y-0.0917
G01 X0.1423 Y-0.1000
G00 Z0.1000
G00 X2.6924 Y-0.1000
G01 F1.00
G01 Z-0.0200
G01 F4.00
G01 X2.6915 Y-0.1083
G01 X2.6891 Y-0.1162
G01 X2.6852 Y-0.1235
G01 X2.6799 Y-0.1299
G01 X2.6735 Y-0.1352
G01 X2.6662 Y-0.1391
G01 X2.6583 Y-0.1415
G01 X2.6500 Y-0.1424
G01 X2.6417 Y-0.1415
G01 X2.6338 Y-0.1391
G01 X2.6265 Y-0.1352
G01 X2.6201 Y-0.1299
G01 X2.6148 Y-0.1235
G01 X2.6109 Y-0.1162
G01 X2.6085 Y-0.1083
G01 X2.6077 Y-0.1000
G01 X2.6085 Y-0.0917
G01 X2.6109 Y-0.0838
G01 X2.6148 Y-0.0765
G01 X2.6201 Y-0.0701
G01 X2.6265 Y-0.0648
G01 X2.6338 Y-0.0609
G01 X2.6417 Y-0.0585
G01 X2.6500 Y-0.0577
G01 X2.6583 Y-0.0585
G01 X2.6662 Y-0.0609
G01 X2.6735 Y-0.0648
G01 X2.6799 Y-0.0701
G01 X2.6852 Y-0.0765
G01 X2.6891 Y-0.0838
G01 X2.6915 Y-0.0917
G01 X2.6924 Y-0.1000
G00 X2.6924 Y-0.1000
G01 F1.00
G01 Z-0.0400
G01 F4.00
G01 X2.6915 Y-0.1083
G01 X2.6891 Y-0.1162
G01 X2.6852 Y-0.1235
G01 X2.6799 Y-0.1299
G01 X2.6735 Y-0.1352
G01 X2.6662 Y-0.1391
G01 X2.6583 Y-0.1415
G01 X2.6500 Y-0.1424
G01 X2.6417 Y-0.1415
G01 X2.6338 Y-0.1391
G01 X2.6265 Y-0.1352
G01 X2.6201 Y-0.1299
G01 X2.6148 Y-0.1235
G01 X2.6109 Y-0.1162
G01 X2.6085 Y-0.1083
G01 X2.6077 Y-0.1000
G01 X2.6085 Y-0.0917
G01 X2.6109 Y-0.0838
G01 X2.6148 Y-0.0765
G01 X2.6201 Y-0.0701
G01 X2.6265 Y-0.0648
G01 X2.6338 Y-0.0609
G01 X2.6417 Y-0.0585
G01 X2.6500 Y-0.0577
G01 X2.6583 Y-0.0585
G01 X2.6662 Y-0.0609
G01 X2.6735 Y-0.0648
G01 X2.6799 Y-0.0701
G01 X2.6852 Y-0.0765
G01 X2.6891 Y-0.0838
G01 X2.6915 Y-0.0917
G01 X2.6924 Y-0.1000
G00 X2.6924 Y-0.1000
G01 F1.00
G01 Z-0.0550
G01 F4.00
G01 X2.6915 Y-0.1083
G01 X2.6891 Y-0.1162
G01 X2.6852 Y-0.1235
G01 X2.6799 Y-0.1299
G01 X2.6735 Y-0.1352
G01 X2.6662 Y-0.1391
G01 X2.6583 Y-0.1415
G01 X2.6500 Y-0.1424
G01 X2.6417 Y-0.1415
G01 X2.6338 Y-0.1391
G01 X2.6265 Y-0.1352
G01 X2.6201 Y-0.1299
G01 X2.6148 Y-0.1235
G01 X2.6109 Y-0.1162
G01 X2.6085 Y-0.1083
G01 X2.6077 Y-0.1000
G01 X2.6085 Y-0.0917
G01 X2.6109 Y-0.0838
G01 X2.6148 Y-0.0765
G01 X2.6201 Y-0.0701
G01 X2.6265 Y-0.0648
G01 X2.6338 Y-0.0609
G01 X2.6417 Y-0.0585
G01 X2.6500 Y-0.0577
G01 X2.6583 Y-0.0585
G01 X2.6662 Y-0.0609
G01 X2.6735 Y-0.0648
G01 X2.6799 Y-0.0701
G01 X2.6852 Y-0.0765
G01 X2.6891 Y-0.0838
G01 X2.6915 Y-0.0917
G01 X2.6924 Y-0.1000
G00 Z0.1000
G00 X2.6924 Y-3.9000
G01 F1.00
G01 Z-0.0200
G01 F4.00
G01 X2.6915 Y-3.9083
G01 X2.6891 Y-3.9162
G01 X2.6852 Y-3.9235
G01 X2.6799 Y-3.9299
G01 X2.6735 Y-3.9352
G01 X2.6662 Y-3.9391
G01 X2.6583 Y-3.9415
G01 X2.6500 Y-3.9424
G01 X2.6417 Y-3.9415
G01 X2.6338 Y-3.9391
G01 X2.6265 Y-3.9352
G01 X2.6201 Y-3.9299
G01 X2.6148 Y-3.9235
G01 X2.6109 Y-3.9162
G01 X2.6085 Y-3.9083
G01 X2.6077 Y-3.9000
G01 X2.6085 Y-3.8917
G01 X2.6109 Y-3.8838
G01 X2.6148 Y-3.8765
G01 X2.6201 Y-3.8701
G01 X2.6265 Y-3.8648
G01 X2.6338 Y-3.8609
G01 X2.6417 Y-3.8585
G01 X2.6500 Y-3.8577
G01 X2.6583 Y-3.8585
G01 X2.6662 Y-3.8609
G01 X2.6735 Y-3.8648
G01 X2.6799 Y-3.8701
G01 X2.6852 Y-3.8765
G01 X2.6891 Y-3.8838
G01 X2.6915 Y-3.8917
G01 X2.6924 Y-3.9000
G00 X2.6924 Y-3.9000
G01 F1.00
G01 Z-0.0400
G01 F4.00
G01 X2.6915 Y-3.9083
G01 X2.6891 Y-3.9162
G01 X2.6852 Y-3.9235
G01 X2.6799 Y-3.9299
G01 X2.6735 Y-3.9352
G01 X2.6662 Y-3.9391
G01 X2.6583 Y-3.9415
G01 X2.6500 Y-3.9424
G01 X2.6417 Y-3.9415
G01 X2.6338 Y-3.9391
G01 X2.6265 Y-3.9352
G01 X2.6201 Y-3.9299
G01 X2.6148 Y-3.9235
G01 X2.6109 Y-3.9162
G01 X2.6085 Y-3.9083
G01 X2.6077 Y-3.9000
G01 X2.6085 Y-3.8917
G01 X2.6109 Y-3.8838
G01 X2.6148 Y-3.8765
G01 X2.6201 Y-3.8701
G01 X2.6265 Y-3.8648
G01 X2.6338 Y-3.8609
G01 X2.6417 Y-3.8585
G01 X2.6500 Y-3.8577
G01 X2.6583 Y-3.8585
G01 X2.6662 Y-3.8609
G01 X2.6735 Y-3.8648
G01 X2.6799 Y-3.8701
G01 X2.6852 Y-3.8765
G01 X2.6891 Y-3.8838
G01 X2.6915 Y-3.8917
G01 X2.6924 Y-3.9000
G00 X2.6924 Y-3.9000
G01 F1.00
G01 Z-0.0550
G01 F4.00
G01 X2.6915 Y-3.9083
G01 X2.6891 Y-3.9162
G01 X2.6852 Y-3.9235
G01 X2.6799 Y-3.9299
G01 X2.6735 Y-3.9352
G01 X2.6662 Y-3.9391
G01 X2.6583 Y-3.9415
G01 X2.6500 Y-3.9424
G01 X2.6417 Y-3.9415
G01 X2.6338 Y-3.9391
G01 X2.6265 Y-3.9352
G01 X2.6201 Y-3.9299
G01 X2.6148 Y-3.9235
G01 X2.6109 Y-3.9162
G01 X2.6085 Y-3.9083
G01 X2.6077 Y-3.9000
G01 X2.6085 Y-3.8917
G01 X2.6109 Y-3.8838
G01 X2.6148 Y-3.8765
G01 X2.6201 Y-3.8701
G01 X2.6265 Y-3.8648
G01 X2.6338 Y-3.8609
G01 X2.6417 Y-3.8585
G01 X2.6500 Y-3.8577
G01 X2.6583 Y-3.8585
G01 X2.6662 Y-3.8609
G01 X2.6735 Y-3.8648
G01 X2.6799 Y-3.8701
G01 X2.6852 Y-3.8765
G01 X2.6891 Y-3.8838
G01 X2.6915 Y-3.8917
G01 X2.6924 Y-3.9000
G00 Z0.1000
G00 X0.1423 Y-3.9000
G01 F1.00
G01 Z-0.0200
G01 F4.00
G01 X0.1415 Y-3.9083
G01 X0.1391 Y-3.9162
G01 X0.1352 Y-3.9235
G01 X0.1299 Y-3.9299
G01 X0.1235 Y-3.9352
G01 X0.1162 Y-3.9391
G01 X0.1083 Y-3.9415
G01 X0.1000 Y-3.9424
G01 X0.0917 Y-3.9415
G01 X0.0838 Y-3.9391
G01 X0.0765 Y-3.9352
G01 X0.0701 Y-3.9299
G01 X0.0648 Y-3.9235
G01 X0.0609 Y-3.9162
G01 X0.0585 Y-3.9083
G01 X0.0576 Y-3.9000
G01 X0.0585 Y-3.8917
G01 X0.0609 Y-3.8838
G01 X0.0648 Y-3.8765
G01 X0.0701 Y-3.8701
G01 X0.0765 Y-3.8648
G01 X0.0838 Y-3.8609
G01 X0.0917 Y-3.8585
G01 X0.1000 Y-3.8577
G01 X0.1083 Y-3.8585
G01 X0.1162 Y-3.8609
G01 X0.1235 Y-3.8648
G01 X0.1299 Y-3.8701
G01 X0.1352 Y-3.8765
G01 X0.1391 Y-3.8838
G01 X0.1415 Y-3.8917
G01 X0.1423 Y-3.9000
G00 X0.1423 Y-3.9000
G01 F1.00
G01 Z-0.0400
G01 F4.00
G01 X0.1415 Y-3.9083
G01 X0.1391 Y-3.9162
G01 X0.1352 Y-3.9235
G01 X0.1299 Y-3.9299
G01 X0.1235 Y-3.9352
G01 X0.1162 Y-3.9391
G01 X0.1083 Y-3.9415
G01 X0.1000 Y-3.9424
G01 X0.0917 Y-3.9415
G01 X0.0838 Y-3.9391
G01 X0.0765 Y-3.9352
G01 X0.0701 Y-3.9299
G01 X0.0648 Y-3.9235
G01 X0.0609 Y-3.9162
G01 X0.0585 Y-3.9083
G01 X0.0576 Y-3.9000
G01 X0.0585 Y-3.8917
G01 X0.0609 Y-3.8838
G01 X0.0648 Y-3.8765
G01 X0.0701 Y-3.8701
G01 X0.0765 Y-3.8648
G01 X0.0838 Y-3.8609
G01 X0.0917 Y-3.8585
G01 X0.1000 Y-3.8577
G01 X0.1083 Y-3.8585
G01 X0.1162 Y-3.8609
G01 X0.1235 Y-3.8648
G01 X0.1299 Y-3.8701
G01 X0.1352 Y-3.8765
G01 X0.1391 Y-3.8838
G01 X0.1415 Y-3.8917
G01 X0.1423 Y-3.9000
G00 X0.1423 Y-3.9000
G01 F1.00
G01 Z-0.0550
G01 F4.00
G01 X0.1415 Y-3.9083
G01 X0.1391 Y-3.9162
G01 X0.1352 Y-3.9235
G01 X0.1299 Y-3.9299
G01 X0.1235 Y-3.9352
G01 X0.1162 Y-3.9391
G01 X0.1083 Y-3.9415
G01 X0.1000 Y-3.9424
G01 X0.0917 Y-3.9415
G01 X0.0838 Y-3.9391
G01 X0.0765 Y-3.9352
G01 X0.0701 Y-3.9299
G01 X0.0648 Y-3.9235
G01 X0.0609 Y-3.9162
G01 X0.0585 Y-3.9083
G01 X0.0576 Y-3.9000
G01 X0.0585 Y-3.8917
G01 X0.0609 Y-3.8838
G01 X0.0648 Y-3.8765
G01 X0.0701 Y-3.8701
G01 X0.0765 Y-3.8648
G01 X0.0838 Y-3.8609
G01 X0.0917 Y-3.8585
G01 X0.1000 Y-3.8577
G01 X0.1083 Y-3.8585
G01 X0.1162 Y-3.8609
G01 X0.1235 Y-3.8648
G01 X0.1299 Y-3.8701
G01 X0.1352 Y-3.8765
G01 X0.1391 Y-3.8838
G01 X0.1415 Y-3.8917
G01 X0.1423 Y-3.9000
G00 Z0.1000
M05
G00 Z0.1000
G00 Z0.59

