(G-CODE GENERATED BY FLATCAM v8.992 - www.flatcam.org - Version Date: 2020/05/03)

(Name: TeensyPCB-B_Cu.gbr_iso_cnc_3125)
(Type: G-code from Geometry)
(Units: IN)

(Created on Sunday, 30 August 2020 at 11:57)

(This preprocessor is the default preprocessor used by FlatCAM.)
(It is made to work with MACH3 compatible motion controllers.)

(TOOL DIAMETER: 0.0313 in)
(Feedrate_XY: 14.0 in/min)
(Feedrate_Z: 2.0 in/min)
(Feedrate rapids 59.0551 in/min)

(Z_Cut: -0.002 in)
(Z_Move: 0.1 in)
(Z Start: None in)
(Z End: 0.5906 in)
(Steps per circle: 64)
(Preprocessor Geometry: default)

(X range:    0.0053 ...    2.7447  in)
(Y range:   -3.9947 ...   -0.0053  in)

(Spindle Speed: 16000 RPM)
G20
G90
G94



G01 F14.00
G00 Z0.1000

M03 S16000
G00 X0.4751 Y-0.3500
G01 F2.00
G01 Z-0.0020
G01 F14.00
G01 X0.4749 Y-0.3518
G01 X0.4748 Y-0.3527
G01 X0.4748 Y-0.3535
G01 X0.4748 Y-0.3549
G01 X0.4745 Y-0.3563
G01 X0.4744 Y-0.3571
G01 X0.4743 Y-0.3579
G01 X0.4741 Y-0.3598
G01 X0.4736 Y-0.3615
G01 X0.4733 Y-0.3624
G01 X0.4732 Y-0.3631
G01 X0.4729 Y-0.3645
G01 X0.4723 Y-0.3659
G01 X0.4721 Y-0.3666
G01 X0.4718 Y-0.3674
G01 X0.4712 Y-0.3692
G01 X0.4704 Y-0.3708
G01 X0.4700 Y-0.3716
G01 X0.4697 Y-0.3723
G01 X0.4691 Y-0.3736
G01 X0.4681 Y-0.3751
G01 X0.4677 Y-0.3759
G01 X0.4673 Y-0.3765
G01 X0.4666 Y-0.3778
G01 X0.4657 Y-0.3789
G01 X0.4652 Y-0.3795
G01 X0.4647 Y-0.3802
G01 X0.4637 Y-0.3818
G01 X0.4624 Y-0.3830
G01 X0.4618 Y-0.3837
G01 X0.4613 Y-0.3843
G01 X0.4604 Y-0.3854
G01 X0.4593 Y-0.3863
G01 X0.4587 Y-0.3868
G01 X0.4580 Y-0.3874
G01 X0.4568 Y-0.3887
G01 X0.4552 Y-0.3897
G01 X0.4545 Y-0.3902
G01 X0.4539 Y-0.3907
G01 X0.4528 Y-0.3916
G01 X0.4515 Y-0.3923
G01 X0.4509 Y-0.3927
G01 X0.4501 Y-0.3931
G01 X0.4486 Y-0.3941
G01 X0.4473 Y-0.3947
G01 X0.4466 Y-0.3950
G01 X0.4458 Y-0.3954
G01 X0.4442 Y-0.3962
G01 X0.4424 Y-0.3968
G01 X0.4416 Y-0.3971
G01 X0.4409 Y-0.3973
G01 X0.4395 Y-0.3979
G01 X0.4381 Y-0.3982
G01 X0.4374 Y-0.3983
G01 X0.4365 Y-0.3986
G01 X0.4348 Y-0.3991
G01 X0.4329 Y-0.3993
G01 X0.4321 Y-0.3994
G01 X0.4313 Y-0.3995
G01 X0.4299 Y-0.3998
G01 X0.3103 Y-0.3998
G01 X0.3095 Y-0.3998
G01 X0.3086 Y-0.3999
G01 X0.3074 Y-0.4000
G01 X0.2426 Y-0.4000
G01 X0.2383 Y-0.3996
G01 X0.2352 Y-0.3986
G01 X0.2324 Y-0.3971
G01 X0.2299 Y-0.3951
G01 X0.2279 Y-0.3926
G01 X0.2264 Y-0.3898
G01 X0.2254 Y-0.3867
G01 X0.2250 Y-0.3824
G01 X0.2250 Y-0.3516
G01 X0.2250 Y-0.3509
G01 X0.2249 Y-0.3500
G01 X0.2250 Y-0.3491
G01 X0.2250 Y-0.3484
G01 X0.2250 Y-0.3176
G01 X0.2254 Y-0.3133
G01 X0.2264 Y-0.3102
G01 X0.2279 Y-0.3074
G01 X0.2299 Y-0.3049
G01 X0.2324 Y-0.3029
G01 X0.2352 Y-0.3014
G01 X0.2383 Y-0.3004
G01 X0.2426 Y-0.3000
G01 X0.3074 Y-0.3000
G01 X0.3086 Y-0.3001
G01 X0.3095 Y-0.3002
G01 X0.3103 Y-0.3002
G01 X0.4299 Y-0.3002
G01 X0.4313 Y-0.3005
G01 X0.4321 Y-0.3006
G01 X0.4329 Y-0.3007
G01 X0.4348 Y-0.3009
G01 X0.4365 Y-0.3014
G01 X0.4374 Y-0.3017
G01 X0.4381 Y-0.3018
G01 X0.4395 Y-0.3021
G01 X0.4409 Y-0.3027
G01 X0.4416 Y-0.3029
G01 X0.4424 Y-0.3032
G01 X0.4442 Y-0.3038
G01 X0.4458 Y-0.3046
G01 X0.4466 Y-0.3050
G01 X0.4473 Y-0.3053
G01 X0.4486 Y-0.3059
G01 X0.4501 Y-0.3069
G01 X0.4509 Y-0.3073
G01 X0.4515 Y-0.3077
G01 X0.4528 Y-0.3084
G01 X0.4539 Y-0.3093
G01 X0.4545 Y-0.3098
G01 X0.4552 Y-0.3103
G01 X0.4568 Y-0.3113
G01 X0.4580 Y-0.3126
G01 X0.4587 Y-0.3132
G01 X0.4593 Y-0.3137
G01 X0.4604 Y-0.3146
G01 X0.4613 Y-0.3157
G01 X0.4618 Y-0.3163
G01 X0.4624 Y-0.3170
G01 X0.4637 Y-0.3182
G01 X0.4647 Y-0.3198
G01 X0.4652 Y-0.3205
G01 X0.4657 Y-0.3211
G01 X0.4666 Y-0.3222
G01 X0.4673 Y-0.3235
G01 X0.4677 Y-0.3241
G01 X0.4681 Y-0.3249
G01 X0.4691 Y-0.3264
G01 X0.4697 Y-0.3277
G01 X0.4700 Y-0.3284
G01 X0.4704 Y-0.3292
G01 X0.4712 Y-0.3308
G01 X0.4718 Y-0.3326
G01 X0.4721 Y-0.3334
G01 X0.4723 Y-0.3341
G01 X0.4729 Y-0.3355
G01 X0.4732 Y-0.3369
G01 X0.4733 Y-0.3376
G01 X0.4736 Y-0.3385
G01 X0.4741 Y-0.3402
G01 X0.4743 Y-0.3421
G01 X0.4744 Y-0.3429
G01 X0.4745 Y-0.3437
G01 X0.4748 Y-0.3451
G01 X0.4748 Y-0.3465
G01 X0.4748 Y-0.3473
G01 X0.4749 Y-0.3482
G01 X0.4751 Y-0.3500
G00 Z0.1000
G00 X0.4738 Y-0.3556
G01 F2.00
G01 Z-0.0020
G01 F14.00
G01 X0.4733 Y-0.3588
G01 X0.4732 Y-0.3596
G01 X0.4730 Y-0.3603
G01 X0.4722 Y-0.3635
G01 X0.4720 Y-0.3643
G01 X0.4718 Y-0.3650
G01 X0.4707 Y-0.3681
G01 X0.4704 Y-0.3688
G01 X0.4701 Y-0.3695
G01 X0.4687 Y-0.3725
G01 X0.4683 Y-0.3732
G01 X0.4680 Y-0.3738
G01 X0.4663 Y-0.3766
G01 X0.4656 Y-0.3776
G01 X0.4635 Y-0.3806
G01 X0.4630 Y-0.3812
G01 X0.4625 Y-0.3818
G01 X0.4603 Y-0.3842
G01 X0.4597 Y-0.3847
G01 X0.4592 Y-0.3853
G01 X0.4565 Y-0.3877
G01 X0.4556 Y-0.3885
G01 X0.4529 Y-0.3904
G01 X0.4523 Y-0.3909
G01 X0.4516 Y-0.3913
G01 X0.4488 Y-0.3930
G01 X0.4482 Y-0.3933
G01 X0.4475 Y-0.3937
G01 X0.4445 Y-0.3951
G01 X0.4438 Y-0.3954
G01 X0.4431 Y-0.3957
G01 X0.4400 Y-0.3968
G01 X0.4393 Y-0.3970
G01 X0.4385 Y-0.3972
G01 X0.4353 Y-0.3980
G01 X0.4342 Y-0.3983
G01 X0.4306 Y-0.3988
G01 X0.4298 Y-0.3989
G01 X0.4290 Y-0.3990
G01 X0.4258 Y-0.3991
G01 X0.4250 Y-0.3991
G01 X0.2750 Y-0.3991
G01 X0.2743 Y-0.3991
G01 X0.2415 Y-0.3991
G01 X0.2408 Y-0.3991
G01 X0.2400 Y-0.3990
G01 X0.2389 Y-0.3989
G01 X0.2377 Y-0.3986
G01 X0.2366 Y-0.3983
G01 X0.2355 Y-0.3979
G01 X0.2348 Y-0.3976
G01 X0.2342 Y-0.3973
G01 X0.2332 Y-0.3967
G01 X0.2322 Y-0.3960
G01 X0.2313 Y-0.3953
G01 X0.2307 Y-0.3948
G01 X0.2302 Y-0.3943
G01 X0.2294 Y-0.3934
G01 X0.2287 Y-0.3925
G01 X0.2281 Y-0.3915
G01 X0.2276 Y-0.3905
G01 X0.2271 Y-0.3895
G01 X0.2267 Y-0.3884
G01 X0.2264 Y-0.3873
G01 X0.2262 Y-0.3865
G01 X0.2261 Y-0.3858
G01 X0.2259 Y-0.3846
G01 X0.2259 Y-0.3835
G01 X0.2259 Y-0.3507
G01 X0.2259 Y-0.3500
G01 X0.2259 Y-0.3493
G01 X0.2259 Y-0.3165
G01 X0.2259 Y-0.3154
G01 X0.2260 Y-0.3146
G01 X0.2261 Y-0.3139
G01 X0.2264 Y-0.3127
G01 X0.2266 Y-0.3120
G01 X0.2268 Y-0.3113
G01 X0.2271 Y-0.3105
G01 X0.2274 Y-0.3098
G01 X0.2279 Y-0.3088
G01 X0.2283 Y-0.3082
G01 X0.2287 Y-0.3075
G01 X0.2294 Y-0.3066
G01 X0.2302 Y-0.3057
G01 X0.2307 Y-0.3052
G01 X0.2313 Y-0.3047
G01 X0.2319 Y-0.3042
G01 X0.2325 Y-0.3037
G01 X0.2335 Y-0.3031
G01 X0.2342 Y-0.3027
G01 X0.2348 Y-0.3024
G01 X0.2359 Y-0.3019
G01 X0.2370 Y-0.3016
G01 X0.2377 Y-0.3014
G01 X0.2385 Y-0.3012
G01 X0.2396 Y-0.3010
G01 X0.2408 Y-0.3009
G01 X0.2415 Y-0.3009
G01 X0.2743 Y-0.3009
G01 X0.2750 Y-0.3009
G01 X0.4250 Y-0.3009
G01 X0.4258 Y-0.3009
G01 X0.4290 Y-0.3010
G01 X0.4298 Y-0.3011
G01 X0.4306 Y-0.3012
G01 X0.4342 Y-0.3017
G01 X0.4353 Y-0.3020
G01 X0.4385 Y-0.3028
G01 X0.4393 Y-0.3030
G01 X0.4400 Y-0.3032
G01 X0.4431 Y-0.3043
G01 X0.4438 Y-0.3046
G01 X0.4445 Y-0.3049
G01 X0.4475 Y-0.3063
G01 X0.4482 Y-0.3067
G01 X0.4488 Y-0.3070
G01 X0.4516 Y-0.3087
G01 X0.4523 Y-0.3091
G01 X0.4529 Y-0.3096
G01 X0.4556 Y-0.3115
G01 X0.4562 Y-0.3120
G01 X0.4568 Y-0.3125
G01 X0.4592 Y-0.3147
G01 X0.4597 Y-0.3153
G01 X0.4603 Y-0.3158
G01 X0.4625 Y-0.3182
G01 X0.4630 Y-0.3188
G01 X0.4635 Y-0.3194
G01 X0.4654 Y-0.3221
G01 X0.4661 Y-0.3230
G01 X0.4681 Y-0.3265
G01 X0.4687 Y-0.3275
G01 X0.4702 Y-0.3308
G01 X0.4707 Y-0.3319
G01 X0.4718 Y-0.3350
G01 X0.4720 Y-0.3357
G01 X0.4722 Y-0.3365
G01 X0.4730 Y-0.3397
G01 X0.4732 Y-0.3404
G01 X0.4733 Y-0.3412
G01 X0.4739 Y-0.3448
G01 X0.4740 Y-0.3460
G01 X0.4741 Y-0.3492
G01 X0.4741 Y-0.3504
G01 X0.4739 Y-0.3544
G01 X0.4738 Y-0.3556
G00 Z0.1000
G00 X0.4738 Y-0.5556
G01 F2.00
G01 Z-0.0020
G01 F14.00
G01 X0.4733 Y-0.5588
G01 X0.4732 Y-0.5596
G01 X0.4730 Y-0.5603
G01 X0.4722 Y-0.5635
G01 X0.4720 Y-0.5643
G01 X0.4718 Y-0.5650
G01 X0.4707 Y-0.5681
G01 X0.4704 Y-0.5688
G01 X0.4701 Y-0.5695
G01 X0.4687 Y-0.5725
G01 X0.4683 Y-0.5732
G01 X0.4680 Y-0.5738
G01 X0.4663 Y-0.5766
G01 X0.4656 Y-0.5776
G01 X0.4635 Y-0.5806
G01 X0.4630 Y-0.5812
G01 X0.4625 Y-0.5818
G01 X0.4603 Y-0.5842
G01 X0.4597 Y-0.5847
G01 X0.4592 Y-0.5853
G01 X0.4565 Y-0.5877
G01 X0.4556 Y-0.5885
G01 X0.4529 Y-0.5904
G01 X0.4523 Y-0.5909
G01 X0.4516 Y-0.5913
G01 X0.4488 Y-0.5930
G01 X0.4482 Y-0.5933
G01 X0.4475 Y-0.5937
G01 X0.4445 Y-0.5951
G01 X0.4438 Y-0.5954
G01 X0.4431 Y-0.5957
G01 X0.4400 Y-0.5968
G01 X0.4393 Y-0.5970
G01 X0.4385 Y-0.5972
G01 X0.4350 Y-0.5981
G01 X0.4338 Y-0.5983
G01 X0.4306 Y-0.5988
G01 X0.4298 Y-0.5989
G01 X0.4290 Y-0.5990
G01 X0.4258 Y-0.5991
G01 X0.4250 Y-0.5991
G01 X0.2746 Y-0.5991
G01 X0.2710 Y-0.5990
G01 X0.2702 Y-0.5989
G01 X0.2694 Y-0.5988
G01 X0.2662 Y-0.5983
G01 X0.2654 Y-0.5982
G01 X0.2647 Y-0.5980
G01 X0.2615 Y-0.5972
G01 X0.2607 Y-0.5970
G01 X0.2600 Y-0.5968
G01 X0.2569 Y-0.5957
G01 X0.2562 Y-0.5954
G01 X0.2555 Y-0.5951
G01 X0.2525 Y-0.5937
G01 X0.2518 Y-0.5933
G01 X0.2512 Y-0.5930
G01 X0.2484 Y-0.5913
G01 X0.2477 Y-0.5909
G01 X0.2471 Y-0.5904
G01 X0.2444 Y-0.5885
G01 X0.2438 Y-0.5880
G01 X0.2432 Y-0.5875
G01 X0.2408 Y-0.5853
G01 X0.2403 Y-0.5847
G01 X0.2397 Y-0.5842
G01 X0.2375 Y-0.5818
G01 X0.2370 Y-0.5812
G01 X0.2365 Y-0.5806
G01 X0.2346 Y-0.5779
G01 X0.2341 Y-0.5773
G01 X0.2337 Y-0.5766
G01 X0.2320 Y-0.5738
G01 X0.2317 Y-0.5732
G01 X0.2313 Y-0.5725
G01 X0.2299 Y-0.5695
G01 X0.2296 Y-0.5688
G01 X0.2293 Y-0.5681
G01 X0.2282 Y-0.5650
G01 X0.2280 Y-0.5643
G01 X0.2278 Y-0.5635
G01 X0.2270 Y-0.5603
G01 X0.2268 Y-0.5596
G01 X0.2267 Y-0.5588
G01 X0.2262 Y-0.5556
G01 X0.2261 Y-0.5548
G01 X0.2260 Y-0.5540
G01 X0.2259 Y-0.5508
G01 X0.2259 Y-0.5496
G01 X0.2260 Y-0.5460
G01 X0.2261 Y-0.5452
G01 X0.2262 Y-0.5444
G01 X0.2267 Y-0.5412
G01 X0.2268 Y-0.5404
G01 X0.2270 Y-0.5397
G01 X0.2278 Y-0.5365
G01 X0.2280 Y-0.5357
G01 X0.2282 Y-0.5350
G01 X0.2293 Y-0.5319
G01 X0.2296 Y-0.5312
G01 X0.2299 Y-0.5305
G01 X0.2315 Y-0.5272
G01 X0.2320 Y-0.5262
G01 X0.2337 Y-0.5234
G01 X0.2341 Y-0.5227
G01 X0.2346 Y-0.5221
G01 X0.2365 Y-0.5194
G01 X0.2370 Y-0.5188
G01 X0.2375 Y-0.5182
G01 X0.2397 Y-0.5158
G01 X0.2403 Y-0.5153
G01 X0.2408 Y-0.5147
G01 X0.2432 Y-0.5125
G01 X0.2441 Y-0.5118
G01 X0.2471 Y-0.5096
G01 X0.2477 Y-0.5091
G01 X0.2484 Y-0.5087
G01 X0.2512 Y-0.5070
G01 X0.2518 Y-0.5067
G01 X0.2525 Y-0.5063
G01 X0.2555 Y-0.5049
G01 X0.2562 Y-0.5046
G01 X0.2569 Y-0.5043
G01 X0.2600 Y-0.5032
G01 X0.2607 Y-0.5030
G01 X0.2615 Y-0.5028
G01 X0.2647 Y-0.5020
G01 X0.2654 Y-0.5018
G01 X0.2662 Y-0.5017
G01 X0.2694 Y-0.5012
G01 X0.2702 Y-0.5011
G01 X0.2710 Y-0.5010
G01 X0.2742 Y-0.5009
G01 X0.2750 Y-0.5009
G01 X0.4254 Y-0.5009
G01 X0.4290 Y-0.5010
G01 X0.4298 Y-0.5011
G01 X0.4306 Y-0.5012
G01 X0.4338 Y-0.5017
G01 X0.4346 Y-0.5018
G01 X0.4353 Y-0.5020
G01 X0.4385 Y-0.5028
G01 X0.4393 Y-0.5030
G01 X0.4400 Y-0.5032
G01 X0.4431 Y-0.5043
G01 X0.4438 Y-0.5046
G01 X0.4445 Y-0.5049
G01 X0.4475 Y-0.5063
G01 X0.4485 Y-0.5069
G01 X0.4520 Y-0.5089
G01 X0.4529 Y-0.5096
G01 X0.4556 Y-0.5115
G01 X0.4562 Y-0.5120
G01 X0.4568 Y-0.5125
G01 X0.4592 Y-0.5147
G01 X0.4600 Y-0.5155
G01 X0.4625 Y-0.5182
G01 X0.4630 Y-0.5188
G01 X0.4635 Y-0.5194
G01 X0.4654 Y-0.5221
G01 X0.4659 Y-0.5227
G01 X0.4663 Y-0.5234
G01 X0.4680 Y-0.5262
G01 X0.4683 Y-0.5268
G01 X0.4687 Y-0.5275
G01 X0.4701 Y-0.5305
G01 X0.4704 Y-0.5312
G01 X0.4707 Y-0.5319
G01 X0.4718 Y-0.5350
G01 X0.4720 Y-0.5357
G01 X0.4722 Y-0.5365
G01 X0.4730 Y-0.5397
G01 X0.4732 Y-0.5404
G01 X0.4733 Y-0.5412
G01 X0.4738 Y-0.5444
G01 X0.4739 Y-0.5452
G01 X0.4740 Y-0.5460
G01 X0.4741 Y-0.5492
G01 X0.4741 Y-0.5500
G01 X0.4741 Y-0.5508
G01 X0.4740 Y-0.5540
G01 X0.4739 Y-0.5548
G01 X0.4738 Y-0.5556
G00 Z0.1000
G00 X0.4738 Y-0.6556
G01 F2.00
G01 Z-0.0020
G01 F14.00
G01 X0.4733 Y-0.6588
G01 X0.4732 Y-0.6596
G01 X0.4730 Y-0.6603
G01 X0.4722 Y-0.6635
G01 X0.4720 Y-0.6643
G01 X0.4718 Y-0.6650
G01 X0.4707 Y-0.6681
G01 X0.4704 Y-0.6688
G01 X0.4701 Y-0.6695
G01 X0.4687 Y-0.6725
G01 X0.4683 Y-0.6732
G01 X0.4680 Y-0.6738
G01 X0.4663 Y-0.6766
G01 X0.4656 Y-0.6776
G01 X0.4635 Y-0.6806
G01 X0.4630 Y-0.6812
G01 X0.4625 Y-0.6818
G01 X0.4603 Y-0.6842
G01 X0.4597 Y-0.6847
G01 X0.4592 Y-0.6853
G01 X0.4565 Y-0.6877
G01 X0.4556 Y-0.6885
G01 X0.4529 Y-0.6904
G01 X0.4523 Y-0.6909
G01 X0.4516 Y-0.6913
G01 X0.4488 Y-0.6930
G01 X0.4482 Y-0.6933
G01 X0.4475 Y-0.6937
G01 X0.4445 Y-0.6951
G01 X0.4438 Y-0.6954
G01 X0.4431 Y-0.6957
G01 X0.4400 Y-0.6968
G01 X0.4393 Y-0.6970
G01 X0.4385 Y-0.6972
G01 X0.4350 Y-0.6981
G01 X0.4338 Y-0.6983
G01 X0.4306 Y-0.6988
G01 X0.4298 Y-0.6989
G01 X0.4290 Y-0.6990
G01 X0.4258 Y-0.6991
G01 X0.4250 Y-0.6991
G01 X0.2746 Y-0.6991
G01 X0.2710 Y-0.6990
G01 X0.2702 Y-0.6989
G01 X0.2694 Y-0.6988
G01 X0.2662 Y-0.6983
G01 X0.2654 Y-0.6982
G01 X0.2647 Y-0.6980
G01 X0.2615 Y-0.6972
G01 X0.2607 Y-0.6970
G01 X0.2600 Y-0.6968
G01 X0.2569 Y-0.6957
G01 X0.2562 Y-0.6954
G01 X0.2555 Y-0.6951
G01 X0.2525 Y-0.6937
G01 X0.2518 Y-0.6933
G01 X0.2512 Y-0.6930
G01 X0.2484 Y-0.6913
G01 X0.2477 Y-0.6909
G01 X0.2471 Y-0.6904
G01 X0.2444 Y-0.6885
G01 X0.2438 Y-0.6880
G01 X0.2432 Y-0.6875
G01 X0.2408 Y-0.6853
G01 X0.2403 Y-0.6847
G01 X0.2397 Y-0.6842
G01 X0.2375 Y-0.6818
G01 X0.2370 Y-0.6812
G01 X0.2365 Y-0.6806
G01 X0.2346 Y-0.6779
G01 X0.2341 Y-0.6773
G01 X0.2337 Y-0.6766
G01 X0.2320 Y-0.6738
G01 X0.2317 Y-0.6732
G01 X0.2313 Y-0.6725
G01 X0.2299 Y-0.6695
G01 X0.2296 Y-0.6688
G01 X0.2293 Y-0.6681
G01 X0.2282 Y-0.6650
G01 X0.2280 Y-0.6643
G01 X0.2278 Y-0.6635
G01 X0.2270 Y-0.6603
G01 X0.2268 Y-0.6596
G01 X0.2267 Y-0.6588
G01 X0.2262 Y-0.6556
G01 X0.2261 Y-0.6548
G01 X0.2260 Y-0.6540
G01 X0.2259 Y-0.6508
G01 X0.2259 Y-0.6496
G01 X0.2260 Y-0.6460
G01 X0.2261 Y-0.6452
G01 X0.2262 Y-0.6444
G01 X0.2267 Y-0.6412
G01 X0.2268 Y-0.6404
G01 X0.2270 Y-0.6397
G01 X0.2278 Y-0.6365
G01 X0.2280 Y-0.6357
G01 X0.2282 Y-0.6350
G01 X0.2293 Y-0.6319
G01 X0.2296 Y-0.6312
G01 X0.2299 Y-0.6305
G01 X0.2315 Y-0.6272
G01 X0.2320 Y-0.6262
G01 X0.2337 Y-0.6234
G01 X0.2341 Y-0.6227
G01 X0.2346 Y-0.6221
G01 X0.2365 Y-0.6194
G01 X0.2370 Y-0.6188
G01 X0.2375 Y-0.6182
G01 X0.2397 Y-0.6158
G01 X0.2403 Y-0.6153
G01 X0.2408 Y-0.6147
G01 X0.2432 Y-0.6125
G01 X0.2441 Y-0.6118
G01 X0.2471 Y-0.6096
G01 X0.2477 Y-0.6091
G01 X0.2484 Y-0.6087
G01 X0.2512 Y-0.6070
G01 X0.2518 Y-0.6067
G01 X0.2525 Y-0.6063
G01 X0.2555 Y-0.6049
G01 X0.2562 Y-0.6046
G01 X0.2569 Y-0.6043
G01 X0.2600 Y-0.6032
G01 X0.2607 Y-0.6030
G01 X0.2615 Y-0.6028
G01 X0.2647 Y-0.6020
G01 X0.2654 Y-0.6018
G01 X0.2662 Y-0.6017
G01 X0.2694 Y-0.6012
G01 X0.2702 Y-0.6011
G01 X0.2710 Y-0.6010
G01 X0.2742 Y-0.6009
G01 X0.2750 Y-0.6009
G01 X0.4254 Y-0.6009
G01 X0.4290 Y-0.6010
G01 X0.4298 Y-0.6011
G01 X0.4306 Y-0.6012
G01 X0.4338 Y-0.6017
G01 X0.4346 Y-0.6018
G01 X0.4353 Y-0.6020
G01 X0.4385 Y-0.6028
G01 X0.4393 Y-0.6030
G01 X0.4400 Y-0.6032
G01 X0.4431 Y-0.6043
G01 X0.4438 Y-0.6046
G01 X0.4445 Y-0.6049
G01 X0.4475 Y-0.6063
G01 X0.4485 Y-0.6069
G01 X0.4520 Y-0.6089
G01 X0.4529 Y-0.6096
G01 X0.4556 Y-0.6115
G01 X0.4562 Y-0.6120
G01 X0.4568 Y-0.6125
G01 X0.4592 Y-0.6147
G01 X0.4600 Y-0.6155
G01 X0.4625 Y-0.6182
G01 X0.4630 Y-0.6188
G01 X0.4635 Y-0.6194
G01 X0.4654 Y-0.6221
G01 X0.4659 Y-0.6227
G01 X0.4663 Y-0.6234
G01 X0.4680 Y-0.6262
G01 X0.4683 Y-0.6268
G01 X0.4687 Y-0.6275
G01 X0.4701 Y-0.6305
G01 X0.4704 Y-0.6312
G01 X0.4707 Y-0.6319
G01 X0.4718 Y-0.6350
G01 X0.4720 Y-0.6357
G01 X0.4722 Y-0.6365
G01 X0.4730 Y-0.6397
G01 X0.4732 Y-0.6404
G01 X0.4733 Y-0.6412
G01 X0.4738 Y-0.6444
G01 X0.4739 Y-0.6452
G01 X0.4740 Y-0.6460
G01 X0.4741 Y-0.6492
G01 X0.4741 Y-0.6500
G01 X0.4741 Y-0.6508
G01 X0.4740 Y-0.6540
G01 X0.4739 Y-0.6548
G01 X0.4738 Y-0.6556
G00 Z0.1000
G00 X0.4738 Y-0.7556
G01 F2.00
G01 Z-0.0020
G01 F14.00
G01 X0.4733 Y-0.7588
G01 X0.4732 Y-0.7596
G01 X0.4730 Y-0.7603
G01 X0.4722 Y-0.7635
G01 X0.4720 Y-0.7643
G01 X0.4718 Y-0.7650
G01 X0.4707 Y-0.7681
G01 X0.4704 Y-0.7688
G01 X0.4701 Y-0.7695
G01 X0.4687 Y-0.7725
G01 X0.4683 Y-0.7732
G01 X0.4680 Y-0.7738
G01 X0.4663 Y-0.7766
G01 X0.4656 Y-0.7776
G01 X0.4635 Y-0.7806
G01 X0.4630 Y-0.7812
G01 X0.4625 Y-0.7818
G01 X0.4603 Y-0.7842
G01 X0.4597 Y-0.7847
G01 X0.4592 Y-0.7853
G01 X0.4565 Y-0.7877
G01 X0.4556 Y-0.7885
G01 X0.4529 Y-0.7904
G01 X0.4523 Y-0.7909
G01 X0.4516 Y-0.7913
G01 X0.4488 Y-0.7930
G01 X0.4482 Y-0.7933
G01 X0.4475 Y-0.7937
G01 X0.4445 Y-0.7951
G01 X0.4438 Y-0.7954
G01 X0.4431 Y-0.7957
G01 X0.4400 Y-0.7968
G01 X0.4393 Y-0.7970
G01 X0.4385 Y-0.7972
G01 X0.4350 Y-0.7981
G01 X0.4338 Y-0.7983
G01 X0.4306 Y-0.7988
G01 X0.4298 Y-0.7989
G01 X0.4290 Y-0.7990
G01 X0.4258 Y-0.7991
G01 X0.4250 Y-0.7991
G01 X0.2746 Y-0.7991
G01 X0.2710 Y-0.7990
G01 X0.2702 Y-0.7989
G01 X0.2694 Y-0.7988
G01 X0.2662 Y-0.7983
G01 X0.2654 Y-0.7982
G01 X0.2647 Y-0.7980
G01 X0.2615 Y-0.7972
G01 X0.2607 Y-0.7970
G01 X0.2600 Y-0.7968
G01 X0.2569 Y-0.7957
G01 X0.2562 Y-0.7954
G01 X0.2555 Y-0.7951
G01 X0.2525 Y-0.7937
G01 X0.2518 Y-0.7933
G01 X0.2512 Y-0.7930
G01 X0.2484 Y-0.7913
G01 X0.2477 Y-0.7909
G01 X0.2471 Y-0.7904
G01 X0.2444 Y-0.7885
G01 X0.2438 Y-0.7880
G01 X0.2432 Y-0.7875
G01 X0.2408 Y-0.7853
G01 X0.2403 Y-0.7847
G01 X0.2397 Y-0.7842
G01 X0.2375 Y-0.7818
G01 X0.2370 Y-0.7812
G01 X0.2365 Y-0.7806
G01 X0.2346 Y-0.7779
G01 X0.2341 Y-0.7773
G01 X0.2337 Y-0.7766
G01 X0.2320 Y-0.7738
G01 X0.2317 Y-0.7732
G01 X0.2313 Y-0.7725
G01 X0.2299 Y-0.7695
G01 X0.2296 Y-0.7688
G01 X0.2293 Y-0.7681
G01 X0.2282 Y-0.7650
G01 X0.2280 Y-0.7643
G01 X0.2278 Y-0.7635
G01 X0.2270 Y-0.7603
G01 X0.2268 Y-0.7596
G01 X0.2267 Y-0.7588
G01 X0.2262 Y-0.7556
G01 X0.2261 Y-0.7548
G01 X0.2260 Y-0.7540
G01 X0.2259 Y-0.7508
G01 X0.2259 Y-0.7496
G01 X0.2260 Y-0.7460
G01 X0.2261 Y-0.7452
G01 X0.2262 Y-0.7444
G01 X0.2267 Y-0.7412
G01 X0.2268 Y-0.7404
G01 X0.2270 Y-0.7397
G01 X0.2278 Y-0.7365
G01 X0.2280 Y-0.7357
G01 X0.2282 Y-0.7350
G01 X0.2293 Y-0.7319
G01 X0.2296 Y-0.7312
G01 X0.2299 Y-0.7305
G01 X0.2315 Y-0.7272
G01 X0.2320 Y-0.7262
G01 X0.2337 Y-0.7234
G01 X0.2341 Y-0.7227
G01 X0.2346 Y-0.7221
G01 X0.2365 Y-0.7194
G01 X0.2370 Y-0.7188
G01 X0.2375 Y-0.7182
G01 X0.2397 Y-0.7158
G01 X0.2403 Y-0.7153
G01 X0.2408 Y-0.7147
G01 X0.2432 Y-0.7125
G01 X0.2441 Y-0.7118
G01 X0.2471 Y-0.7096
G01 X0.2477 Y-0.7091
G01 X0.2484 Y-0.7087
G01 X0.2512 Y-0.7070
G01 X0.2518 Y-0.7067
G01 X0.2525 Y-0.7063
G01 X0.2555 Y-0.7049
G01 X0.2562 Y-0.7046
G01 X0.2569 Y-0.7043
G01 X0.2600 Y-0.7032
G01 X0.2607 Y-0.7030
G01 X0.2615 Y-0.7028
G01 X0.2647 Y-0.7020
G01 X0.2654 Y-0.7018
G01 X0.2662 Y-0.7017
G01 X0.2694 Y-0.7012
G01 X0.2702 Y-0.7011
G01 X0.2710 Y-0.7010
G01 X0.2742 Y-0.7009
G01 X0.2750 Y-0.7009
G01 X0.4254 Y-0.7009
G01 X0.4290 Y-0.7010
G01 X0.4298 Y-0.7011
G01 X0.4306 Y-0.7012
G01 X0.4338 Y-0.7017
G01 X0.4346 Y-0.7018
G01 X0.4353 Y-0.7020
G01 X0.4385 Y-0.7028
G01 X0.4393 Y-0.7030
G01 X0.4400 Y-0.7032
G01 X0.4431 Y-0.7043
G01 X0.4438 Y-0.7046
G01 X0.4445 Y-0.7049
G01 X0.4475 Y-0.7063
G01 X0.4485 Y-0.7069
G01 X0.4520 Y-0.7089
G01 X0.4529 Y-0.7096
G01 X0.4556 Y-0.7115
G01 X0.4562 Y-0.7120
G01 X0.4568 Y-0.7125
G01 X0.4592 Y-0.7147
G01 X0.4600 Y-0.7155
G01 X0.4625 Y-0.7182
G01 X0.4630 Y-0.7188
G01 X0.4635 Y-0.7194
G01 X0.4654 Y-0.7221
G01 X0.4659 Y-0.7227
G01 X0.4663 Y-0.7234
G01 X0.4680 Y-0.7262
G01 X0.4683 Y-0.7268
G01 X0.4687 Y-0.7275
G01 X0.4701 Y-0.7305
G01 X0.4704 Y-0.7312
G01 X0.4707 Y-0.7319
G01 X0.4718 Y-0.7350
G01 X0.4720 Y-0.7357
G01 X0.4722 Y-0.7365
G01 X0.4730 Y-0.7397
G01 X0.4732 Y-0.7404
G01 X0.4733 Y-0.7412
G01 X0.4738 Y-0.7444
G01 X0.4739 Y-0.7452
G01 X0.4740 Y-0.7460
G01 X0.4741 Y-0.7492
G01 X0.4741 Y-0.7500
G01 X0.4741 Y-0.7508
G01 X0.4740 Y-0.7540
G01 X0.4739 Y-0.7548
G01 X0.4738 Y-0.7556
G00 Z0.1000
G00 X0.4738 Y-0.8556
G01 F2.00
G01 Z-0.0020
G01 F14.00
G01 X0.4733 Y-0.8588
G01 X0.4732 Y-0.8596
G01 X0.4730 Y-0.8603
G01 X0.4722 Y-0.8635
G01 X0.4720 Y-0.8643
G01 X0.4718 Y-0.8650
G01 X0.4707 Y-0.8681
G01 X0.4704 Y-0.8688
G01 X0.4701 Y-0.8695
G01 X0.4687 Y-0.8725
G01 X0.4683 Y-0.8732
G01 X0.4680 Y-0.8738
G01 X0.4663 Y-0.8766
G01 X0.4656 Y-0.8776
G01 X0.4635 Y-0.8806
G01 X0.4630 Y-0.8812
G01 X0.4625 Y-0.8818
G01 X0.4603 Y-0.8842
G01 X0.4597 Y-0.8847
G01 X0.4592 Y-0.8853
G01 X0.4565 Y-0.8877
G01 X0.4556 Y-0.8885
G01 X0.4529 Y-0.8904
G01 X0.4523 Y-0.8909
G01 X0.4516 Y-0.8913
G01 X0.4488 Y-0.8930
G01 X0.4482 Y-0.8933
G01 X0.4475 Y-0.8937
G01 X0.4445 Y-0.8951
G01 X0.4438 Y-0.8954
G01 X0.4431 Y-0.8957
G01 X0.4400 Y-0.8968
G01 X0.4393 Y-0.8970
G01 X0.4385 Y-0.8972
G01 X0.4350 Y-0.8981
G01 X0.4338 Y-0.8983
G01 X0.4306 Y-0.8988
G01 X0.4298 Y-0.8989
G01 X0.4290 Y-0.8990
G01 X0.4258 Y-0.8991
G01 X0.4250 Y-0.8991
G01 X0.2746 Y-0.8991
G01 X0.2710 Y-0.8990
G01 X0.2702 Y-0.8989
G01 X0.2694 Y-0.8988
G01 X0.2662 Y-0.8983
G01 X0.2654 Y-0.8982
G01 X0.2647 Y-0.8980
G01 X0.2615 Y-0.8972
G01 X0.2607 Y-0.8970
G01 X0.2600 Y-0.8968
G01 X0.2569 Y-0.8957
G01 X0.2562 Y-0.8954
G01 X0.2555 Y-0.8951
G01 X0.2525 Y-0.8937
G01 X0.2518 Y-0.8933
G01 X0.2512 Y-0.8930
G01 X0.2484 Y-0.8913
G01 X0.2477 Y-0.8909
G01 X0.2471 Y-0.8904
G01 X0.2444 Y-0.8885
G01 X0.2438 Y-0.8880
G01 X0.2432 Y-0.8875
G01 X0.2408 Y-0.8853
G01 X0.2403 Y-0.8847
G01 X0.2397 Y-0.8842
G01 X0.2375 Y-0.8818
G01 X0.2370 Y-0.8812
G01 X0.2365 Y-0.8806
G01 X0.2346 Y-0.8779
G01 X0.2341 Y-0.8773
G01 X0.2337 Y-0.8766
G01 X0.2320 Y-0.8738
G01 X0.2317 Y-0.8732
G01 X0.2313 Y-0.8725
G01 X0.2299 Y-0.8695
G01 X0.2296 Y-0.8688
G01 X0.2293 Y-0.8681
G01 X0.2282 Y-0.8650
G01 X0.2280 Y-0.8643
G01 X0.2278 Y-0.8635
G01 X0.2270 Y-0.8603
G01 X0.2268 Y-0.8596
G01 X0.2267 Y-0.8588
G01 X0.2262 Y-0.8556
G01 X0.2261 Y-0.8548
G01 X0.2260 Y-0.8540
G01 X0.2259 Y-0.8508
G01 X0.2259 Y-0.8496
G01 X0.2260 Y-0.8460
G01 X0.2261 Y-0.8452
G01 X0.2262 Y-0.8444
G01 X0.2267 Y-0.8412
G01 X0.2268 Y-0.8404
G01 X0.2270 Y-0.8397
G01 X0.2278 Y-0.8365
G01 X0.2280 Y-0.8357
G01 X0.2282 Y-0.8350
G01 X0.2293 Y-0.8319
G01 X0.2296 Y-0.8312
G01 X0.2299 Y-0.8305
G01 X0.2315 Y-0.8272
G01 X0.2320 Y-0.8262
G01 X0.2337 Y-0.8234
G01 X0.2341 Y-0.8227
G01 X0.2346 Y-0.8221
G01 X0.2365 Y-0.8194
G01 X0.2370 Y-0.8188
G01 X0.2375 Y-0.8182
G01 X0.2397 Y-0.8158
G01 X0.2403 Y-0.8153
G01 X0.2408 Y-0.8147
G01 X0.2432 Y-0.8125
G01 X0.2441 Y-0.8118
G01 X0.2471 Y-0.8096
G01 X0.2477 Y-0.8091
G01 X0.2484 Y-0.8087
G01 X0.2512 Y-0.8070
G01 X0.2518 Y-0.8067
G01 X0.2525 Y-0.8063
G01 X0.2555 Y-0.8049
G01 X0.2562 Y-0.8046
G01 X0.2569 Y-0.8043
G01 X0.2600 Y-0.8032
G01 X0.2607 Y-0.8030
G01 X0.2615 Y-0.8028
G01 X0.2647 Y-0.8020
G01 X0.2654 Y-0.8018
G01 X0.2662 Y-0.8017
G01 X0.2694 Y-0.8012
G01 X0.2702 Y-0.8011
G01 X0.2710 Y-0.8010
G01 X0.2742 Y-0.8009
G01 X0.2750 Y-0.8009
G01 X0.4254 Y-0.8009
G01 X0.4290 Y-0.8010
G01 X0.4298 Y-0.8011
G01 X0.4306 Y-0.8012
G01 X0.4338 Y-0.8017
G01 X0.4346 Y-0.8018
G01 X0.4353 Y-0.8020
G01 X0.4385 Y-0.8028
G01 X0.4393 Y-0.8030
G01 X0.4400 Y-0.8032
G01 X0.4431 Y-0.8043
G01 X0.4438 Y-0.8046
G01 X0.4445 Y-0.8049
G01 X0.4475 Y-0.8063
G01 X0.4485 Y-0.8069
G01 X0.4520 Y-0.8089
G01 X0.4529 Y-0.8096
G01 X0.4556 Y-0.8115
G01 X0.4562 Y-0.8120
G01 X0.4568 Y-0.8125
G01 X0.4592 Y-0.8147
G01 X0.4600 Y-0.8155
G01 X0.4625 Y-0.8182
G01 X0.4630 Y-0.8188
G01 X0.4635 Y-0.8194
G01 X0.4654 Y-0.8221
G01 X0.4659 Y-0.8227
G01 X0.4663 Y-0.8234
G01 X0.4680 Y-0.8262
G01 X0.4683 Y-0.8268
G01 X0.4687 Y-0.8275
G01 X0.4701 Y-0.8305
G01 X0.4704 Y-0.8312
G01 X0.4707 Y-0.8319
G01 X0.4718 Y-0.8350
G01 X0.4720 Y-0.8357
G01 X0.4722 Y-0.8365
G01 X0.4730 Y-0.8397
G01 X0.4732 Y-0.8404
G01 X0.4733 Y-0.8412
G01 X0.4738 Y-0.8444
G01 X0.4739 Y-0.8452
G01 X0.4740 Y-0.8460
G01 X0.4741 Y-0.8492
G01 X0.4741 Y-0.8500
G01 X0.4741 Y-0.8508
G01 X0.4740 Y-0.8540
G01 X0.4739 Y-0.8548
G01 X0.4738 Y-0.8556
G00 Z0.1000
G00 X0.4738 Y-0.9556
G01 F2.00
G01 Z-0.0020
G01 F14.00
G01 X0.4733 Y-0.9588
G01 X0.4732 Y-0.9596
G01 X0.4730 Y-0.9603
G01 X0.4722 Y-0.9635
G01 X0.4720 Y-0.9643
G01 X0.4718 Y-0.9650
G01 X0.4707 Y-0.9681
G01 X0.4704 Y-0.9688
G01 X0.4701 Y-0.9695
G01 X0.4687 Y-0.9725
G01 X0.4683 Y-0.9732
G01 X0.4680 Y-0.9738
G01 X0.4663 Y-0.9766
G01 X0.4656 Y-0.9776
G01 X0.4635 Y-0.9806
G01 X0.4630 Y-0.9812
G01 X0.4625 Y-0.9818
G01 X0.4603 Y-0.9842
G01 X0.4597 Y-0.9847
G01 X0.4592 Y-0.9853
G01 X0.4565 Y-0.9877
G01 X0.4556 Y-0.9885
G01 X0.4529 Y-0.9904
G01 X0.4523 Y-0.9909
G01 X0.4516 Y-0.9913
G01 X0.4488 Y-0.9930
G01 X0.4482 Y-0.9933
G01 X0.4475 Y-0.9937
G01 X0.4445 Y-0.9951
G01 X0.4438 Y-0.9954
G01 X0.4431 Y-0.9957
G01 X0.4400 Y-0.9968
G01 X0.4393 Y-0.9970
G01 X0.4385 Y-0.9972
G01 X0.4350 Y-0.9981
G01 X0.4338 Y-0.9983
G01 X0.4306 Y-0.9988
G01 X0.4298 Y-0.9989
G01 X0.4290 Y-0.9990
G01 X0.4258 Y-0.9991
G01 X0.4250 Y-0.9991
G01 X0.2746 Y-0.9991
G01 X0.2710 Y-0.9990
G01 X0.2702 Y-0.9989
G01 X0.2694 Y-0.9988
G01 X0.2662 Y-0.9983
G01 X0.2654 Y-0.9982
G01 X0.2647 Y-0.9980
G01 X0.2615 Y-0.9972
G01 X0.2607 Y-0.9970
G01 X0.2600 Y-0.9968
G01 X0.2569 Y-0.9957
G01 X0.2562 Y-0.9954
G01 X0.2555 Y-0.9951
G01 X0.2525 Y-0.9937
G01 X0.2518 Y-0.9933
G01 X0.2512 Y-0.9930
G01 X0.2484 Y-0.9913
G01 X0.2477 Y-0.9909
G01 X0.2471 Y-0.9904
G01 X0.2444 Y-0.9885
G01 X0.2438 Y-0.9880
G01 X0.2432 Y-0.9875
G01 X0.2408 Y-0.9853
G01 X0.2403 Y-0.9847
G01 X0.2397 Y-0.9842
G01 X0.2375 Y-0.9818
G01 X0.2370 Y-0.9812
G01 X0.2365 Y-0.9806
G01 X0.2346 Y-0.9779
G01 X0.2341 Y-0.9773
G01 X0.2337 Y-0.9766
G01 X0.2320 Y-0.9738
G01 X0.2317 Y-0.9732
G01 X0.2313 Y-0.9725
G01 X0.2299 Y-0.9695
G01 X0.2296 Y-0.9688
G01 X0.2293 Y-0.9681
G01 X0.2282 Y-0.9650
G01 X0.2280 Y-0.9643
G01 X0.2278 Y-0.9635
G01 X0.2270 Y-0.9603
G01 X0.2268 Y-0.9596
G01 X0.2267 Y-0.9588
G01 X0.2262 Y-0.9556
G01 X0.2261 Y-0.9548
G01 X0.2260 Y-0.9540
G01 X0.2259 Y-0.9508
G01 X0.2259 Y-0.9496
G01 X0.2260 Y-0.9460
G01 X0.2261 Y-0.9452
G01 X0.2262 Y-0.9444
G01 X0.2267 Y-0.9412
G01 X0.2268 Y-0.9404
G01 X0.2270 Y-0.9397
G01 X0.2278 Y-0.9365
G01 X0.2280 Y-0.9357
G01 X0.2282 Y-0.9350
G01 X0.2293 Y-0.9319
G01 X0.2296 Y-0.9312
G01 X0.2299 Y-0.9305
G01 X0.2315 Y-0.9272
G01 X0.2320 Y-0.9262
G01 X0.2337 Y-0.9234
G01 X0.2341 Y-0.9227
G01 X0.2346 Y-0.9221
G01 X0.2365 Y-0.9194
G01 X0.2370 Y-0.9188
G01 X0.2375 Y-0.9182
G01 X0.2397 Y-0.9158
G01 X0.2403 Y-0.9153
G01 X0.2408 Y-0.9147
G01 X0.2432 Y-0.9125
G01 X0.2441 Y-0.9118
G01 X0.2471 Y-0.9096
G01 X0.2477 Y-0.9091
G01 X0.2484 Y-0.9087
G01 X0.2512 Y-0.9070
G01 X0.2518 Y-0.9067
G01 X0.2525 Y-0.9063
G01 X0.2555 Y-0.9049
G01 X0.2562 Y-0.9046
G01 X0.2569 Y-0.9043
G01 X0.2600 Y-0.9032
G01 X0.2607 Y-0.9030
G01 X0.2615 Y-0.9028
G01 X0.2647 Y-0.9020
G01 X0.2654 Y-0.9018
G01 X0.2662 Y-0.9017
G01 X0.2694 Y-0.9012
G01 X0.2702 Y-0.9011
G01 X0.2710 Y-0.9010
G01 X0.2742 Y-0.9009
G01 X0.2750 Y-0.9009
G01 X0.4254 Y-0.9009
G01 X0.4290 Y-0.9010
G01 X0.4298 Y-0.9011
G01 X0.4306 Y-0.9012
G01 X0.4338 Y-0.9017
G01 X0.4346 Y-0.9018
G01 X0.4353 Y-0.9020
G01 X0.4385 Y-0.9028
G01 X0.4393 Y-0.9030
G01 X0.4400 Y-0.9032
G01 X0.4431 Y-0.9043
G01 X0.4438 Y-0.9046
G01 X0.4445 Y-0.9049
G01 X0.4475 Y-0.9063
G01 X0.4485 Y-0.9069
G01 X0.4520 Y-0.9089
G01 X0.4529 Y-0.9096
G01 X0.4556 Y-0.9115
G01 X0.4562 Y-0.9120
G01 X0.4568 Y-0.9125
G01 X0.4592 Y-0.9147
G01 X0.4600 Y-0.9155
G01 X0.4625 Y-0.9182
G01 X0.4630 Y-0.9188
G01 X0.4635 Y-0.9194
G01 X0.4654 Y-0.9221
G01 X0.4659 Y-0.9227
G01 X0.4663 Y-0.9234
G01 X0.4680 Y-0.9262
G01 X0.4683 Y-0.9268
G01 X0.4687 Y-0.9275
G01 X0.4701 Y-0.9305
G01 X0.4704 Y-0.9312
G01 X0.4707 Y-0.9319
G01 X0.4718 Y-0.9350
G01 X0.4720 Y-0.9357
G01 X0.4722 Y-0.9365
G01 X0.4730 Y-0.9397
G01 X0.4732 Y-0.9404
G01 X0.4733 Y-0.9412
G01 X0.4738 Y-0.9444
G01 X0.4739 Y-0.9452
G01 X0.4740 Y-0.9460
G01 X0.4741 Y-0.9492
G01 X0.4741 Y-0.9500
G01 X0.4741 Y-0.9508
G01 X0.4740 Y-0.9540
G01 X0.4739 Y-0.9548
G01 X0.4738 Y-0.9556
G00 Z0.1000
G00 X0.4738 Y-1.0556
G01 F2.00
G01 Z-0.0020
G01 F14.00
G01 X0.4733 Y-1.0588
G01 X0.4732 Y-1.0596
G01 X0.4730 Y-1.0603
G01 X0.4722 Y-1.0635
G01 X0.4720 Y-1.0643
G01 X0.4718 Y-1.0650
G01 X0.4707 Y-1.0681
G01 X0.4704 Y-1.0688
G01 X0.4701 Y-1.0695
G01 X0.4687 Y-1.0725
G01 X0.4683 Y-1.0732
G01 X0.4680 Y-1.0738
G01 X0.4663 Y-1.0766
G01 X0.4656 Y-1.0776
G01 X0.4635 Y-1.0806
G01 X0.4630 Y-1.0812
G01 X0.4625 Y-1.0818
G01 X0.4603 Y-1.0842
G01 X0.4597 Y-1.0847
G01 X0.4592 Y-1.0853
G01 X0.4565 Y-1.0877
G01 X0.4556 Y-1.0885
G01 X0.4529 Y-1.0904
G01 X0.4523 Y-1.0909
G01 X0.4516 Y-1.0913
G01 X0.4488 Y-1.0930
G01 X0.4482 Y-1.0933
G01 X0.4475 Y-1.0937
G01 X0.4445 Y-1.0951
G01 X0.4438 Y-1.0954
G01 X0.4431 Y-1.0957
G01 X0.4400 Y-1.0968
G01 X0.4393 Y-1.0970
G01 X0.4385 Y-1.0972
G01 X0.4350 Y-1.0981
G01 X0.4338 Y-1.0983
G01 X0.4306 Y-1.0988
G01 X0.4298 Y-1.0989
G01 X0.4290 Y-1.0990
G01 X0.4258 Y-1.0991
G01 X0.4250 Y-1.0991
G01 X0.2746 Y-1.0991
G01 X0.2710 Y-1.0990
G01 X0.2702 Y-1.0989
G01 X0.2694 Y-1.0988
G01 X0.2662 Y-1.0983
G01 X0.2654 Y-1.0982
G01 X0.2647 Y-1.0980
G01 X0.2615 Y-1.0972
G01 X0.2607 Y-1.0970
G01 X0.2600 Y-1.0968
G01 X0.2569 Y-1.0957
G01 X0.2562 Y-1.0954
G01 X0.2555 Y-1.0951
G01 X0.2525 Y-1.0937
G01 X0.2518 Y-1.0933
G01 X0.2512 Y-1.0930
G01 X0.2484 Y-1.0913
G01 X0.2477 Y-1.0909
G01 X0.2471 Y-1.0904
G01 X0.2444 Y-1.0885
G01 X0.2438 Y-1.0880
G01 X0.2432 Y-1.0875
G01 X0.2408 Y-1.0853
G01 X0.2403 Y-1.0847
G01 X0.2397 Y-1.0842
G01 X0.2375 Y-1.0818
G01 X0.2370 Y-1.0812
G01 X0.2365 Y-1.0806
G01 X0.2346 Y-1.0779
G01 X0.2341 Y-1.0773
G01 X0.2337 Y-1.0766
G01 X0.2320 Y-1.0738
G01 X0.2317 Y-1.0732
G01 X0.2313 Y-1.0725
G01 X0.2299 Y-1.0695
G01 X0.2296 Y-1.0688
G01 X0.2293 Y-1.0681
G01 X0.2282 Y-1.0650
G01 X0.2280 Y-1.0643
G01 X0.2278 Y-1.0635
G01 X0.2270 Y-1.0603
G01 X0.2268 Y-1.0596
G01 X0.2267 Y-1.0588
G01 X0.2262 Y-1.0556
G01 X0.2261 Y-1.0548
G01 X0.2260 Y-1.0540
G01 X0.2259 Y-1.0508
G01 X0.2259 Y-1.0496
G01 X0.2260 Y-1.0460
G01 X0.2261 Y-1.0452
G01 X0.2262 Y-1.0444
G01 X0.2267 Y-1.0412
G01 X0.2268 Y-1.0404
G01 X0.2270 Y-1.0397
G01 X0.2278 Y-1.0365
G01 X0.2280 Y-1.0357
G01 X0.2282 Y-1.0350
G01 X0.2293 Y-1.0319
G01 X0.2296 Y-1.0312
G01 X0.2299 Y-1.0305
G01 X0.2315 Y-1.0272
G01 X0.2320 Y-1.0262
G01 X0.2337 Y-1.0234
G01 X0.2341 Y-1.0227
G01 X0.2346 Y-1.0221
G01 X0.2365 Y-1.0194
G01 X0.2370 Y-1.0188
G01 X0.2375 Y-1.0182
G01 X0.2397 Y-1.0158
G01 X0.2403 Y-1.0153
G01 X0.2408 Y-1.0147
G01 X0.2432 Y-1.0125
G01 X0.2441 Y-1.0118
G01 X0.2471 Y-1.0096
G01 X0.2477 Y-1.0091
G01 X0.2484 Y-1.0087
G01 X0.2512 Y-1.0070
G01 X0.2518 Y-1.0067
G01 X0.2525 Y-1.0063
G01 X0.2555 Y-1.0049
G01 X0.2562 Y-1.0046
G01 X0.2569 Y-1.0043
G01 X0.2600 Y-1.0032
G01 X0.2607 Y-1.0030
G01 X0.2615 Y-1.0028
G01 X0.2647 Y-1.0020
G01 X0.2654 Y-1.0018
G01 X0.2662 Y-1.0017
G01 X0.2694 Y-1.0012
G01 X0.2702 Y-1.0011
G01 X0.2710 Y-1.0010
G01 X0.2742 Y-1.0009
G01 X0.2750 Y-1.0009
G01 X0.4254 Y-1.0009
G01 X0.4290 Y-1.0010
G01 X0.4298 Y-1.0011
G01 X0.4306 Y-1.0012
G01 X0.4338 Y-1.0017
G01 X0.4346 Y-1.0018
G01 X0.4353 Y-1.0020
G01 X0.4385 Y-1.0028
G01 X0.4393 Y-1.0030
G01 X0.4400 Y-1.0032
G01 X0.4431 Y-1.0043
G01 X0.4438 Y-1.0046
G01 X0.4445 Y-1.0049
G01 X0.4475 Y-1.0063
G01 X0.4485 Y-1.0069
G01 X0.4520 Y-1.0089
G01 X0.4529 Y-1.0096
G01 X0.4556 Y-1.0115
G01 X0.4562 Y-1.0120
G01 X0.4568 Y-1.0125
G01 X0.4592 Y-1.0147
G01 X0.4600 Y-1.0155
G01 X0.4625 Y-1.0182
G01 X0.4630 Y-1.0188
G01 X0.4635 Y-1.0194
G01 X0.4654 Y-1.0221
G01 X0.4659 Y-1.0227
G01 X0.4663 Y-1.0234
G01 X0.4680 Y-1.0262
G01 X0.4683 Y-1.0268
G01 X0.4687 Y-1.0275
G01 X0.4701 Y-1.0305
G01 X0.4704 Y-1.0312
G01 X0.4707 Y-1.0319
G01 X0.4718 Y-1.0350
G01 X0.4720 Y-1.0357
G01 X0.4722 Y-1.0365
G01 X0.4730 Y-1.0397
G01 X0.4732 Y-1.0404
G01 X0.4733 Y-1.0412
G01 X0.4738 Y-1.0444
G01 X0.4739 Y-1.0452
G01 X0.4740 Y-1.0460
G01 X0.4741 Y-1.0492
G01 X0.4741 Y-1.0500
G01 X0.4741 Y-1.0508
G01 X0.4740 Y-1.0540
G01 X0.4739 Y-1.0548
G01 X0.4738 Y-1.0556
G00 Z0.1000
G00 X0.4738 Y-1.1556
G01 F2.00
G01 Z-0.0020
G01 F14.00
G01 X0.4733 Y-1.1588
G01 X0.4732 Y-1.1596
G01 X0.4730 Y-1.1603
G01 X0.4722 Y-1.1635
G01 X0.4720 Y-1.1643
G01 X0.4718 Y-1.1650
G01 X0.4707 Y-1.1681
G01 X0.4704 Y-1.1688
G01 X0.4701 Y-1.1695
G01 X0.4687 Y-1.1725
G01 X0.4683 Y-1.1732
G01 X0.4680 Y-1.1738
G01 X0.4663 Y-1.1766
G01 X0.4656 Y-1.1776
G01 X0.4635 Y-1.1806
G01 X0.4630 Y-1.1812
G01 X0.4625 Y-1.1818
G01 X0.4603 Y-1.1842
G01 X0.4597 Y-1.1847
G01 X0.4592 Y-1.1853
G01 X0.4565 Y-1.1877
G01 X0.4556 Y-1.1885
G01 X0.4529 Y-1.1904
G01 X0.4523 Y-1.1909
G01 X0.4516 Y-1.1913
G01 X0.4488 Y-1.1930
G01 X0.4482 Y-1.1933
G01 X0.4475 Y-1.1937
G01 X0.4445 Y-1.1951
G01 X0.4438 Y-1.1954
G01 X0.4431 Y-1.1957
G01 X0.4400 Y-1.1968
G01 X0.4393 Y-1.1970
G01 X0.4385 Y-1.1972
G01 X0.4350 Y-1.1981
G01 X0.4338 Y-1.1983
G01 X0.4306 Y-1.1988
G01 X0.4298 Y-1.1989
G01 X0.4290 Y-1.1990
G01 X0.4258 Y-1.1991
G01 X0.4250 Y-1.1991
G01 X0.2746 Y-1.1991
G01 X0.2710 Y-1.1990
G01 X0.2702 Y-1.1989
G01 X0.2694 Y-1.1988
G01 X0.2662 Y-1.1983
G01 X0.2654 Y-1.1982
G01 X0.2647 Y-1.1980
G01 X0.2615 Y-1.1972
G01 X0.2607 Y-1.1970
G01 X0.2600 Y-1.1968
G01 X0.2569 Y-1.1957
G01 X0.2562 Y-1.1954
G01 X0.2555 Y-1.1951
G01 X0.2525 Y-1.1937
G01 X0.2518 Y-1.1933
G01 X0.2512 Y-1.1930
G01 X0.2484 Y-1.1913
G01 X0.2477 Y-1.1909
G01 X0.2471 Y-1.1904
G01 X0.2444 Y-1.1885
G01 X0.2438 Y-1.1880
G01 X0.2432 Y-1.1875
G01 X0.2408 Y-1.1853
G01 X0.2403 Y-1.1847
G01 X0.2397 Y-1.1842
G01 X0.2375 Y-1.1818
G01 X0.2370 Y-1.1812
G01 X0.2365 Y-1.1806
G01 X0.2346 Y-1.1779
G01 X0.2341 Y-1.1773
G01 X0.2337 Y-1.1766
G01 X0.2320 Y-1.1738
G01 X0.2317 Y-1.1732
G01 X0.2313 Y-1.1725
G01 X0.2299 Y-1.1695
G01 X0.2296 Y-1.1688
G01 X0.2293 Y-1.1681
G01 X0.2282 Y-1.1650
G01 X0.2280 Y-1.1643
G01 X0.2278 Y-1.1635
G01 X0.2270 Y-1.1603
G01 X0.2268 Y-1.1596
G01 X0.2267 Y-1.1588
G01 X0.2262 Y-1.1556
G01 X0.2261 Y-1.1548
G01 X0.2260 Y-1.1540
G01 X0.2259 Y-1.1508
G01 X0.2259 Y-1.1496
G01 X0.2260 Y-1.1460
G01 X0.2261 Y-1.1452
G01 X0.2262 Y-1.1444
G01 X0.2267 Y-1.1412
G01 X0.2268 Y-1.1404
G01 X0.2270 Y-1.1397
G01 X0.2278 Y-1.1365
G01 X0.2280 Y-1.1357
G01 X0.2282 Y-1.1350
G01 X0.2293 Y-1.1319
G01 X0.2296 Y-1.1312
G01 X0.2299 Y-1.1305
G01 X0.2315 Y-1.1272
G01 X0.2320 Y-1.1262
G01 X0.2337 Y-1.1234
G01 X0.2341 Y-1.1227
G01 X0.2346 Y-1.1221
G01 X0.2365 Y-1.1194
G01 X0.2370 Y-1.1188
G01 X0.2375 Y-1.1182
G01 X0.2397 Y-1.1158
G01 X0.2403 Y-1.1153
G01 X0.2408 Y-1.1147
G01 X0.2432 Y-1.1125
G01 X0.2441 Y-1.1118
G01 X0.2471 Y-1.1096
G01 X0.2477 Y-1.1091
G01 X0.2484 Y-1.1087
G01 X0.2512 Y-1.1070
G01 X0.2518 Y-1.1067
G01 X0.2525 Y-1.1063
G01 X0.2555 Y-1.1049
G01 X0.2562 Y-1.1046
G01 X0.2569 Y-1.1043
G01 X0.2600 Y-1.1032
G01 X0.2607 Y-1.1030
G01 X0.2615 Y-1.1028
G01 X0.2647 Y-1.1020
G01 X0.2654 Y-1.1018
G01 X0.2662 Y-1.1017
G01 X0.2694 Y-1.1012
G01 X0.2702 Y-1.1011
G01 X0.2710 Y-1.1010
G01 X0.2742 Y-1.1009
G01 X0.2750 Y-1.1009
G01 X0.4254 Y-1.1009
G01 X0.4290 Y-1.1010
G01 X0.4298 Y-1.1011
G01 X0.4306 Y-1.1012
G01 X0.4338 Y-1.1017
G01 X0.4346 Y-1.1018
G01 X0.4353 Y-1.1020
G01 X0.4385 Y-1.1028
G01 X0.4393 Y-1.1030
G01 X0.4400 Y-1.1032
G01 X0.4431 Y-1.1043
G01 X0.4438 Y-1.1046
G01 X0.4445 Y-1.1049
G01 X0.4475 Y-1.1063
G01 X0.4485 Y-1.1069
G01 X0.4520 Y-1.1089
G01 X0.4529 Y-1.1096
G01 X0.4556 Y-1.1115
G01 X0.4562 Y-1.1120
G01 X0.4568 Y-1.1125
G01 X0.4592 Y-1.1147
G01 X0.4600 Y-1.1155
G01 X0.4625 Y-1.1182
G01 X0.4630 Y-1.1188
G01 X0.4635 Y-1.1194
G01 X0.4654 Y-1.1221
G01 X0.4659 Y-1.1227
G01 X0.4663 Y-1.1234
G01 X0.4680 Y-1.1262
G01 X0.4683 Y-1.1268
G01 X0.4687 Y-1.1275
G01 X0.4701 Y-1.1305
G01 X0.4704 Y-1.1312
G01 X0.4707 Y-1.1319
G01 X0.4718 Y-1.1350
G01 X0.4720 Y-1.1357
G01 X0.4722 Y-1.1365
G01 X0.4730 Y-1.1397
G01 X0.4732 Y-1.1404
G01 X0.4733 Y-1.1412
G01 X0.4738 Y-1.1444
G01 X0.4739 Y-1.1452
G01 X0.4740 Y-1.1460
G01 X0.4741 Y-1.1492
G01 X0.4741 Y-1.1500
G01 X0.4741 Y-1.1508
G01 X0.4740 Y-1.1540
G01 X0.4739 Y-1.1548
G01 X0.4738 Y-1.1556
G00 Z0.1000
G00 X0.4738 Y-1.2556
G01 F2.00
G01 Z-0.0020
G01 F14.00
G01 X0.4733 Y-1.2588
G01 X0.4732 Y-1.2596
G01 X0.4730 Y-1.2603
G01 X0.4722 Y-1.2635
G01 X0.4720 Y-1.2643
G01 X0.4718 Y-1.2650
G01 X0.4707 Y-1.2681
G01 X0.4704 Y-1.2688
G01 X0.4701 Y-1.2695
G01 X0.4687 Y-1.2725
G01 X0.4683 Y-1.2732
G01 X0.4680 Y-1.2738
G01 X0.4663 Y-1.2766
G01 X0.4656 Y-1.2776
G01 X0.4635 Y-1.2806
G01 X0.4630 Y-1.2812
G01 X0.4625 Y-1.2818
G01 X0.4603 Y-1.2842
G01 X0.4597 Y-1.2847
G01 X0.4592 Y-1.2853
G01 X0.4565 Y-1.2877
G01 X0.4556 Y-1.2885
G01 X0.4529 Y-1.2904
G01 X0.4523 Y-1.2909
G01 X0.4516 Y-1.2913
G01 X0.4488 Y-1.2930
G01 X0.4482 Y-1.2933
G01 X0.4475 Y-1.2937
G01 X0.4445 Y-1.2951
G01 X0.4438 Y-1.2954
G01 X0.4431 Y-1.2957
G01 X0.4400 Y-1.2968
G01 X0.4393 Y-1.2970
G01 X0.4385 Y-1.2972
G01 X0.4350 Y-1.2981
G01 X0.4338 Y-1.2983
G01 X0.4306 Y-1.2988
G01 X0.4298 Y-1.2989
G01 X0.4290 Y-1.2990
G01 X0.4258 Y-1.2991
G01 X0.4250 Y-1.2991
G01 X0.2746 Y-1.2991
G01 X0.2710 Y-1.2990
G01 X0.2702 Y-1.2989
G01 X0.2694 Y-1.2988
G01 X0.2662 Y-1.2983
G01 X0.2654 Y-1.2982
G01 X0.2647 Y-1.2980
G01 X0.2615 Y-1.2972
G01 X0.2607 Y-1.2970
G01 X0.2600 Y-1.2968
G01 X0.2569 Y-1.2957
G01 X0.2562 Y-1.2954
G01 X0.2555 Y-1.2951
G01 X0.2525 Y-1.2937
G01 X0.2518 Y-1.2933
G01 X0.2512 Y-1.2930
G01 X0.2484 Y-1.2913
G01 X0.2477 Y-1.2909
G01 X0.2471 Y-1.2904
G01 X0.2444 Y-1.2885
G01 X0.2438 Y-1.2880
G01 X0.2432 Y-1.2875
G01 X0.2408 Y-1.2853
G01 X0.2403 Y-1.2847
G01 X0.2397 Y-1.2842
G01 X0.2375 Y-1.2818
G01 X0.2370 Y-1.2812
G01 X0.2365 Y-1.2806
G01 X0.2346 Y-1.2779
G01 X0.2341 Y-1.2773
G01 X0.2337 Y-1.2766
G01 X0.2320 Y-1.2738
G01 X0.2317 Y-1.2732
G01 X0.2313 Y-1.2725
G01 X0.2299 Y-1.2695
G01 X0.2296 Y-1.2688
G01 X0.2293 Y-1.2681
G01 X0.2282 Y-1.2650
G01 X0.2280 Y-1.2643
G01 X0.2278 Y-1.2635
G01 X0.2270 Y-1.2603
G01 X0.2268 Y-1.2596
G01 X0.2267 Y-1.2588
G01 X0.2262 Y-1.2556
G01 X0.2261 Y-1.2548
G01 X0.2260 Y-1.2540
G01 X0.2259 Y-1.2508
G01 X0.2259 Y-1.2496
G01 X0.2260 Y-1.2460
G01 X0.2261 Y-1.2452
G01 X0.2262 Y-1.2444
G01 X0.2267 Y-1.2412
G01 X0.2268 Y-1.2404
G01 X0.2270 Y-1.2397
G01 X0.2278 Y-1.2365
G01 X0.2280 Y-1.2357
G01 X0.2282 Y-1.2350
G01 X0.2293 Y-1.2319
G01 X0.2296 Y-1.2312
G01 X0.2299 Y-1.2305
G01 X0.2315 Y-1.2272
G01 X0.2320 Y-1.2262
G01 X0.2337 Y-1.2234
G01 X0.2341 Y-1.2227
G01 X0.2346 Y-1.2221
G01 X0.2365 Y-1.2194
G01 X0.2370 Y-1.2188
G01 X0.2375 Y-1.2182
G01 X0.2397 Y-1.2158
G01 X0.2403 Y-1.2153
G01 X0.2408 Y-1.2147
G01 X0.2432 Y-1.2125
G01 X0.2441 Y-1.2118
G01 X0.2471 Y-1.2096
G01 X0.2477 Y-1.2091
G01 X0.2484 Y-1.2087
G01 X0.2512 Y-1.2070
G01 X0.2518 Y-1.2067
G01 X0.2525 Y-1.2063
G01 X0.2555 Y-1.2049
G01 X0.2562 Y-1.2046
G01 X0.2569 Y-1.2043
G01 X0.2600 Y-1.2032
G01 X0.2607 Y-1.2030
G01 X0.2615 Y-1.2028
G01 X0.2647 Y-1.2020
G01 X0.2654 Y-1.2018
G01 X0.2662 Y-1.2017
G01 X0.2694 Y-1.2012
G01 X0.2702 Y-1.2011
G01 X0.2710 Y-1.2010
G01 X0.2742 Y-1.2009
G01 X0.2750 Y-1.2009
G01 X0.4254 Y-1.2009
G01 X0.4290 Y-1.2010
G01 X0.4298 Y-1.2011
G01 X0.4306 Y-1.2012
G01 X0.4338 Y-1.2017
G01 X0.4346 Y-1.2018
G01 X0.4353 Y-1.2020
G01 X0.4385 Y-1.2028
G01 X0.4393 Y-1.2030
G01 X0.4400 Y-1.2032
G01 X0.4431 Y-1.2043
G01 X0.4438 Y-1.2046
G01 X0.4445 Y-1.2049
G01 X0.4475 Y-1.2063
G01 X0.4485 Y-1.2069
G01 X0.4520 Y-1.2089
G01 X0.4529 Y-1.2096
G01 X0.4556 Y-1.2115
G01 X0.4562 Y-1.2120
G01 X0.4568 Y-1.2125
G01 X0.4592 Y-1.2147
G01 X0.4600 Y-1.2155
G01 X0.4625 Y-1.2182
G01 X0.4630 Y-1.2188
G01 X0.4635 Y-1.2194
G01 X0.4654 Y-1.2221
G01 X0.4659 Y-1.2227
G01 X0.4663 Y-1.2234
G01 X0.4680 Y-1.2262
G01 X0.4683 Y-1.2268
G01 X0.4687 Y-1.2275
G01 X0.4701 Y-1.2305
G01 X0.4704 Y-1.2312
G01 X0.4707 Y-1.2319
G01 X0.4718 Y-1.2350
G01 X0.4720 Y-1.2357
G01 X0.4722 Y-1.2365
G01 X0.4730 Y-1.2397
G01 X0.4732 Y-1.2404
G01 X0.4733 Y-1.2412
G01 X0.4738 Y-1.2444
G01 X0.4739 Y-1.2452
G01 X0.4740 Y-1.2460
G01 X0.4741 Y-1.2492
G01 X0.4741 Y-1.2500
G01 X0.4741 Y-1.2508
G01 X0.4740 Y-1.2540
G01 X0.4739 Y-1.2548
G01 X0.4738 Y-1.2556
G00 Z0.1000
G00 X0.4738 Y-1.3556
G01 F2.00
G01 Z-0.0020
G01 F14.00
G01 X0.4733 Y-1.3588
G01 X0.4732 Y-1.3596
G01 X0.4730 Y-1.3603
G01 X0.4722 Y-1.3635
G01 X0.4720 Y-1.3643
G01 X0.4718 Y-1.3650
G01 X0.4707 Y-1.3681
G01 X0.4704 Y-1.3688
G01 X0.4701 Y-1.3695
G01 X0.4687 Y-1.3725
G01 X0.4683 Y-1.3732
G01 X0.4680 Y-1.3738
G01 X0.4663 Y-1.3766
G01 X0.4656 Y-1.3776
G01 X0.4635 Y-1.3806
G01 X0.4630 Y-1.3812
G01 X0.4625 Y-1.3818
G01 X0.4603 Y-1.3842
G01 X0.4597 Y-1.3847
G01 X0.4592 Y-1.3853
G01 X0.4565 Y-1.3877
G01 X0.4556 Y-1.3885
G01 X0.4529 Y-1.3904
G01 X0.4523 Y-1.3909
G01 X0.4516 Y-1.3913
G01 X0.4488 Y-1.3930
G01 X0.4482 Y-1.3933
G01 X0.4475 Y-1.3937
G01 X0.4445 Y-1.3951
G01 X0.4438 Y-1.3954
G01 X0.4431 Y-1.3957
G01 X0.4400 Y-1.3968
G01 X0.4393 Y-1.3970
G01 X0.4385 Y-1.3972
G01 X0.4350 Y-1.3981
G01 X0.4338 Y-1.3983
G01 X0.4306 Y-1.3988
G01 X0.4298 Y-1.3989
G01 X0.4290 Y-1.3990
G01 X0.4258 Y-1.3991
G01 X0.4250 Y-1.3991
G01 X0.2746 Y-1.3991
G01 X0.2710 Y-1.3990
G01 X0.2702 Y-1.3989
G01 X0.2694 Y-1.3988
G01 X0.2662 Y-1.3983
G01 X0.2654 Y-1.3982
G01 X0.2647 Y-1.3980
G01 X0.2615 Y-1.3972
G01 X0.2607 Y-1.3970
G01 X0.2600 Y-1.3968
G01 X0.2569 Y-1.3957
G01 X0.2562 Y-1.3954
G01 X0.2555 Y-1.3951
G01 X0.2525 Y-1.3937
G01 X0.2518 Y-1.3933
G01 X0.2512 Y-1.3930
G01 X0.2484 Y-1.3913
G01 X0.2477 Y-1.3909
G01 X0.2471 Y-1.3904
G01 X0.2444 Y-1.3885
G01 X0.2438 Y-1.3880
G01 X0.2432 Y-1.3875
G01 X0.2408 Y-1.3853
G01 X0.2403 Y-1.3847
G01 X0.2397 Y-1.3842
G01 X0.2375 Y-1.3818
G01 X0.2370 Y-1.3812
G01 X0.2365 Y-1.3806
G01 X0.2346 Y-1.3779
G01 X0.2341 Y-1.3773
G01 X0.2337 Y-1.3766
G01 X0.2320 Y-1.3738
G01 X0.2317 Y-1.3732
G01 X0.2313 Y-1.3725
G01 X0.2299 Y-1.3695
G01 X0.2296 Y-1.3688
G01 X0.2293 Y-1.3681
G01 X0.2282 Y-1.3650
G01 X0.2280 Y-1.3643
G01 X0.2278 Y-1.3635
G01 X0.2270 Y-1.3603
G01 X0.2268 Y-1.3596
G01 X0.2267 Y-1.3588
G01 X0.2262 Y-1.3556
G01 X0.2261 Y-1.3548
G01 X0.2260 Y-1.3540
G01 X0.2259 Y-1.3508
G01 X0.2259 Y-1.3496
G01 X0.2260 Y-1.3460
G01 X0.2261 Y-1.3452
G01 X0.2262 Y-1.3444
G01 X0.2267 Y-1.3412
G01 X0.2268 Y-1.3404
G01 X0.2270 Y-1.3397
G01 X0.2278 Y-1.3365
G01 X0.2280 Y-1.3357
G01 X0.2282 Y-1.3350
G01 X0.2293 Y-1.3319
G01 X0.2296 Y-1.3312
G01 X0.2299 Y-1.3305
G01 X0.2315 Y-1.3272
G01 X0.2320 Y-1.3262
G01 X0.2337 Y-1.3234
G01 X0.2341 Y-1.3227
G01 X0.2346 Y-1.3221
G01 X0.2365 Y-1.3194
G01 X0.2370 Y-1.3188
G01 X0.2375 Y-1.3182
G01 X0.2397 Y-1.3158
G01 X0.2403 Y-1.3153
G01 X0.2408 Y-1.3147
G01 X0.2432 Y-1.3125
G01 X0.2441 Y-1.3118
G01 X0.2471 Y-1.3096
G01 X0.2477 Y-1.3091
G01 X0.2484 Y-1.3087
G01 X0.2512 Y-1.3070
G01 X0.2518 Y-1.3067
G01 X0.2525 Y-1.3063
G01 X0.2555 Y-1.3049
G01 X0.2562 Y-1.3046
G01 X0.2569 Y-1.3043
G01 X0.2600 Y-1.3032
G01 X0.2607 Y-1.3030
G01 X0.2615 Y-1.3028
G01 X0.2647 Y-1.3020
G01 X0.2654 Y-1.3018
G01 X0.2662 Y-1.3017
G01 X0.2694 Y-1.3012
G01 X0.2702 Y-1.3011
G01 X0.2710 Y-1.3010
G01 X0.2742 Y-1.3009
G01 X0.2750 Y-1.3009
G01 X0.4254 Y-1.3009
G01 X0.4290 Y-1.3010
G01 X0.4298 Y-1.3011
G01 X0.4306 Y-1.3012
G01 X0.4338 Y-1.3017
G01 X0.4346 Y-1.3018
G01 X0.4353 Y-1.3020
G01 X0.4385 Y-1.3028
G01 X0.4393 Y-1.3030
G01 X0.4400 Y-1.3032
G01 X0.4431 Y-1.3043
G01 X0.4438 Y-1.3046
G01 X0.4445 Y-1.3049
G01 X0.4475 Y-1.3063
G01 X0.4485 Y-1.3069
G01 X0.4520 Y-1.3089
G01 X0.4529 Y-1.3096
G01 X0.4556 Y-1.3115
G01 X0.4562 Y-1.3120
G01 X0.4568 Y-1.3125
G01 X0.4592 Y-1.3147
G01 X0.4600 Y-1.3155
G01 X0.4625 Y-1.3182
G01 X0.4630 Y-1.3188
G01 X0.4635 Y-1.3194
G01 X0.4654 Y-1.3221
G01 X0.4659 Y-1.3227
G01 X0.4663 Y-1.3234
G01 X0.4680 Y-1.3262
G01 X0.4683 Y-1.3268
G01 X0.4687 Y-1.3275
G01 X0.4701 Y-1.3305
G01 X0.4704 Y-1.3312
G01 X0.4707 Y-1.3319
G01 X0.4718 Y-1.3350
G01 X0.4720 Y-1.3357
G01 X0.4722 Y-1.3365
G01 X0.4730 Y-1.3397
G01 X0.4732 Y-1.3404
G01 X0.4733 Y-1.3412
G01 X0.4738 Y-1.3444
G01 X0.4739 Y-1.3452
G01 X0.4740 Y-1.3460
G01 X0.4741 Y-1.3492
G01 X0.4741 Y-1.3500
G01 X0.4741 Y-1.3508
G01 X0.4740 Y-1.3540
G01 X0.4739 Y-1.3548
G01 X0.4738 Y-1.3556
G00 Z0.1000
G00 X0.4738 Y-1.4556
G01 F2.00
G01 Z-0.0020
G01 F14.00
G01 X0.4733 Y-1.4588
G01 X0.4732 Y-1.4596
G01 X0.4730 Y-1.4603
G01 X0.4722 Y-1.4635
G01 X0.4720 Y-1.4643
G01 X0.4718 Y-1.4650
G01 X0.4707 Y-1.4681
G01 X0.4704 Y-1.4688
G01 X0.4701 Y-1.4695
G01 X0.4687 Y-1.4725
G01 X0.4683 Y-1.4732
G01 X0.4680 Y-1.4738
G01 X0.4663 Y-1.4766
G01 X0.4656 Y-1.4776
G01 X0.4635 Y-1.4806
G01 X0.4630 Y-1.4812
G01 X0.4625 Y-1.4818
G01 X0.4603 Y-1.4842
G01 X0.4597 Y-1.4847
G01 X0.4592 Y-1.4853
G01 X0.4565 Y-1.4877
G01 X0.4556 Y-1.4885
G01 X0.4529 Y-1.4904
G01 X0.4523 Y-1.4909
G01 X0.4516 Y-1.4913
G01 X0.4488 Y-1.4930
G01 X0.4482 Y-1.4933
G01 X0.4475 Y-1.4937
G01 X0.4445 Y-1.4951
G01 X0.4438 Y-1.4954
G01 X0.4431 Y-1.4957
G01 X0.4400 Y-1.4968
G01 X0.4393 Y-1.4970
G01 X0.4385 Y-1.4972
G01 X0.4350 Y-1.4981
G01 X0.4338 Y-1.4983
G01 X0.4306 Y-1.4988
G01 X0.4298 Y-1.4989
G01 X0.4290 Y-1.4990
G01 X0.4258 Y-1.4991
G01 X0.4250 Y-1.4991
G01 X0.2746 Y-1.4991
G01 X0.2710 Y-1.4990
G01 X0.2702 Y-1.4989
G01 X0.2694 Y-1.4988
G01 X0.2662 Y-1.4983
G01 X0.2654 Y-1.4982
G01 X0.2647 Y-1.4980
G01 X0.2615 Y-1.4972
G01 X0.2607 Y-1.4970
G01 X0.2600 Y-1.4968
G01 X0.2569 Y-1.4957
G01 X0.2562 Y-1.4954
G01 X0.2555 Y-1.4951
G01 X0.2525 Y-1.4937
G01 X0.2518 Y-1.4933
G01 X0.2512 Y-1.4930
G01 X0.2484 Y-1.4913
G01 X0.2477 Y-1.4909
G01 X0.2471 Y-1.4904
G01 X0.2444 Y-1.4885
G01 X0.2438 Y-1.4880
G01 X0.2432 Y-1.4875
G01 X0.2408 Y-1.4853
G01 X0.2403 Y-1.4847
G01 X0.2397 Y-1.4842
G01 X0.2375 Y-1.4818
G01 X0.2370 Y-1.4812
G01 X0.2365 Y-1.4806
G01 X0.2346 Y-1.4779
G01 X0.2341 Y-1.4773
G01 X0.2337 Y-1.4766
G01 X0.2320 Y-1.4738
G01 X0.2317 Y-1.4732
G01 X0.2313 Y-1.4725
G01 X0.2299 Y-1.4695
G01 X0.2296 Y-1.4688
G01 X0.2293 Y-1.4681
G01 X0.2282 Y-1.4650
G01 X0.2280 Y-1.4643
G01 X0.2278 Y-1.4635
G01 X0.2270 Y-1.4603
G01 X0.2268 Y-1.4596
G01 X0.2267 Y-1.4588
G01 X0.2262 Y-1.4556
G01 X0.2261 Y-1.4548
G01 X0.2260 Y-1.4540
G01 X0.2259 Y-1.4508
G01 X0.2259 Y-1.4496
G01 X0.2260 Y-1.4460
G01 X0.2261 Y-1.4452
G01 X0.2262 Y-1.4444
G01 X0.2267 Y-1.4412
G01 X0.2268 Y-1.4404
G01 X0.2270 Y-1.4397
G01 X0.2278 Y-1.4365
G01 X0.2280 Y-1.4357
G01 X0.2282 Y-1.4350
G01 X0.2293 Y-1.4319
G01 X0.2296 Y-1.4312
G01 X0.2299 Y-1.4305
G01 X0.2315 Y-1.4272
G01 X0.2320 Y-1.4262
G01 X0.2337 Y-1.4234
G01 X0.2341 Y-1.4227
G01 X0.2346 Y-1.4221
G01 X0.2365 Y-1.4194
G01 X0.2370 Y-1.4188
G01 X0.2375 Y-1.4182
G01 X0.2397 Y-1.4158
G01 X0.2403 Y-1.4153
G01 X0.2408 Y-1.4147
G01 X0.2432 Y-1.4125
G01 X0.2441 Y-1.4118
G01 X0.2471 Y-1.4096
G01 X0.2477 Y-1.4091
G01 X0.2484 Y-1.4087
G01 X0.2512 Y-1.4070
G01 X0.2518 Y-1.4067
G01 X0.2525 Y-1.4063
G01 X0.2555 Y-1.4049
G01 X0.2562 Y-1.4046
G01 X0.2569 Y-1.4043
G01 X0.2600 Y-1.4032
G01 X0.2607 Y-1.4030
G01 X0.2615 Y-1.4028
G01 X0.2647 Y-1.4020
G01 X0.2654 Y-1.4018
G01 X0.2662 Y-1.4017
G01 X0.2694 Y-1.4012
G01 X0.2702 Y-1.4011
G01 X0.2710 Y-1.4010
G01 X0.2742 Y-1.4009
G01 X0.2750 Y-1.4009
G01 X0.4254 Y-1.4009
G01 X0.4290 Y-1.4010
G01 X0.4298 Y-1.4011
G01 X0.4306 Y-1.4012
G01 X0.4338 Y-1.4017
G01 X0.4346 Y-1.4018
G01 X0.4353 Y-1.4020
G01 X0.4385 Y-1.4028
G01 X0.4393 Y-1.4030
G01 X0.4400 Y-1.4032
G01 X0.4431 Y-1.4043
G01 X0.4438 Y-1.4046
G01 X0.4445 Y-1.4049
G01 X0.4475 Y-1.4063
G01 X0.4485 Y-1.4069
G01 X0.4520 Y-1.4089
G01 X0.4529 Y-1.4096
G01 X0.4556 Y-1.4115
G01 X0.4562 Y-1.4120
G01 X0.4568 Y-1.4125
G01 X0.4592 Y-1.4147
G01 X0.4600 Y-1.4155
G01 X0.4625 Y-1.4182
G01 X0.4630 Y-1.4188
G01 X0.4635 Y-1.4194
G01 X0.4654 Y-1.4221
G01 X0.4659 Y-1.4227
G01 X0.4663 Y-1.4234
G01 X0.4680 Y-1.4262
G01 X0.4683 Y-1.4268
G01 X0.4687 Y-1.4275
G01 X0.4701 Y-1.4305
G01 X0.4704 Y-1.4312
G01 X0.4707 Y-1.4319
G01 X0.4718 Y-1.4350
G01 X0.4720 Y-1.4357
G01 X0.4722 Y-1.4365
G01 X0.4730 Y-1.4397
G01 X0.4732 Y-1.4404
G01 X0.4733 Y-1.4412
G01 X0.4738 Y-1.4444
G01 X0.4739 Y-1.4452
G01 X0.4740 Y-1.4460
G01 X0.4741 Y-1.4492
G01 X0.4741 Y-1.4500
G01 X0.4741 Y-1.4508
G01 X0.4740 Y-1.4540
G01 X0.4739 Y-1.4548
G01 X0.4738 Y-1.4556
G00 Z0.1000
G00 X0.4738 Y-1.5556
G01 F2.00
G01 Z-0.0020
G01 F14.00
G01 X0.4733 Y-1.5588
G01 X0.4732 Y-1.5596
G01 X0.4730 Y-1.5603
G01 X0.4722 Y-1.5635
G01 X0.4720 Y-1.5643
G01 X0.4718 Y-1.5650
G01 X0.4707 Y-1.5681
G01 X0.4704 Y-1.5688
G01 X0.4701 Y-1.5695
G01 X0.4687 Y-1.5725
G01 X0.4683 Y-1.5732
G01 X0.4680 Y-1.5738
G01 X0.4663 Y-1.5766
G01 X0.4656 Y-1.5776
G01 X0.4635 Y-1.5806
G01 X0.4630 Y-1.5812
G01 X0.4625 Y-1.5818
G01 X0.4603 Y-1.5842
G01 X0.4597 Y-1.5847
G01 X0.4592 Y-1.5853
G01 X0.4565 Y-1.5877
G01 X0.4556 Y-1.5885
G01 X0.4529 Y-1.5904
G01 X0.4523 Y-1.5909
G01 X0.4516 Y-1.5913
G01 X0.4488 Y-1.5930
G01 X0.4482 Y-1.5933
G01 X0.4475 Y-1.5937
G01 X0.4445 Y-1.5951
G01 X0.4438 Y-1.5954
G01 X0.4431 Y-1.5957
G01 X0.4400 Y-1.5968
G01 X0.4393 Y-1.5970
G01 X0.4385 Y-1.5972
G01 X0.4350 Y-1.5981
G01 X0.4338 Y-1.5983
G01 X0.4306 Y-1.5988
G01 X0.4298 Y-1.5989
G01 X0.4290 Y-1.5990
G01 X0.4258 Y-1.5991
G01 X0.4250 Y-1.5991
G01 X0.2746 Y-1.5991
G01 X0.2710 Y-1.5990
G01 X0.2702 Y-1.5989
G01 X0.2694 Y-1.5988
G01 X0.2662 Y-1.5983
G01 X0.2654 Y-1.5982
G01 X0.2647 Y-1.5980
G01 X0.2615 Y-1.5972
G01 X0.2607 Y-1.5970
G01 X0.2600 Y-1.5968
G01 X0.2569 Y-1.5957
G01 X0.2562 Y-1.5954
G01 X0.2555 Y-1.5951
G01 X0.2525 Y-1.5937
G01 X0.2518 Y-1.5933
G01 X0.2512 Y-1.5930
G01 X0.2484 Y-1.5913
G01 X0.2477 Y-1.5909
G01 X0.2471 Y-1.5904
G01 X0.2444 Y-1.5885
G01 X0.2438 Y-1.5880
G01 X0.2432 Y-1.5875
G01 X0.2408 Y-1.5853
G01 X0.2403 Y-1.5847
G01 X0.2397 Y-1.5842
G01 X0.2375 Y-1.5818
G01 X0.2370 Y-1.5812
G01 X0.2365 Y-1.5806
G01 X0.2346 Y-1.5779
G01 X0.2341 Y-1.5773
G01 X0.2337 Y-1.5766
G01 X0.2320 Y-1.5738
G01 X0.2317 Y-1.5732
G01 X0.2313 Y-1.5725
G01 X0.2299 Y-1.5695
G01 X0.2296 Y-1.5688
G01 X0.2293 Y-1.5681
G01 X0.2282 Y-1.5650
G01 X0.2280 Y-1.5643
G01 X0.2278 Y-1.5635
G01 X0.2270 Y-1.5603
G01 X0.2268 Y-1.5596
G01 X0.2267 Y-1.5588
G01 X0.2262 Y-1.5556
G01 X0.2261 Y-1.5548
G01 X0.2260 Y-1.5540
G01 X0.2259 Y-1.5508
G01 X0.2259 Y-1.5496
G01 X0.2260 Y-1.5460
G01 X0.2261 Y-1.5452
G01 X0.2262 Y-1.5444
G01 X0.2267 Y-1.5412
G01 X0.2268 Y-1.5404
G01 X0.2270 Y-1.5397
G01 X0.2278 Y-1.5365
G01 X0.2280 Y-1.5357
G01 X0.2282 Y-1.5350
G01 X0.2293 Y-1.5319
G01 X0.2296 Y-1.5312
G01 X0.2299 Y-1.5305
G01 X0.2315 Y-1.5272
G01 X0.2320 Y-1.5262
G01 X0.2337 Y-1.5234
G01 X0.2341 Y-1.5227
G01 X0.2346 Y-1.5221
G01 X0.2365 Y-1.5194
G01 X0.2370 Y-1.5188
G01 X0.2375 Y-1.5182
G01 X0.2397 Y-1.5158
G01 X0.2403 Y-1.5153
G01 X0.2408 Y-1.5147
G01 X0.2432 Y-1.5125
G01 X0.2441 Y-1.5118
G01 X0.2471 Y-1.5096
G01 X0.2477 Y-1.5091
G01 X0.2484 Y-1.5087
G01 X0.2512 Y-1.5070
G01 X0.2518 Y-1.5067
G01 X0.2525 Y-1.5063
G01 X0.2555 Y-1.5049
G01 X0.2562 Y-1.5046
G01 X0.2569 Y-1.5043
G01 X0.2600 Y-1.5032
G01 X0.2607 Y-1.5030
G01 X0.2615 Y-1.5028
G01 X0.2647 Y-1.5020
G01 X0.2654 Y-1.5018
G01 X0.2662 Y-1.5017
G01 X0.2694 Y-1.5012
G01 X0.2702 Y-1.5011
G01 X0.2710 Y-1.5010
G01 X0.2742 Y-1.5009
G01 X0.2750 Y-1.5009
G01 X0.4254 Y-1.5009
G01 X0.4290 Y-1.5010
G01 X0.4298 Y-1.5011
G01 X0.4306 Y-1.5012
G01 X0.4338 Y-1.5017
G01 X0.4346 Y-1.5018
G01 X0.4353 Y-1.5020
G01 X0.4385 Y-1.5028
G01 X0.4393 Y-1.5030
G01 X0.4400 Y-1.5032
G01 X0.4431 Y-1.5043
G01 X0.4438 Y-1.5046
G01 X0.4445 Y-1.5049
G01 X0.4475 Y-1.5063
G01 X0.4485 Y-1.5069
G01 X0.4520 Y-1.5089
G01 X0.4529 Y-1.5096
G01 X0.4556 Y-1.5115
G01 X0.4562 Y-1.5120
G01 X0.4568 Y-1.5125
G01 X0.4592 Y-1.5147
G01 X0.4600 Y-1.5155
G01 X0.4625 Y-1.5182
G01 X0.4630 Y-1.5188
G01 X0.4635 Y-1.5194
G01 X0.4654 Y-1.5221
G01 X0.4659 Y-1.5227
G01 X0.4663 Y-1.5234
G01 X0.4680 Y-1.5262
G01 X0.4683 Y-1.5268
G01 X0.4687 Y-1.5275
G01 X0.4701 Y-1.5305
G01 X0.4704 Y-1.5312
G01 X0.4707 Y-1.5319
G01 X0.4718 Y-1.5350
G01 X0.4720 Y-1.5357
G01 X0.4722 Y-1.5365
G01 X0.4730 Y-1.5397
G01 X0.4732 Y-1.5404
G01 X0.4733 Y-1.5412
G01 X0.4738 Y-1.5444
G01 X0.4739 Y-1.5452
G01 X0.4740 Y-1.5460
G01 X0.4741 Y-1.5492
G01 X0.4741 Y-1.5500
G01 X0.4741 Y-1.5508
G01 X0.4740 Y-1.5540
G01 X0.4739 Y-1.5548
G01 X0.4738 Y-1.5556
G00 Z0.1000
G00 X0.4738 Y-1.6556
G01 F2.00
G01 Z-0.0020
G01 F14.00
G01 X0.4733 Y-1.6588
G01 X0.4732 Y-1.6596
G01 X0.4730 Y-1.6603
G01 X0.4722 Y-1.6635
G01 X0.4720 Y-1.6643
G01 X0.4718 Y-1.6650
G01 X0.4707 Y-1.6681
G01 X0.4704 Y-1.6688
G01 X0.4701 Y-1.6695
G01 X0.4687 Y-1.6725
G01 X0.4683 Y-1.6732
G01 X0.4680 Y-1.6738
G01 X0.4663 Y-1.6766
G01 X0.4656 Y-1.6776
G01 X0.4635 Y-1.6806
G01 X0.4630 Y-1.6812
G01 X0.4625 Y-1.6818
G01 X0.4603 Y-1.6842
G01 X0.4597 Y-1.6847
G01 X0.4592 Y-1.6853
G01 X0.4565 Y-1.6877
G01 X0.4556 Y-1.6885
G01 X0.4529 Y-1.6904
G01 X0.4523 Y-1.6909
G01 X0.4516 Y-1.6913
G01 X0.4488 Y-1.6930
G01 X0.4482 Y-1.6933
G01 X0.4475 Y-1.6937
G01 X0.4445 Y-1.6951
G01 X0.4438 Y-1.6954
G01 X0.4431 Y-1.6957
G01 X0.4400 Y-1.6968
G01 X0.4393 Y-1.6970
G01 X0.4385 Y-1.6972
G01 X0.4350 Y-1.6981
G01 X0.4338 Y-1.6983
G01 X0.4306 Y-1.6988
G01 X0.4298 Y-1.6989
G01 X0.4290 Y-1.6990
G01 X0.4258 Y-1.6991
G01 X0.4250 Y-1.6991
G01 X0.2746 Y-1.6991
G01 X0.2710 Y-1.6990
G01 X0.2702 Y-1.6989
G01 X0.2694 Y-1.6988
G01 X0.2662 Y-1.6983
G01 X0.2654 Y-1.6982
G01 X0.2647 Y-1.6980
G01 X0.2615 Y-1.6972
G01 X0.2607 Y-1.6970
G01 X0.2600 Y-1.6968
G01 X0.2569 Y-1.6957
G01 X0.2562 Y-1.6954
G01 X0.2555 Y-1.6951
G01 X0.2525 Y-1.6937
G01 X0.2518 Y-1.6933
G01 X0.2512 Y-1.6930
G01 X0.2484 Y-1.6913
G01 X0.2477 Y-1.6909
G01 X0.2471 Y-1.6904
G01 X0.2444 Y-1.6885
G01 X0.2438 Y-1.6880
G01 X0.2432 Y-1.6875
G01 X0.2408 Y-1.6853
G01 X0.2403 Y-1.6847
G01 X0.2397 Y-1.6842
G01 X0.2375 Y-1.6818
G01 X0.2370 Y-1.6812
G01 X0.2365 Y-1.6806
G01 X0.2346 Y-1.6779
G01 X0.2341 Y-1.6773
G01 X0.2337 Y-1.6766
G01 X0.2320 Y-1.6738
G01 X0.2317 Y-1.6732
G01 X0.2313 Y-1.6725
G01 X0.2299 Y-1.6695
G01 X0.2296 Y-1.6688
G01 X0.2293 Y-1.6681
G01 X0.2282 Y-1.6650
G01 X0.2280 Y-1.6643
G01 X0.2278 Y-1.6635
G01 X0.2270 Y-1.6603
G01 X0.2268 Y-1.6596
G01 X0.2267 Y-1.6588
G01 X0.2262 Y-1.6556
G01 X0.2261 Y-1.6548
G01 X0.2260 Y-1.6540
G01 X0.2259 Y-1.6508
G01 X0.2259 Y-1.6496
G01 X0.2260 Y-1.6460
G01 X0.2261 Y-1.6452
G01 X0.2262 Y-1.6444
G01 X0.2267 Y-1.6412
G01 X0.2268 Y-1.6404
G01 X0.2270 Y-1.6397
G01 X0.2278 Y-1.6365
G01 X0.2280 Y-1.6357
G01 X0.2282 Y-1.6350
G01 X0.2293 Y-1.6319
G01 X0.2296 Y-1.6312
G01 X0.2299 Y-1.6305
G01 X0.2315 Y-1.6272
G01 X0.2320 Y-1.6262
G01 X0.2337 Y-1.6234
G01 X0.2341 Y-1.6227
G01 X0.2346 Y-1.6221
G01 X0.2365 Y-1.6194
G01 X0.2370 Y-1.6188
G01 X0.2375 Y-1.6182
G01 X0.2397 Y-1.6158
G01 X0.2403 Y-1.6153
G01 X0.2408 Y-1.6147
G01 X0.2432 Y-1.6125
G01 X0.2441 Y-1.6118
G01 X0.2471 Y-1.6096
G01 X0.2477 Y-1.6091
G01 X0.2484 Y-1.6087
G01 X0.2512 Y-1.6070
G01 X0.2518 Y-1.6067
G01 X0.2525 Y-1.6063
G01 X0.2555 Y-1.6049
G01 X0.2562 Y-1.6046
G01 X0.2569 Y-1.6043
G01 X0.2600 Y-1.6032
G01 X0.2607 Y-1.6030
G01 X0.2615 Y-1.6028
G01 X0.2647 Y-1.6020
G01 X0.2654 Y-1.6018
G01 X0.2662 Y-1.6017
G01 X0.2694 Y-1.6012
G01 X0.2702 Y-1.6011
G01 X0.2710 Y-1.6010
G01 X0.2742 Y-1.6009
G01 X0.2750 Y-1.6009
G01 X0.4254 Y-1.6009
G01 X0.4290 Y-1.6010
G01 X0.4298 Y-1.6011
G01 X0.4306 Y-1.6012
G01 X0.4338 Y-1.6017
G01 X0.4346 Y-1.6018
G01 X0.4353 Y-1.6020
G01 X0.4385 Y-1.6028
G01 X0.4393 Y-1.6030
G01 X0.4400 Y-1.6032
G01 X0.4431 Y-1.6043
G01 X0.4438 Y-1.6046
G01 X0.4445 Y-1.6049
G01 X0.4475 Y-1.6063
G01 X0.4485 Y-1.6069
G01 X0.4520 Y-1.6089
G01 X0.4529 Y-1.6096
G01 X0.4556 Y-1.6115
G01 X0.4562 Y-1.6120
G01 X0.4568 Y-1.6125
G01 X0.4592 Y-1.6147
G01 X0.4600 Y-1.6155
G01 X0.4625 Y-1.6182
G01 X0.4630 Y-1.6188
G01 X0.4635 Y-1.6194
G01 X0.4654 Y-1.6221
G01 X0.4659 Y-1.6227
G01 X0.4663 Y-1.6234
G01 X0.4680 Y-1.6262
G01 X0.4683 Y-1.6268
G01 X0.4687 Y-1.6275
G01 X0.4701 Y-1.6305
G01 X0.4704 Y-1.6312
G01 X0.4707 Y-1.6319
G01 X0.4718 Y-1.6350
G01 X0.4720 Y-1.6357
G01 X0.4722 Y-1.6365
G01 X0.4730 Y-1.6397
G01 X0.4732 Y-1.6404
G01 X0.4733 Y-1.6412
G01 X0.4738 Y-1.6444
G01 X0.4739 Y-1.6452
G01 X0.4740 Y-1.6460
G01 X0.4741 Y-1.6492
G01 X0.4741 Y-1.6500
G01 X0.4741 Y-1.6508
G01 X0.4740 Y-1.6540
G01 X0.4739 Y-1.6548
G01 X0.4738 Y-1.6556
G00 Z0.1000
G00 X0.5738 Y-1.6556
G01 F2.00
G01 Z-0.0020
G01 F14.00
G01 X0.5733 Y-1.6588
G01 X0.5732 Y-1.6596
G01 X0.5730 Y-1.6603
G01 X0.5722 Y-1.6635
G01 X0.5720 Y-1.6643
G01 X0.5718 Y-1.6650
G01 X0.5707 Y-1.6681
G01 X0.5704 Y-1.6688
G01 X0.5701 Y-1.6695
G01 X0.5687 Y-1.6725
G01 X0.5683 Y-1.6732
G01 X0.5679 Y-1.6738
G01 X0.5662 Y-1.6766
G01 X0.5658 Y-1.6773
G01 X0.5654 Y-1.6779
G01 X0.5634 Y-1.6806
G01 X0.5630 Y-1.6812
G01 X0.5625 Y-1.6817
G01 X0.5603 Y-1.6842
G01 X0.5597 Y-1.6847
G01 X0.5592 Y-1.6853
G01 X0.5567 Y-1.6875
G01 X0.5562 Y-1.6880
G01 X0.5556 Y-1.6884
G01 X0.5529 Y-1.6904
G01 X0.5523 Y-1.6908
G01 X0.5516 Y-1.6912
G01 X0.5488 Y-1.6929
G01 X0.5482 Y-1.6933
G01 X0.5475 Y-1.6937
G01 X0.5445 Y-1.6951
G01 X0.5438 Y-1.6954
G01 X0.5431 Y-1.6957
G01 X0.5400 Y-1.6968
G01 X0.5393 Y-1.6970
G01 X0.5385 Y-1.6972
G01 X0.5353 Y-1.6980
G01 X0.5346 Y-1.6982
G01 X0.5338 Y-1.6983
G01 X0.5306 Y-1.6988
G01 X0.5298 Y-1.6989
G01 X0.5290 Y-1.6989
G01 X0.5258 Y-1.6991
G01 X0.5250 Y-1.6991
G01 X0.5242 Y-1.6991
G01 X0.5210 Y-1.6989
G01 X0.5202 Y-1.6989
G01 X0.5194 Y-1.6988
G01 X0.5162 Y-1.6983
G01 X0.5154 Y-1.6982
G01 X0.5147 Y-1.6980
G01 X0.5115 Y-1.6972
G01 X0.5107 Y-1.6970
G01 X0.5100 Y-1.6968
G01 X0.5069 Y-1.6957
G01 X0.5062 Y-1.6954
G01 X0.5055 Y-1.6951
G01 X0.5025 Y-1.6937
G01 X0.5018 Y-1.6933
G01 X0.5012 Y-1.6929
G01 X0.4984 Y-1.6912
G01 X0.4977 Y-1.6908
G01 X0.4971 Y-1.6904
G01 X0.4944 Y-1.6884
G01 X0.4938 Y-1.6880
G01 X0.4933 Y-1.6875
G01 X0.4908 Y-1.6853
G01 X0.4903 Y-1.6847
G01 X0.4897 Y-1.6842
G01 X0.4875 Y-1.6817
G01 X0.4870 Y-1.6812
G01 X0.4866 Y-1.6806
G01 X0.4846 Y-1.6779
G01 X0.4842 Y-1.6773
G01 X0.4838 Y-1.6766
G01 X0.4821 Y-1.6738
G01 X0.4817 Y-1.6732
G01 X0.4813 Y-1.6725
G01 X0.4799 Y-1.6695
G01 X0.4796 Y-1.6688
G01 X0.4793 Y-1.6681
G01 X0.4782 Y-1.6650
G01 X0.4780 Y-1.6643
G01 X0.4778 Y-1.6635
G01 X0.4770 Y-1.6603
G01 X0.4768 Y-1.6596
G01 X0.4767 Y-1.6588
G01 X0.4762 Y-1.6556
G01 X0.4761 Y-1.6548
G01 X0.4761 Y-1.6540
G01 X0.4759 Y-1.6508
G01 X0.4759 Y-1.6500
G01 X0.4759 Y-1.6492
G01 X0.4761 Y-1.6460
G01 X0.4761 Y-1.6452
G01 X0.4762 Y-1.6444
G01 X0.4767 Y-1.6412
G01 X0.4768 Y-1.6404
G01 X0.4770 Y-1.6397
G01 X0.4778 Y-1.6365
G01 X0.4780 Y-1.6357
G01 X0.4782 Y-1.6350
G01 X0.4793 Y-1.6319
G01 X0.4796 Y-1.6312
G01 X0.4799 Y-1.6305
G01 X0.4813 Y-1.6275
G01 X0.4817 Y-1.6268
G01 X0.4821 Y-1.6262
G01 X0.4838 Y-1.6234
G01 X0.4842 Y-1.6227
G01 X0.4846 Y-1.6221
G01 X0.4866 Y-1.6194
G01 X0.4870 Y-1.6188
G01 X0.4875 Y-1.6183
G01 X0.4897 Y-1.6158
G01 X0.4903 Y-1.6153
G01 X0.4908 Y-1.6147
G01 X0.4933 Y-1.6125
G01 X0.4938 Y-1.6120
G01 X0.4944 Y-1.6116
G01 X0.4971 Y-1.6096
G01 X0.4977 Y-1.6092
G01 X0.4984 Y-1.6088
G01 X0.5012 Y-1.6071
G01 X0.5018 Y-1.6067
G01 X0.5025 Y-1.6063
G01 X0.5055 Y-1.6049
G01 X0.5062 Y-1.6046
G01 X0.5069 Y-1.6043
G01 X0.5100 Y-1.6032
G01 X0.5107 Y-1.6030
G01 X0.5115 Y-1.6028
G01 X0.5147 Y-1.6020
G01 X0.5154 Y-1.6018
G01 X0.5162 Y-1.6017
G01 X0.5194 Y-1.6012
G01 X0.5202 Y-1.6011
G01 X0.5210 Y-1.6011
G01 X0.5242 Y-1.6009
G01 X0.5250 Y-1.6009
G01 X0.5258 Y-1.6009
G01 X0.5290 Y-1.6011
G01 X0.5298 Y-1.6011
G01 X0.5306 Y-1.6012
G01 X0.5338 Y-1.6017
G01 X0.5346 Y-1.6018
G01 X0.5353 Y-1.6020
G01 X0.5385 Y-1.6028
G01 X0.5393 Y-1.6030
G01 X0.5400 Y-1.6032
G01 X0.5431 Y-1.6043
G01 X0.5438 Y-1.6046
G01 X0.5445 Y-1.6049
G01 X0.5475 Y-1.6063
G01 X0.5482 Y-1.6067
G01 X0.5488 Y-1.6071
G01 X0.5516 Y-1.6088
G01 X0.5523 Y-1.6092
G01 X0.5529 Y-1.6096
G01 X0.5556 Y-1.6116
G01 X0.5562 Y-1.6120
G01 X0.5567 Y-1.6125
G01 X0.5592 Y-1.6147
G01 X0.5597 Y-1.6153
G01 X0.5603 Y-1.6158
G01 X0.5625 Y-1.6183
G01 X0.5630 Y-1.6188
G01 X0.5634 Y-1.6194
G01 X0.5654 Y-1.6221
G01 X0.5658 Y-1.6227
G01 X0.5662 Y-1.6234
G01 X0.5679 Y-1.6262
G01 X0.5683 Y-1.6268
G01 X0.5687 Y-1.6275
G01 X0.5701 Y-1.6305
G01 X0.5704 Y-1.6312
G01 X0.5707 Y-1.6319
G01 X0.5718 Y-1.6350
G01 X0.5720 Y-1.6357
G01 X0.5722 Y-1.6365
G01 X0.5730 Y-1.6397
G01 X0.5732 Y-1.6404
G01 X0.5733 Y-1.6412
G01 X0.5738 Y-1.6444
G01 X0.5739 Y-1.6452
G01 X0.5739 Y-1.6460
G01 X0.5741 Y-1.6492
G01 X0.5741 Y-1.6500
G01 X0.5741 Y-1.6508
G01 X0.5739 Y-1.6540
G01 X0.5739 Y-1.6548
G01 X0.5738 Y-1.6556
G00 Z0.1000
G00 X0.6738 Y-1.6556
G01 F2.00
G01 Z-0.0020
G01 F14.00
G01 X0.6733 Y-1.6588
G01 X0.6732 Y-1.6596
G01 X0.6730 Y-1.6603
G01 X0.6722 Y-1.6635
G01 X0.6720 Y-1.6643
G01 X0.6718 Y-1.6650
G01 X0.6707 Y-1.6681
G01 X0.6704 Y-1.6688
G01 X0.6701 Y-1.6695
G01 X0.6687 Y-1.6725
G01 X0.6683 Y-1.6732
G01 X0.6679 Y-1.6738
G01 X0.6662 Y-1.6766
G01 X0.6658 Y-1.6773
G01 X0.6654 Y-1.6779
G01 X0.6634 Y-1.6806
G01 X0.6630 Y-1.6812
G01 X0.6625 Y-1.6817
G01 X0.6603 Y-1.6842
G01 X0.6597 Y-1.6847
G01 X0.6592 Y-1.6853
G01 X0.6567 Y-1.6875
G01 X0.6562 Y-1.6880
G01 X0.6556 Y-1.6884
G01 X0.6529 Y-1.6904
G01 X0.6523 Y-1.6908
G01 X0.6516 Y-1.6912
G01 X0.6488 Y-1.6929
G01 X0.6482 Y-1.6933
G01 X0.6475 Y-1.6937
G01 X0.6445 Y-1.6951
G01 X0.6438 Y-1.6954
G01 X0.6431 Y-1.6957
G01 X0.6400 Y-1.6968
G01 X0.6393 Y-1.6970
G01 X0.6385 Y-1.6972
G01 X0.6353 Y-1.6980
G01 X0.6346 Y-1.6982
G01 X0.6338 Y-1.6983
G01 X0.6306 Y-1.6988
G01 X0.6298 Y-1.6989
G01 X0.6290 Y-1.6989
G01 X0.6258 Y-1.6991
G01 X0.6250 Y-1.6991
G01 X0.6242 Y-1.6991
G01 X0.6210 Y-1.6989
G01 X0.6202 Y-1.6989
G01 X0.6194 Y-1.6988
G01 X0.6162 Y-1.6983
G01 X0.6154 Y-1.6982
G01 X0.6147 Y-1.6980
G01 X0.6115 Y-1.6972
G01 X0.6107 Y-1.6970
G01 X0.6100 Y-1.6968
G01 X0.6069 Y-1.6957
G01 X0.6062 Y-1.6954
G01 X0.6055 Y-1.6951
G01 X0.6025 Y-1.6937
G01 X0.6018 Y-1.6933
G01 X0.6012 Y-1.6929
G01 X0.5984 Y-1.6912
G01 X0.5977 Y-1.6908
G01 X0.5971 Y-1.6904
G01 X0.5944 Y-1.6884
G01 X0.5938 Y-1.6880
G01 X0.5933 Y-1.6875
G01 X0.5908 Y-1.6853
G01 X0.5903 Y-1.6847
G01 X0.5897 Y-1.6842
G01 X0.5875 Y-1.6817
G01 X0.5870 Y-1.6812
G01 X0.5866 Y-1.6806
G01 X0.5846 Y-1.6779
G01 X0.5842 Y-1.6773
G01 X0.5838 Y-1.6766
G01 X0.5821 Y-1.6738
G01 X0.5817 Y-1.6732
G01 X0.5813 Y-1.6725
G01 X0.5799 Y-1.6695
G01 X0.5796 Y-1.6688
G01 X0.5793 Y-1.6681
G01 X0.5782 Y-1.6650
G01 X0.5780 Y-1.6643
G01 X0.5778 Y-1.6635
G01 X0.5770 Y-1.6603
G01 X0.5768 Y-1.6596
G01 X0.5767 Y-1.6588
G01 X0.5762 Y-1.6556
G01 X0.5761 Y-1.6548
G01 X0.5761 Y-1.6540
G01 X0.5759 Y-1.6508
G01 X0.5759 Y-1.6500
G01 X0.5759 Y-1.6492
G01 X0.5761 Y-1.6460
G01 X0.5761 Y-1.6452
G01 X0.5762 Y-1.6444
G01 X0.5767 Y-1.6412
G01 X0.5768 Y-1.6404
G01 X0.5770 Y-1.6397
G01 X0.5778 Y-1.6365
G01 X0.5780 Y-1.6357
G01 X0.5782 Y-1.6350
G01 X0.5793 Y-1.6319
G01 X0.5796 Y-1.6312
G01 X0.5799 Y-1.6305
G01 X0.5813 Y-1.6275
G01 X0.5817 Y-1.6268
G01 X0.5821 Y-1.6262
G01 X0.5838 Y-1.6234
G01 X0.5842 Y-1.6227
G01 X0.5846 Y-1.6221
G01 X0.5866 Y-1.6194
G01 X0.5870 Y-1.6188
G01 X0.5875 Y-1.6183
G01 X0.5897 Y-1.6158
G01 X0.5903 Y-1.6153
G01 X0.5908 Y-1.6147
G01 X0.5933 Y-1.6125
G01 X0.5938 Y-1.6120
G01 X0.5944 Y-1.6116
G01 X0.5971 Y-1.6096
G01 X0.5977 Y-1.6092
G01 X0.5984 Y-1.6088
G01 X0.6012 Y-1.6071
G01 X0.6018 Y-1.6067
G01 X0.6025 Y-1.6063
G01 X0.6055 Y-1.6049
G01 X0.6062 Y-1.6046
G01 X0.6069 Y-1.6043
G01 X0.6100 Y-1.6032
G01 X0.6107 Y-1.6030
G01 X0.6115 Y-1.6028
G01 X0.6147 Y-1.6020
G01 X0.6154 Y-1.6018
G01 X0.6162 Y-1.6017
G01 X0.6194 Y-1.6012
G01 X0.6202 Y-1.6011
G01 X0.6210 Y-1.6011
G01 X0.6242 Y-1.6009
G01 X0.6250 Y-1.6009
G01 X0.6258 Y-1.6009
G01 X0.6290 Y-1.6011
G01 X0.6298 Y-1.6011
G01 X0.6306 Y-1.6012
G01 X0.6338 Y-1.6017
G01 X0.6346 Y-1.6018
G01 X0.6353 Y-1.6020
G01 X0.6385 Y-1.6028
G01 X0.6393 Y-1.6030
G01 X0.6400 Y-1.6032
G01 X0.6431 Y-1.6043
G01 X0.6438 Y-1.6046
G01 X0.6445 Y-1.6049
G01 X0.6475 Y-1.6063
G01 X0.6482 Y-1.6067
G01 X0.6488 Y-1.6071
G01 X0.6516 Y-1.6088
G01 X0.6523 Y-1.6092
G01 X0.6529 Y-1.6096
G01 X0.6556 Y-1.6116
G01 X0.6562 Y-1.6120
G01 X0.6567 Y-1.6125
G01 X0.6592 Y-1.6147
G01 X0.6597 Y-1.6153
G01 X0.6603 Y-1.6158
G01 X0.6625 Y-1.6183
G01 X0.6630 Y-1.6188
G01 X0.6634 Y-1.6194
G01 X0.6654 Y-1.6221
G01 X0.6658 Y-1.6227
G01 X0.6662 Y-1.6234
G01 X0.6679 Y-1.6262
G01 X0.6683 Y-1.6268
G01 X0.6687 Y-1.6275
G01 X0.6701 Y-1.6305
G01 X0.6704 Y-1.6312
G01 X0.6707 Y-1.6319
G01 X0.6718 Y-1.6350
G01 X0.6720 Y-1.6357
G01 X0.6722 Y-1.6365
G01 X0.6730 Y-1.6397
G01 X0.6732 Y-1.6404
G01 X0.6733 Y-1.6412
G01 X0.6738 Y-1.6444
G01 X0.6739 Y-1.6452
G01 X0.6739 Y-1.6460
G01 X0.6741 Y-1.6492
G01 X0.6741 Y-1.6500
G01 X0.6741 Y-1.6508
G01 X0.6739 Y-1.6540
G01 X0.6739 Y-1.6548
G01 X0.6738 Y-1.6556
G00 Z0.1000
G00 X0.6748 Y-1.6549
G01 F2.00
G01 Z-0.0020
G01 F14.00
G01 X0.6729 Y-1.6645
G01 X0.6691 Y-1.6736
G01 X0.6637 Y-1.6818
G01 X0.6568 Y-1.6887
G01 X0.6486 Y-1.6941
G01 X0.6395 Y-1.6979
G01 X0.6299 Y-1.6998
G01 X0.6201 Y-1.6998
G01 X0.6105 Y-1.6979
G01 X0.6014 Y-1.6941
G01 X0.5932 Y-1.6887
G01 X0.5896 Y-1.6850
G01 X0.5890 Y-1.6845
G01 X0.5884 Y-1.6839
G01 X0.5875 Y-1.6832
G01 X0.5865 Y-1.6825
G01 X0.5854 Y-1.6818
G01 X0.5847 Y-1.6814
G01 X0.5836 Y-1.6809
G01 X0.5825 Y-1.6804
G01 X0.5817 Y-1.6801
G01 X0.5810 Y-1.6799
G01 X0.5798 Y-1.6796
G01 X0.5787 Y-1.6793
G01 X0.5774 Y-1.6791
G01 X0.5763 Y-1.6790
G01 X0.5750 Y-1.6790
G01 X0.5737 Y-1.6790
G01 X0.5726 Y-1.6791
G01 X0.5717 Y-1.6793
G01 X0.5710 Y-1.6794
G01 X0.5697 Y-1.6797
G01 X0.5686 Y-1.6800
G01 X0.5678 Y-1.6803
G01 X0.5671 Y-1.6806
G01 X0.5660 Y-1.6811
G01 X0.5649 Y-1.6816
G01 X0.5638 Y-1.6823
G01 X0.5632 Y-1.6827
G01 X0.5622 Y-1.6834
G01 X0.5616 Y-1.6839
G01 X0.5610 Y-1.6845
G01 X0.5604 Y-1.6850
G01 X0.5568 Y-1.6887
G01 X0.5486 Y-1.6941
G01 X0.5395 Y-1.6979
G01 X0.5299 Y-1.6998
G01 X0.5201 Y-1.6998
G01 X0.5105 Y-1.6979
G01 X0.5014 Y-1.6941
G01 X0.4932 Y-1.6887
G01 X0.4898 Y-1.6853
G01 X0.4893 Y-1.6847
G01 X0.4886 Y-1.6842
G01 X0.4877 Y-1.6834
G01 X0.4867 Y-1.6827
G01 X0.4856 Y-1.6820
G01 X0.4850 Y-1.6817
G01 X0.4838 Y-1.6811
G01 X0.4828 Y-1.6807
G01 X0.4819 Y-1.6804
G01 X0.4812 Y-1.6801
G01 X0.4800 Y-1.6798
G01 X0.4789 Y-1.6795
G01 X0.4776 Y-1.6794
G01 X0.4765 Y-1.6793
G01 X0.4752 Y-1.6792
G01 X0.4740 Y-1.6793
G01 X0.4728 Y-1.6794
G01 X0.4716 Y-1.6795
G01 X0.4704 Y-1.6798
G01 X0.4692 Y-1.6801
G01 X0.4685 Y-1.6804
G01 X0.4677 Y-1.6807
G01 X0.4666 Y-1.6811
G01 X0.4655 Y-1.6817
G01 X0.4644 Y-1.6823
G01 X0.4637 Y-1.6827
G01 X0.4631 Y-1.6831
G01 X0.4624 Y-1.6837
G01 X0.4618 Y-1.6842
G01 X0.4611 Y-1.6848
G01 X0.4593 Y-1.6863
G01 X0.4587 Y-1.6868
G01 X0.4580 Y-1.6874
G01 X0.4568 Y-1.6887
G01 X0.4552 Y-1.6897
G01 X0.4545 Y-1.6902
G01 X0.4539 Y-1.6907
G01 X0.4528 Y-1.6916
G01 X0.4515 Y-1.6923
G01 X0.4509 Y-1.6927
G01 X0.4501 Y-1.6931
G01 X0.4486 Y-1.6941
G01 X0.4473 Y-1.6947
G01 X0.4466 Y-1.6950
G01 X0.4458 Y-1.6954
G01 X0.4442 Y-1.6962
G01 X0.4424 Y-1.6968
G01 X0.4416 Y-1.6971
G01 X0.4409 Y-1.6973
G01 X0.4395 Y-1.6979
G01 X0.4381 Y-1.6982
G01 X0.4374 Y-1.6983
G01 X0.4365 Y-1.6986
G01 X0.4348 Y-1.6991
G01 X0.4329 Y-1.6993
G01 X0.4321 Y-1.6994
G01 X0.4313 Y-1.6995
G01 X0.4299 Y-1.6998
G01 X0.2701 Y-1.6998
G01 X0.2687 Y-1.6995
G01 X0.2679 Y-1.6994
G01 X0.2671 Y-1.6993
G01 X0.2652 Y-1.6991
G01 X0.2635 Y-1.6986
G01 X0.2626 Y-1.6983
G01 X0.2619 Y-1.6982
G01 X0.2605 Y-1.6979
G01 X0.2591 Y-1.6973
G01 X0.2584 Y-1.6971
G01 X0.2576 Y-1.6968
G01 X0.2558 Y-1.6962
G01 X0.2542 Y-1.6954
G01 X0.2534 Y-1.6950
G01 X0.2527 Y-1.6947
G01 X0.2514 Y-1.6941
G01 X0.2499 Y-1.6931
G01 X0.2491 Y-1.6927
G01 X0.2485 Y-1.6923
G01 X0.2472 Y-1.6916
G01 X0.2461 Y-1.6907
G01 X0.2455 Y-1.6902
G01 X0.2448 Y-1.6897
G01 X0.2432 Y-1.6887
G01 X0.2420 Y-1.6874
G01 X0.2413 Y-1.6868
G01 X0.2407 Y-1.6863
G01 X0.2396 Y-1.6854
G01 X0.2387 Y-1.6843
G01 X0.2382 Y-1.6837
G01 X0.2376 Y-1.6830
G01 X0.2363 Y-1.6818
G01 X0.2353 Y-1.6802
G01 X0.2348 Y-1.6795
G01 X0.2343 Y-1.6789
G01 X0.2334 Y-1.6778
G01 X0.2327 Y-1.6765
G01 X0.2323 Y-1.6759
G01 X0.2319 Y-1.6751
G01 X0.2309 Y-1.6736
G01 X0.2303 Y-1.6723
G01 X0.2300 Y-1.6716
G01 X0.2296 Y-1.6708
G01 X0.2288 Y-1.6692
G01 X0.2282 Y-1.6674
G01 X0.2279 Y-1.6666
G01 X0.2277 Y-1.6659
G01 X0.2271 Y-1.6645
G01 X0.2268 Y-1.6631
G01 X0.2267 Y-1.6624
G01 X0.2264 Y-1.6615
G01 X0.2259 Y-1.6598
G01 X0.2257 Y-1.6579
G01 X0.2256 Y-1.6571
G01 X0.2255 Y-1.6563
G01 X0.2252 Y-1.6549
G01 X0.2252 Y-1.6535
G01 X0.2252 Y-1.6527
G01 X0.2251 Y-1.6518
G01 X0.2249 Y-1.6500
G01 X0.2251 Y-1.6482
G01 X0.2252 Y-1.6473
G01 X0.2252 Y-1.6465
G01 X0.2252 Y-1.6451
G01 X0.2255 Y-1.6437
G01 X0.2256 Y-1.6429
G01 X0.2257 Y-1.6421
G01 X0.2259 Y-1.6402
G01 X0.2264 Y-1.6385
G01 X0.2267 Y-1.6376
G01 X0.2268 Y-1.6369
G01 X0.2271 Y-1.6355
G01 X0.2277 Y-1.6341
G01 X0.2279 Y-1.6334
G01 X0.2282 Y-1.6326
G01 X0.2288 Y-1.6308
G01 X0.2296 Y-1.6292
G01 X0.2300 Y-1.6284
G01 X0.2303 Y-1.6277
G01 X0.2309 Y-1.6264
G01 X0.2319 Y-1.6249
G01 X0.2323 Y-1.6241
G01 X0.2327 Y-1.6235
G01 X0.2334 Y-1.6222
G01 X0.2343 Y-1.6211
G01 X0.2348 Y-1.6205
G01 X0.2353 Y-1.6198
G01 X0.2363 Y-1.6182
G01 X0.2376 Y-1.6170
G01 X0.2384 Y-1.6160
G01 X0.2411 Y-1.6128
G01 X0.2418 Y-1.6118
G01 X0.2423 Y-1.6112
G01 X0.2429 Y-1.6101
G01 X0.2434 Y-1.6090
G01 X0.2440 Y-1.6079
G01 X0.2444 Y-1.6067
G01 X0.2447 Y-1.6056
G01 X0.2451 Y-1.6044
G01 X0.2453 Y-1.6033
G01 X0.2454 Y-1.6020
G01 X0.2455 Y-1.6008
G01 X0.2455 Y-1.5996
G01 X0.2455 Y-1.5984
G01 X0.2453 Y-1.5972
G01 X0.2451 Y-1.5960
G01 X0.2450 Y-1.5952
G01 X0.2447 Y-1.5944
G01 X0.2444 Y-1.5933
G01 X0.2440 Y-1.5921
G01 X0.2434 Y-1.5910
G01 X0.2429 Y-1.5899
G01 X0.2425 Y-1.5892
G01 X0.2420 Y-1.5885
G01 X0.2416 Y-1.5879
G01 X0.2411 Y-1.5872
G01 X0.2384 Y-1.5840
G01 X0.2376 Y-1.5830
G01 X0.2363 Y-1.5818
G01 X0.2353 Y-1.5802
G01 X0.2348 Y-1.5795
G01 X0.2343 Y-1.5789
G01 X0.2334 Y-1.5778
G01 X0.2327 Y-1.5765
G01 X0.2323 Y-1.5759
G01 X0.2319 Y-1.5751
G01 X0.2309 Y-1.5736
G01 X0.2303 Y-1.5723
G01 X0.2300 Y-1.5716
G01 X0.2296 Y-1.5708
G01 X0.2288 Y-1.5692
G01 X0.2282 Y-1.5674
G01 X0.2279 Y-1.5666
G01 X0.2277 Y-1.5659
G01 X0.2271 Y-1.5645
G01 X0.2268 Y-1.5631
G01 X0.2267 Y-1.5624
G01 X0.2264 Y-1.5615
G01 X0.2259 Y-1.5598
G01 X0.2257 Y-1.5579
G01 X0.2256 Y-1.5571
G01 X0.2255 Y-1.5563
G01 X0.2252 Y-1.5549
G01 X0.2252 Y-1.5535
G01 X0.2252 Y-1.5527
G01 X0.2251 Y-1.5518
G01 X0.2249 Y-1.5500
G01 X0.2251 Y-1.5482
G01 X0.2252 Y-1.5473
G01 X0.2252 Y-1.5465
G01 X0.2252 Y-1.5451
G01 X0.2255 Y-1.5437
G01 X0.2256 Y-1.5429
G01 X0.2257 Y-1.5421
G01 X0.2259 Y-1.5402
G01 X0.2264 Y-1.5385
G01 X0.2267 Y-1.5376
G01 X0.2268 Y-1.5369
G01 X0.2271 Y-1.5355
G01 X0.2277 Y-1.5341
G01 X0.2279 Y-1.5334
G01 X0.2282 Y-1.5326
G01 X0.2288 Y-1.5308
G01 X0.2296 Y-1.5292
G01 X0.2300 Y-1.5284
G01 X0.2303 Y-1.5277
G01 X0.2309 Y-1.5264
G01 X0.2319 Y-1.5249
G01 X0.2323 Y-1.5241
G01 X0.2327 Y-1.5235
G01 X0.2334 Y-1.5222
G01 X0.2343 Y-1.5211
G01 X0.2348 Y-1.5205
G01 X0.2353 Y-1.5198
G01 X0.2363 Y-1.5182
G01 X0.2376 Y-1.5170
G01 X0.2384 Y-1.5160
G01 X0.2411 Y-1.5128
G01 X0.2416 Y-1.5121
G01 X0.2420 Y-1.5115
G01 X0.2427 Y-1.5104
G01 X0.2431 Y-1.5097
G01 X0.2436 Y-1.5086
G01 X0.2441 Y-1.5075
G01 X0.2444 Y-1.5067
G01 X0.2446 Y-1.5060
G01 X0.2450 Y-1.5048
G01 X0.2452 Y-1.5037
G01 X0.2453 Y-1.5028
G01 X0.2454 Y-1.5020
G01 X0.2455 Y-1.5008
G01 X0.2455 Y-1.4996
G01 X0.2455 Y-1.4984
G01 X0.2453 Y-1.4972
G01 X0.2451 Y-1.4960
G01 X0.2450 Y-1.4952
G01 X0.2447 Y-1.4944
G01 X0.2444 Y-1.4933
G01 X0.2440 Y-1.4921
G01 X0.2434 Y-1.4910
G01 X0.2429 Y-1.4899
G01 X0.2425 Y-1.4892
G01 X0.2420 Y-1.4885
G01 X0.2416 Y-1.4879
G01 X0.2411 Y-1.4872
G01 X0.2384 Y-1.4840
G01 X0.2376 Y-1.4830
G01 X0.2363 Y-1.4818
G01 X0.2353 Y-1.4802
G01 X0.2348 Y-1.4795
G01 X0.2343 Y-1.4789
G01 X0.2334 Y-1.4778
G01 X0.2327 Y-1.4765
G01 X0.2323 Y-1.4759
G01 X0.2319 Y-1.4751
G01 X0.2309 Y-1.4736
G01 X0.2303 Y-1.4723
G01 X0.2300 Y-1.4716
G01 X0.2296 Y-1.4708
G01 X0.2288 Y-1.4692
G01 X0.2282 Y-1.4674
G01 X0.2279 Y-1.4666
G01 X0.2277 Y-1.4659
G01 X0.2271 Y-1.4645
G01 X0.2268 Y-1.4631
G01 X0.2267 Y-1.4624
G01 X0.2264 Y-1.4615
G01 X0.2259 Y-1.4598
G01 X0.2257 Y-1.4579
G01 X0.2256 Y-1.4571
G01 X0.2255 Y-1.4563
G01 X0.2252 Y-1.4549
G01 X0.2252 Y-1.4535
G01 X0.2252 Y-1.4527
G01 X0.2251 Y-1.4518
G01 X0.2249 Y-1.4500
G01 X0.2251 Y-1.4482
G01 X0.2252 Y-1.4473
G01 X0.2252 Y-1.4465
G01 X0.2252 Y-1.4451
G01 X0.2255 Y-1.4437
G01 X0.2256 Y-1.4429
G01 X0.2257 Y-1.4421
G01 X0.2259 Y-1.4402
G01 X0.2264 Y-1.4385
G01 X0.2267 Y-1.4376
G01 X0.2268 Y-1.4369
G01 X0.2271 Y-1.4355
G01 X0.2277 Y-1.4341
G01 X0.2279 Y-1.4334
G01 X0.2282 Y-1.4326
G01 X0.2288 Y-1.4308
G01 X0.2296 Y-1.4292
G01 X0.2300 Y-1.4284
G01 X0.2303 Y-1.4277
G01 X0.2309 Y-1.4264
G01 X0.2319 Y-1.4249
G01 X0.2323 Y-1.4241
G01 X0.2327 Y-1.4235
G01 X0.2334 Y-1.4222
G01 X0.2343 Y-1.4211
G01 X0.2348 Y-1.4205
G01 X0.2353 Y-1.4198
G01 X0.2363 Y-1.4182
G01 X0.2376 Y-1.4170
G01 X0.2384 Y-1.4160
G01 X0.2411 Y-1.4128
G01 X0.2416 Y-1.4121
G01 X0.2420 Y-1.4115
G01 X0.2427 Y-1.4104
G01 X0.2431 Y-1.4097
G01 X0.2436 Y-1.4086
G01 X0.2441 Y-1.4075
G01 X0.2445 Y-1.4064
G01 X0.2448 Y-1.4053
G01 X0.2451 Y-1.4040
G01 X0.2453 Y-1.4033
G01 X0.2454 Y-1.4024
G01 X0.2455 Y-1.4013
G01 X0.2455 Y-1.4000
G01 X0.2455 Y-1.3987
G01 X0.2454 Y-1.3976
G01 X0.2453 Y-1.3967
G01 X0.2451 Y-1.3960
G01 X0.2448 Y-1.3947
G01 X0.2445 Y-1.3936
G01 X0.2441 Y-1.3925
G01 X0.2436 Y-1.3914
G01 X0.2431 Y-1.3903
G01 X0.2427 Y-1.3896
G01 X0.2420 Y-1.3885
G01 X0.2416 Y-1.3879
G01 X0.2411 Y-1.3872
G01 X0.2384 Y-1.3840
G01 X0.2376 Y-1.3830
G01 X0.2363 Y-1.3818
G01 X0.2353 Y-1.3802
G01 X0.2348 Y-1.3795
G01 X0.2343 Y-1.3789
G01 X0.2334 Y-1.3778
G01 X0.2327 Y-1.3765
G01 X0.2323 Y-1.3759
G01 X0.2319 Y-1.3751
G01 X0.2309 Y-1.3736
G01 X0.2303 Y-1.3723
G01 X0.2300 Y-1.3716
G01 X0.2296 Y-1.3708
G01 X0.2288 Y-1.3692
G01 X0.2282 Y-1.3674
G01 X0.2279 Y-1.3666
G01 X0.2277 Y-1.3659
G01 X0.2271 Y-1.3645
G01 X0.2268 Y-1.3631
G01 X0.2267 Y-1.3624
G01 X0.2264 Y-1.3615
G01 X0.2259 Y-1.3598
G01 X0.2257 Y-1.3579
G01 X0.2256 Y-1.3571
G01 X0.2255 Y-1.3563
G01 X0.2252 Y-1.3549
G01 X0.2252 Y-1.3535
G01 X0.2252 Y-1.3527
G01 X0.2251 Y-1.3518
G01 X0.2249 Y-1.3500
G01 X0.2251 Y-1.3482
G01 X0.2252 Y-1.3473
G01 X0.2252 Y-1.3465
G01 X0.2252 Y-1.3451
G01 X0.2255 Y-1.3437
G01 X0.2256 Y-1.3429
G01 X0.2257 Y-1.3421
G01 X0.2259 Y-1.3402
G01 X0.2264 Y-1.3385
G01 X0.2267 Y-1.3376
G01 X0.2268 Y-1.3369
G01 X0.2271 Y-1.3355
G01 X0.2277 Y-1.3341
G01 X0.2279 Y-1.3334
G01 X0.2282 Y-1.3326
G01 X0.2288 Y-1.3308
G01 X0.2296 Y-1.3292
G01 X0.2300 Y-1.3284
G01 X0.2303 Y-1.3277
G01 X0.2309 Y-1.3264
G01 X0.2319 Y-1.3249
G01 X0.2323 Y-1.3241
G01 X0.2327 Y-1.3235
G01 X0.2334 Y-1.3222
G01 X0.2343 Y-1.3211
G01 X0.2348 Y-1.3205
G01 X0.2353 Y-1.3198
G01 X0.2363 Y-1.3182
G01 X0.2376 Y-1.3170
G01 X0.2384 Y-1.3160
G01 X0.2411 Y-1.3128
G01 X0.2416 Y-1.3121
G01 X0.2420 Y-1.3115
G01 X0.2427 Y-1.3104
G01 X0.2431 Y-1.3097
G01 X0.2436 Y-1.3086
G01 X0.2441 Y-1.3075
G01 X0.2445 Y-1.3064
G01 X0.2448 Y-1.3053
G01 X0.2451 Y-1.3040
G01 X0.2453 Y-1.3033
G01 X0.2454 Y-1.3024
G01 X0.2455 Y-1.3013
G01 X0.2455 Y-1.3000
G01 X0.2455 Y-1.2987
G01 X0.2454 Y-1.2976
G01 X0.2453 Y-1.2967
G01 X0.2451 Y-1.2960
G01 X0.2448 Y-1.2947
G01 X0.2445 Y-1.2936
G01 X0.2441 Y-1.2925
G01 X0.2436 Y-1.2914
G01 X0.2431 Y-1.2903
G01 X0.2427 Y-1.2896
G01 X0.2420 Y-1.2885
G01 X0.2416 Y-1.2879
G01 X0.2411 Y-1.2872
G01 X0.2384 Y-1.2840
G01 X0.2376 Y-1.2830
G01 X0.2363 Y-1.2818
G01 X0.2353 Y-1.2802
G01 X0.2348 Y-1.2795
G01 X0.2343 Y-1.2789
G01 X0.2334 Y-1.2778
G01 X0.2327 Y-1.2765
G01 X0.2323 Y-1.2759
G01 X0.2319 Y-1.2751
G01 X0.2309 Y-1.2736
G01 X0.2303 Y-1.2723
G01 X0.2300 Y-1.2716
G01 X0.2296 Y-1.2708
G01 X0.2288 Y-1.2692
G01 X0.2282 Y-1.2674
G01 X0.2279 Y-1.2666
G01 X0.2277 Y-1.2659
G01 X0.2271 Y-1.2645
G01 X0.2268 Y-1.2631
G01 X0.2267 Y-1.2624
G01 X0.2264 Y-1.2615
G01 X0.2259 Y-1.2598
G01 X0.2257 Y-1.2579
G01 X0.2256 Y-1.2571
G01 X0.2255 Y-1.2563
G01 X0.2252 Y-1.2549
G01 X0.2252 Y-1.2535
G01 X0.2252 Y-1.2527
G01 X0.2251 Y-1.2518
G01 X0.2249 Y-1.2500
G01 X0.2251 Y-1.2482
G01 X0.2252 Y-1.2473
G01 X0.2252 Y-1.2465
G01 X0.2252 Y-1.2451
G01 X0.2255 Y-1.2437
G01 X0.2256 Y-1.2429
G01 X0.2257 Y-1.2421
G01 X0.2259 Y-1.2402
G01 X0.2264 Y-1.2385
G01 X0.2267 Y-1.2376
G01 X0.2268 Y-1.2369
G01 X0.2271 Y-1.2355
G01 X0.2277 Y-1.2341
G01 X0.2279 Y-1.2334
G01 X0.2282 Y-1.2326
G01 X0.2288 Y-1.2308
G01 X0.2296 Y-1.2292
G01 X0.2300 Y-1.2284
G01 X0.2303 Y-1.2277
G01 X0.2309 Y-1.2264
G01 X0.2319 Y-1.2249
G01 X0.2323 Y-1.2241
G01 X0.2327 Y-1.2235
G01 X0.2334 Y-1.2222
G01 X0.2343 Y-1.2211
G01 X0.2348 Y-1.2205
G01 X0.2353 Y-1.2198
G01 X0.2363 Y-1.2182
G01 X0.2376 Y-1.2170
G01 X0.2384 Y-1.2160
G01 X0.2411 Y-1.2128
G01 X0.2416 Y-1.2121
G01 X0.2420 Y-1.2115
G01 X0.2427 Y-1.2104
G01 X0.2431 Y-1.2097
G01 X0.2436 Y-1.2086
G01 X0.2441 Y-1.2075
G01 X0.2445 Y-1.2064
G01 X0.2448 Y-1.2053
G01 X0.2451 Y-1.2040
G01 X0.2453 Y-1.2033
G01 X0.2454 Y-1.2024
G01 X0.2455 Y-1.2013
G01 X0.2455 Y-1.2000
G01 X0.2455 Y-1.1987
G01 X0.2454 Y-1.1976
G01 X0.2453 Y-1.1967
G01 X0.2451 Y-1.1960
G01 X0.2448 Y-1.1947
G01 X0.2445 Y-1.1936
G01 X0.2441 Y-1.1925
G01 X0.2436 Y-1.1914
G01 X0.2431 Y-1.1903
G01 X0.2427 Y-1.1896
G01 X0.2420 Y-1.1885
G01 X0.2416 Y-1.1879
G01 X0.2411 Y-1.1872
G01 X0.2384 Y-1.1840
G01 X0.2376 Y-1.1830
G01 X0.2363 Y-1.1818
G01 X0.2353 Y-1.1802
G01 X0.2348 Y-1.1795
G01 X0.2343 Y-1.1789
G01 X0.2334 Y-1.1778
G01 X0.2327 Y-1.1765
G01 X0.2323 Y-1.1759
G01 X0.2319 Y-1.1751
G01 X0.2309 Y-1.1736
G01 X0.2303 Y-1.1723
G01 X0.2300 Y-1.1716
G01 X0.2296 Y-1.1708
G01 X0.2288 Y-1.1692
G01 X0.2282 Y-1.1674
G01 X0.2279 Y-1.1666
G01 X0.2277 Y-1.1659
G01 X0.2271 Y-1.1645
G01 X0.2268 Y-1.1631
G01 X0.2267 Y-1.1624
G01 X0.2264 Y-1.1615
G01 X0.2259 Y-1.1598
G01 X0.2257 Y-1.1579
G01 X0.2256 Y-1.1571
G01 X0.2255 Y-1.1563
G01 X0.2252 Y-1.1549
G01 X0.2252 Y-1.1535
G01 X0.2252 Y-1.1527
G01 X0.2251 Y-1.1518
G01 X0.2249 Y-1.1500
G01 X0.2251 Y-1.1482
G01 X0.2252 Y-1.1473
G01 X0.2252 Y-1.1465
G01 X0.2252 Y-1.1451
G01 X0.2255 Y-1.1437
G01 X0.2256 Y-1.1429
G01 X0.2257 Y-1.1421
G01 X0.2259 Y-1.1402
G01 X0.2264 Y-1.1385
G01 X0.2267 Y-1.1376
G01 X0.2268 Y-1.1369
G01 X0.2271 Y-1.1355
G01 X0.2277 Y-1.1341
G01 X0.2279 Y-1.1334
G01 X0.2282 Y-1.1326
G01 X0.2288 Y-1.1308
G01 X0.2296 Y-1.1292
G01 X0.2300 Y-1.1284
G01 X0.2303 Y-1.1277
G01 X0.2309 Y-1.1264
G01 X0.2319 Y-1.1249
G01 X0.2323 Y-1.1241
G01 X0.2327 Y-1.1235
G01 X0.2334 Y-1.1222
G01 X0.2343 Y-1.1211
G01 X0.2348 Y-1.1205
G01 X0.2353 Y-1.1198
G01 X0.2363 Y-1.1182
G01 X0.2376 Y-1.1170
G01 X0.2384 Y-1.1160
G01 X0.2411 Y-1.1128
G01 X0.2416 Y-1.1121
G01 X0.2420 Y-1.1115
G01 X0.2427 Y-1.1104
G01 X0.2431 Y-1.1097
G01 X0.2436 Y-1.1086
G01 X0.2441 Y-1.1075
G01 X0.2445 Y-1.1064
G01 X0.2448 Y-1.1053
G01 X0.2451 Y-1.1040
G01 X0.2453 Y-1.1033
G01 X0.2454 Y-1.1024
G01 X0.2455 Y-1.1013
G01 X0.2455 Y-1.1000
G01 X0.2455 Y-1.0987
G01 X0.2454 Y-1.0976
G01 X0.2453 Y-1.0967
G01 X0.2451 Y-1.0960
G01 X0.2448 Y-1.0947
G01 X0.2445 Y-1.0936
G01 X0.2441 Y-1.0925
G01 X0.2436 Y-1.0914
G01 X0.2431 Y-1.0903
G01 X0.2427 Y-1.0896
G01 X0.2420 Y-1.0885
G01 X0.2416 Y-1.0879
G01 X0.2411 Y-1.0872
G01 X0.2384 Y-1.0840
G01 X0.2376 Y-1.0830
G01 X0.2363 Y-1.0818
G01 X0.2353 Y-1.0802
G01 X0.2348 Y-1.0795
G01 X0.2343 Y-1.0789
G01 X0.2334 Y-1.0778
G01 X0.2327 Y-1.0765
G01 X0.2323 Y-1.0759
G01 X0.2319 Y-1.0751
G01 X0.2309 Y-1.0736
G01 X0.2303 Y-1.0723
G01 X0.2300 Y-1.0716
G01 X0.2296 Y-1.0708
G01 X0.2288 Y-1.0692
G01 X0.2282 Y-1.0674
G01 X0.2279 Y-1.0666
G01 X0.2277 Y-1.0659
G01 X0.2271 Y-1.0645
G01 X0.2268 Y-1.0631
G01 X0.2267 Y-1.0624
G01 X0.2264 Y-1.0615
G01 X0.2259 Y-1.0598
G01 X0.2257 Y-1.0579
G01 X0.2256 Y-1.0571
G01 X0.2255 Y-1.0563
G01 X0.2252 Y-1.0549
G01 X0.2252 Y-1.0535
G01 X0.2252 Y-1.0527
G01 X0.2251 Y-1.0518
G01 X0.2249 Y-1.0500
G01 X0.2251 Y-1.0482
G01 X0.2252 Y-1.0473
G01 X0.2252 Y-1.0465
G01 X0.2252 Y-1.0451
G01 X0.2255 Y-1.0437
G01 X0.2256 Y-1.0429
G01 X0.2257 Y-1.0421
G01 X0.2259 Y-1.0402
G01 X0.2264 Y-1.0385
G01 X0.2267 Y-1.0376
G01 X0.2268 Y-1.0369
G01 X0.2271 Y-1.0355
G01 X0.2277 Y-1.0341
G01 X0.2279 Y-1.0334
G01 X0.2282 Y-1.0326
G01 X0.2288 Y-1.0308
G01 X0.2296 Y-1.0292
G01 X0.2300 Y-1.0284
G01 X0.2303 Y-1.0277
G01 X0.2309 Y-1.0264
G01 X0.2319 Y-1.0249
G01 X0.2323 Y-1.0241
G01 X0.2327 Y-1.0235
G01 X0.2334 Y-1.0222
G01 X0.2343 Y-1.0211
G01 X0.2348 Y-1.0205
G01 X0.2353 Y-1.0198
G01 X0.2363 Y-1.0182
G01 X0.2376 Y-1.0170
G01 X0.2384 Y-1.0160
G01 X0.2411 Y-1.0128
G01 X0.2416 Y-1.0121
G01 X0.2420 Y-1.0115
G01 X0.2427 Y-1.0104
G01 X0.2431 Y-1.0097
G01 X0.2436 Y-1.0086
G01 X0.2441 Y-1.0075
G01 X0.2445 Y-1.0064
G01 X0.2448 Y-1.0053
G01 X0.2451 Y-1.0040
G01 X0.2453 Y-1.0033
G01 X0.2454 Y-1.0024
G01 X0.2455 Y-1.0013
G01 X0.2455 Y-1.0000
G01 X0.2455 Y-0.9987
G01 X0.2454 Y-0.9976
G01 X0.2453 Y-0.9967
G01 X0.2451 Y-0.9960
G01 X0.2448 Y-0.9947
G01 X0.2445 Y-0.9936
G01 X0.2441 Y-0.9925
G01 X0.2436 Y-0.9914
G01 X0.2431 Y-0.9903
G01 X0.2427 Y-0.9896
G01 X0.2420 Y-0.9885
G01 X0.2416 Y-0.9879
G01 X0.2411 Y-0.9872
G01 X0.2384 Y-0.9840
G01 X0.2376 Y-0.9830
G01 X0.2363 Y-0.9818
G01 X0.2353 Y-0.9802
G01 X0.2348 Y-0.9795
G01 X0.2343 Y-0.9789
G01 X0.2334 Y-0.9778
G01 X0.2327 Y-0.9765
G01 X0.2323 Y-0.9759
G01 X0.2319 Y-0.9751
G01 X0.2309 Y-0.9736
G01 X0.2303 Y-0.9723
G01 X0.2300 Y-0.9716
G01 X0.2296 Y-0.9708
G01 X0.2288 Y-0.9692
G01 X0.2282 Y-0.9674
G01 X0.2279 Y-0.9666
G01 X0.2277 Y-0.9659
G01 X0.2271 Y-0.9645
G01 X0.2268 Y-0.9631
G01 X0.2267 Y-0.9624
G01 X0.2264 Y-0.9615
G01 X0.2259 Y-0.9598
G01 X0.2257 Y-0.9579
G01 X0.2256 Y-0.9571
G01 X0.2255 Y-0.9563
G01 X0.2252 Y-0.9549
G01 X0.2252 Y-0.9535
G01 X0.2252 Y-0.9527
G01 X0.2251 Y-0.9518
G01 X0.2249 Y-0.9500
G01 X0.2251 Y-0.9482
G01 X0.2252 Y-0.9473
G01 X0.2252 Y-0.9465
G01 X0.2252 Y-0.9451
G01 X0.2255 Y-0.9437
G01 X0.2256 Y-0.9429
G01 X0.2257 Y-0.9421
G01 X0.2259 Y-0.9402
G01 X0.2264 Y-0.9385
G01 X0.2267 Y-0.9376
G01 X0.2268 Y-0.9369
G01 X0.2271 Y-0.9355
G01 X0.2277 Y-0.9341
G01 X0.2279 Y-0.9334
G01 X0.2282 Y-0.9326
G01 X0.2288 Y-0.9308
G01 X0.2296 Y-0.9292
G01 X0.2300 Y-0.9284
G01 X0.2303 Y-0.9277
G01 X0.2309 Y-0.9264
G01 X0.2319 Y-0.9249
G01 X0.2323 Y-0.9241
G01 X0.2327 Y-0.9235
G01 X0.2334 Y-0.9222
G01 X0.2343 Y-0.9211
G01 X0.2348 Y-0.9205
G01 X0.2353 Y-0.9198
G01 X0.2363 Y-0.9182
G01 X0.2376 Y-0.9170
G01 X0.2384 Y-0.9160
G01 X0.2411 Y-0.9128
G01 X0.2416 Y-0.9121
G01 X0.2420 Y-0.9115
G01 X0.2427 Y-0.9104
G01 X0.2431 Y-0.9097
G01 X0.2436 Y-0.9086
G01 X0.2441 Y-0.9075
G01 X0.2445 Y-0.9064
G01 X0.2448 Y-0.9053
G01 X0.2451 Y-0.9040
G01 X0.2453 Y-0.9033
G01 X0.2454 Y-0.9024
G01 X0.2455 Y-0.9013
G01 X0.2455 Y-0.9000
G01 X0.2455 Y-0.8987
G01 X0.2454 Y-0.8976
G01 X0.2453 Y-0.8967
G01 X0.2451 Y-0.8960
G01 X0.2448 Y-0.8947
G01 X0.2445 Y-0.8936
G01 X0.2441 Y-0.8925
G01 X0.2436 Y-0.8914
G01 X0.2431 Y-0.8903
G01 X0.2427 Y-0.8896
G01 X0.2420 Y-0.8885
G01 X0.2416 Y-0.8879
G01 X0.2411 Y-0.8872
G01 X0.2384 Y-0.8840
G01 X0.2376 Y-0.8830
G01 X0.2363 Y-0.8818
G01 X0.2353 Y-0.8802
G01 X0.2348 Y-0.8795
G01 X0.2343 Y-0.8789
G01 X0.2334 Y-0.8778
G01 X0.2327 Y-0.8765
G01 X0.2323 Y-0.8759
G01 X0.2319 Y-0.8751
G01 X0.2309 Y-0.8736
G01 X0.2303 Y-0.8723
G01 X0.2300 Y-0.8716
G01 X0.2296 Y-0.8708
G01 X0.2288 Y-0.8692
G01 X0.2282 Y-0.8674
G01 X0.2279 Y-0.8666
G01 X0.2277 Y-0.8659
G01 X0.2271 Y-0.8645
G01 X0.2268 Y-0.8631
G01 X0.2267 Y-0.8624
G01 X0.2264 Y-0.8615
G01 X0.2259 Y-0.8598
G01 X0.2257 Y-0.8579
G01 X0.2256 Y-0.8571
G01 X0.2255 Y-0.8563
G01 X0.2252 Y-0.8549
G01 X0.2252 Y-0.8535
G01 X0.2252 Y-0.8527
G01 X0.2251 Y-0.8518
G01 X0.2249 Y-0.8500
G01 X0.2251 Y-0.8482
G01 X0.2252 Y-0.8473
G01 X0.2252 Y-0.8465
G01 X0.2252 Y-0.8451
G01 X0.2255 Y-0.8437
G01 X0.2256 Y-0.8429
G01 X0.2257 Y-0.8421
G01 X0.2259 Y-0.8402
G01 X0.2264 Y-0.8385
G01 X0.2267 Y-0.8376
G01 X0.2268 Y-0.8369
G01 X0.2271 Y-0.8355
G01 X0.2277 Y-0.8341
G01 X0.2279 Y-0.8334
G01 X0.2282 Y-0.8326
G01 X0.2288 Y-0.8308
G01 X0.2296 Y-0.8292
G01 X0.2300 Y-0.8284
G01 X0.2303 Y-0.8277
G01 X0.2309 Y-0.8264
G01 X0.2319 Y-0.8249
G01 X0.2323 Y-0.8241
G01 X0.2327 Y-0.8235
G01 X0.2334 Y-0.8222
G01 X0.2343 Y-0.8211
G01 X0.2348 Y-0.8205
G01 X0.2353 Y-0.8198
G01 X0.2363 Y-0.8182
G01 X0.2376 Y-0.8170
G01 X0.2384 Y-0.8160
G01 X0.2411 Y-0.8128
G01 X0.2416 Y-0.8121
G01 X0.2420 Y-0.8115
G01 X0.2427 Y-0.8104
G01 X0.2431 Y-0.8097
G01 X0.2436 Y-0.8086
G01 X0.2441 Y-0.8075
G01 X0.2445 Y-0.8064
G01 X0.2448 Y-0.8053
G01 X0.2451 Y-0.8040
G01 X0.2453 Y-0.8033
G01 X0.2454 Y-0.8024
G01 X0.2455 Y-0.8013
G01 X0.2455 Y-0.8000
G01 X0.2455 Y-0.7987
G01 X0.2454 Y-0.7976
G01 X0.2453 Y-0.7967
G01 X0.2451 Y-0.7960
G01 X0.2448 Y-0.7947
G01 X0.2445 Y-0.7936
G01 X0.2441 Y-0.7925
G01 X0.2436 Y-0.7914
G01 X0.2431 Y-0.7903
G01 X0.2427 Y-0.7896
G01 X0.2420 Y-0.7885
G01 X0.2416 Y-0.7879
G01 X0.2411 Y-0.7872
G01 X0.2384 Y-0.7840
G01 X0.2376 Y-0.7830
G01 X0.2363 Y-0.7818
G01 X0.2353 Y-0.7802
G01 X0.2348 Y-0.7795
G01 X0.2343 Y-0.7789
G01 X0.2334 Y-0.7778
G01 X0.2327 Y-0.7765
G01 X0.2323 Y-0.7759
G01 X0.2319 Y-0.7751
G01 X0.2309 Y-0.7736
G01 X0.2303 Y-0.7723
G01 X0.2300 Y-0.7716
G01 X0.2296 Y-0.7708
G01 X0.2288 Y-0.7692
G01 X0.2282 Y-0.7674
G01 X0.2279 Y-0.7666
G01 X0.2277 Y-0.7659
G01 X0.2271 Y-0.7645
G01 X0.2268 Y-0.7631
G01 X0.2267 Y-0.7624
G01 X0.2264 Y-0.7615
G01 X0.2259 Y-0.7598
G01 X0.2257 Y-0.7579
G01 X0.2256 Y-0.7571
G01 X0.2255 Y-0.7563
G01 X0.2252 Y-0.7549
G01 X0.2252 Y-0.7535
G01 X0.2252 Y-0.7527
G01 X0.2251 Y-0.7518
G01 X0.2249 Y-0.7500
G01 X0.2251 Y-0.7482
G01 X0.2252 Y-0.7473
G01 X0.2252 Y-0.7465
G01 X0.2252 Y-0.7451
G01 X0.2255 Y-0.7437
G01 X0.2256 Y-0.7429
G01 X0.2257 Y-0.7421
G01 X0.2259 Y-0.7402
G01 X0.2264 Y-0.7385
G01 X0.2267 Y-0.7376
G01 X0.2268 Y-0.7369
G01 X0.2271 Y-0.7355
G01 X0.2277 Y-0.7341
G01 X0.2279 Y-0.7334
G01 X0.2282 Y-0.7326
G01 X0.2288 Y-0.7308
G01 X0.2296 Y-0.7292
G01 X0.2300 Y-0.7284
G01 X0.2303 Y-0.7277
G01 X0.2309 Y-0.7264
G01 X0.2319 Y-0.7249
G01 X0.2323 Y-0.7241
G01 X0.2327 Y-0.7235
G01 X0.2334 Y-0.7222
G01 X0.2343 Y-0.7211
G01 X0.2348 Y-0.7205
G01 X0.2353 Y-0.7198
G01 X0.2363 Y-0.7182
G01 X0.2376 Y-0.7170
G01 X0.2384 Y-0.7160
G01 X0.2411 Y-0.7128
G01 X0.2416 Y-0.7121
G01 X0.2420 Y-0.7115
G01 X0.2427 Y-0.7104
G01 X0.2431 Y-0.7097
G01 X0.2436 Y-0.7086
G01 X0.2441 Y-0.7075
G01 X0.2445 Y-0.7064
G01 X0.2448 Y-0.7053
G01 X0.2451 Y-0.7040
G01 X0.2453 Y-0.7033
G01 X0.2454 Y-0.7024
G01 X0.2455 Y-0.7013
G01 X0.2455 Y-0.7000
G01 X0.2455 Y-0.6987
G01 X0.2454 Y-0.6976
G01 X0.2453 Y-0.6967
G01 X0.2451 Y-0.6960
G01 X0.2448 Y-0.6947
G01 X0.2445 Y-0.6936
G01 X0.2441 Y-0.6925
G01 X0.2436 Y-0.6914
G01 X0.2431 Y-0.6903
G01 X0.2427 Y-0.6896
G01 X0.2420 Y-0.6885
G01 X0.2416 Y-0.6879
G01 X0.2411 Y-0.6872
G01 X0.2384 Y-0.6840
G01 X0.2376 Y-0.6830
G01 X0.2363 Y-0.6818
G01 X0.2353 Y-0.6802
G01 X0.2348 Y-0.6795
G01 X0.2343 Y-0.6789
G01 X0.2334 Y-0.6778
G01 X0.2327 Y-0.6765
G01 X0.2323 Y-0.6759
G01 X0.2319 Y-0.6751
G01 X0.2309 Y-0.6736
G01 X0.2303 Y-0.6723
G01 X0.2300 Y-0.6716
G01 X0.2296 Y-0.6708
G01 X0.2288 Y-0.6692
G01 X0.2282 Y-0.6674
G01 X0.2279 Y-0.6666
G01 X0.2277 Y-0.6659
G01 X0.2271 Y-0.6645
G01 X0.2268 Y-0.6631
G01 X0.2267 Y-0.6624
G01 X0.2264 Y-0.6615
G01 X0.2259 Y-0.6598
G01 X0.2257 Y-0.6579
G01 X0.2256 Y-0.6571
G01 X0.2255 Y-0.6563
G01 X0.2252 Y-0.6549
G01 X0.2252 Y-0.6535
G01 X0.2252 Y-0.6527
G01 X0.2251 Y-0.6518
G01 X0.2249 Y-0.6500
G01 X0.2251 Y-0.6482
G01 X0.2252 Y-0.6473
G01 X0.2252 Y-0.6465
G01 X0.2252 Y-0.6451
G01 X0.2255 Y-0.6437
G01 X0.2256 Y-0.6429
G01 X0.2257 Y-0.6421
G01 X0.2259 Y-0.6402
G01 X0.2264 Y-0.6385
G01 X0.2267 Y-0.6376
G01 X0.2268 Y-0.6369
G01 X0.2271 Y-0.6355
G01 X0.2277 Y-0.6341
G01 X0.2279 Y-0.6334
G01 X0.2282 Y-0.6326
G01 X0.2288 Y-0.6308
G01 X0.2296 Y-0.6292
G01 X0.2300 Y-0.6284
G01 X0.2303 Y-0.6277
G01 X0.2309 Y-0.6264
G01 X0.2319 Y-0.6249
G01 X0.2323 Y-0.6241
G01 X0.2327 Y-0.6235
G01 X0.2334 Y-0.6222
G01 X0.2343 Y-0.6211
G01 X0.2348 Y-0.6205
G01 X0.2353 Y-0.6198
G01 X0.2363 Y-0.6182
G01 X0.2376 Y-0.6170
G01 X0.2384 Y-0.6160
G01 X0.2411 Y-0.6128
G01 X0.2416 Y-0.6121
G01 X0.2420 Y-0.6115
G01 X0.2427 Y-0.6104
G01 X0.2431 Y-0.6097
G01 X0.2436 Y-0.6086
G01 X0.2441 Y-0.6075
G01 X0.2445 Y-0.6064
G01 X0.2448 Y-0.6053
G01 X0.2451 Y-0.6040
G01 X0.2453 Y-0.6033
G01 X0.2454 Y-0.6024
G01 X0.2455 Y-0.6013
G01 X0.2455 Y-0.6000
G01 X0.2455 Y-0.5987
G01 X0.2454 Y-0.5976
G01 X0.2453 Y-0.5967
G01 X0.2451 Y-0.5960
G01 X0.2448 Y-0.5947
G01 X0.2445 Y-0.5936
G01 X0.2441 Y-0.5925
G01 X0.2436 Y-0.5914
G01 X0.2431 Y-0.5903
G01 X0.2427 Y-0.5896
G01 X0.2420 Y-0.5885
G01 X0.2416 Y-0.5879
G01 X0.2411 Y-0.5872
G01 X0.2384 Y-0.5840
G01 X0.2376 Y-0.5830
G01 X0.2363 Y-0.5818
G01 X0.2353 Y-0.5802
G01 X0.2348 Y-0.5795
G01 X0.2343 Y-0.5789
G01 X0.2334 Y-0.5778
G01 X0.2327 Y-0.5765
G01 X0.2323 Y-0.5759
G01 X0.2319 Y-0.5751
G01 X0.2309 Y-0.5736
G01 X0.2303 Y-0.5723
G01 X0.2300 Y-0.5716
G01 X0.2296 Y-0.5708
G01 X0.2288 Y-0.5692
G01 X0.2282 Y-0.5674
G01 X0.2279 Y-0.5666
G01 X0.2277 Y-0.5659
G01 X0.2271 Y-0.5645
G01 X0.2268 Y-0.5631
G01 X0.2267 Y-0.5624
G01 X0.2264 Y-0.5615
G01 X0.2259 Y-0.5598
G01 X0.2257 Y-0.5579
G01 X0.2256 Y-0.5571
G01 X0.2255 Y-0.5563
G01 X0.2252 Y-0.5549
G01 X0.2252 Y-0.5535
G01 X0.2252 Y-0.5527
G01 X0.2251 Y-0.5518
G01 X0.2249 Y-0.5500
G01 X0.2251 Y-0.5482
G01 X0.2252 Y-0.5473
G01 X0.2252 Y-0.5465
G01 X0.2252 Y-0.5451
G01 X0.2255 Y-0.5437
G01 X0.2256 Y-0.5429
G01 X0.2257 Y-0.5421
G01 X0.2259 Y-0.5402
G01 X0.2264 Y-0.5385
G01 X0.2267 Y-0.5376
G01 X0.2268 Y-0.5369
G01 X0.2271 Y-0.5355
G01 X0.2277 Y-0.5341
G01 X0.2279 Y-0.5334
G01 X0.2282 Y-0.5326
G01 X0.2288 Y-0.5308
G01 X0.2296 Y-0.5292
G01 X0.2300 Y-0.5284
G01 X0.2303 Y-0.5277
G01 X0.2309 Y-0.5264
G01 X0.2319 Y-0.5249
G01 X0.2323 Y-0.5241
G01 X0.2327 Y-0.5235
G01 X0.2334 Y-0.5222
G01 X0.2343 Y-0.5211
G01 X0.2348 Y-0.5205
G01 X0.2353 Y-0.5198
G01 X0.2363 Y-0.5182
G01 X0.2376 Y-0.5170
G01 X0.2382 Y-0.5163
G01 X0.2387 Y-0.5157
G01 X0.2396 Y-0.5146
G01 X0.2407 Y-0.5137
G01 X0.2413 Y-0.5132
G01 X0.2420 Y-0.5126
G01 X0.2432 Y-0.5113
G01 X0.2448 Y-0.5103
G01 X0.2455 Y-0.5098
G01 X0.2461 Y-0.5093
G01 X0.2472 Y-0.5084
G01 X0.2485 Y-0.5077
G01 X0.2491 Y-0.5073
G01 X0.2499 Y-0.5069
G01 X0.2514 Y-0.5059
G01 X0.2527 Y-0.5053
G01 X0.2534 Y-0.5050
G01 X0.2542 Y-0.5046
G01 X0.2558 Y-0.5038
G01 X0.2576 Y-0.5032
G01 X0.2584 Y-0.5029
G01 X0.2591 Y-0.5027
G01 X0.2605 Y-0.5021
G01 X0.2619 Y-0.5018
G01 X0.2626 Y-0.5017
G01 X0.2635 Y-0.5014
G01 X0.2652 Y-0.5009
G01 X0.2671 Y-0.5007
G01 X0.2679 Y-0.5006
G01 X0.2687 Y-0.5005
G01 X0.2701 Y-0.5002
G01 X0.4299 Y-0.5002
G01 X0.4313 Y-0.5005
G01 X0.4321 Y-0.5006
G01 X0.4329 Y-0.5007
G01 X0.4348 Y-0.5009
G01 X0.4365 Y-0.5014
G01 X0.4374 Y-0.5017
G01 X0.4381 Y-0.5018
G01 X0.4395 Y-0.5021
G01 X0.4409 Y-0.5027
G01 X0.4416 Y-0.5029
G01 X0.4424 Y-0.5032
G01 X0.4442 Y-0.5038
G01 X0.4458 Y-0.5046
G01 X0.4466 Y-0.5050
G01 X0.4473 Y-0.5053
G01 X0.4486 Y-0.5059
G01 X0.4501 Y-0.5069
G01 X0.4509 Y-0.5073
G01 X0.4515 Y-0.5077
G01 X0.4528 Y-0.5084
G01 X0.4539 Y-0.5093
G01 X0.4545 Y-0.5098
G01 X0.4552 Y-0.5103
G01 X0.4568 Y-0.5113
G01 X0.4580 Y-0.5126
G01 X0.4587 Y-0.5132
G01 X0.4593 Y-0.5137
G01 X0.4604 Y-0.5146
G01 X0.4613 Y-0.5157
G01 X0.4618 Y-0.5163
G01 X0.4624 Y-0.5170
G01 X0.4637 Y-0.5182
G01 X0.4647 Y-0.5198
G01 X0.4652 Y-0.5205
G01 X0.4657 Y-0.5211
G01 X0.4666 Y-0.5222
G01 X0.4673 Y-0.5235
G01 X0.4677 Y-0.5241
G01 X0.4681 Y-0.5249
G01 X0.4691 Y-0.5264
G01 X0.4697 Y-0.5277
G01 X0.4700 Y-0.5284
G01 X0.4704 Y-0.5292
G01 X0.4712 Y-0.5308
G01 X0.4718 Y-0.5326
G01 X0.4721 Y-0.5334
G01 X0.4723 Y-0.5341
G01 X0.4729 Y-0.5355
G01 X0.4732 Y-0.5369
G01 X0.4733 Y-0.5376
G01 X0.4736 Y-0.5385
G01 X0.4741 Y-0.5402
G01 X0.4743 Y-0.5421
G01 X0.4744 Y-0.5429
G01 X0.4745 Y-0.5437
G01 X0.4748 Y-0.5451
G01 X0.4748 Y-0.5465
G01 X0.4748 Y-0.5473
G01 X0.4749 Y-0.5482
G01 X0.4751 Y-0.5500
G01 X0.4749 Y-0.5518
G01 X0.4748 Y-0.5527
G01 X0.4748 Y-0.5535
G01 X0.4748 Y-0.5549
G01 X0.4745 Y-0.5563
G01 X0.4744 Y-0.5571
G01 X0.4743 Y-0.5579
G01 X0.4741 Y-0.5598
G01 X0.4736 Y-0.5615
G01 X0.4733 Y-0.5624
G01 X0.4732 Y-0.5631
G01 X0.4729 Y-0.5645
G01 X0.4723 Y-0.5659
G01 X0.4721 Y-0.5666
G01 X0.4718 Y-0.5674
G01 X0.4712 Y-0.5692
G01 X0.4704 Y-0.5708
G01 X0.4700 Y-0.5716
G01 X0.4697 Y-0.5723
G01 X0.4691 Y-0.5736
G01 X0.4681 Y-0.5751
G01 X0.4677 Y-0.5759
G01 X0.4673 Y-0.5765
G01 X0.4666 Y-0.5778
G01 X0.4657 Y-0.5789
G01 X0.4652 Y-0.5795
G01 X0.4647 Y-0.5802
G01 X0.4637 Y-0.5818
G01 X0.4624 Y-0.5830
G01 X0.4616 Y-0.5840
G01 X0.4589 Y-0.5872
G01 X0.4582 Y-0.5882
G01 X0.4577 Y-0.5888
G01 X0.4571 Y-0.5899
G01 X0.4566 Y-0.5910
G01 X0.4560 Y-0.5921
G01 X0.4556 Y-0.5933
G01 X0.4553 Y-0.5944
G01 X0.4549 Y-0.5956
G01 X0.4547 Y-0.5967
G01 X0.4546 Y-0.5980
G01 X0.4545 Y-0.5992
G01 X0.4545 Y-0.6004
G01 X0.4545 Y-0.6016
G01 X0.4547 Y-0.6028
G01 X0.4549 Y-0.6040
G01 X0.4550 Y-0.6048
G01 X0.4553 Y-0.6056
G01 X0.4556 Y-0.6067
G01 X0.4560 Y-0.6079
G01 X0.4566 Y-0.6090
G01 X0.4571 Y-0.6101
G01 X0.4575 Y-0.6108
G01 X0.4580 Y-0.6115
G01 X0.4584 Y-0.6121
G01 X0.4589 Y-0.6128
G01 X0.4616 Y-0.6160
G01 X0.4624 Y-0.6170
G01 X0.4637 Y-0.6182
G01 X0.4647 Y-0.6198
G01 X0.4652 Y-0.6205
G01 X0.4657 Y-0.6211
G01 X0.4666 Y-0.6222
G01 X0.4673 Y-0.6235
G01 X0.4677 Y-0.6241
G01 X0.4681 Y-0.6249
G01 X0.4691 Y-0.6264
G01 X0.4697 Y-0.6277
G01 X0.4700 Y-0.6284
G01 X0.4704 Y-0.6292
G01 X0.4712 Y-0.6308
G01 X0.4718 Y-0.6326
G01 X0.4721 Y-0.6334
G01 X0.4723 Y-0.6341
G01 X0.4729 Y-0.6355
G01 X0.4732 Y-0.6369
G01 X0.4733 Y-0.6376
G01 X0.4736 Y-0.6385
G01 X0.4741 Y-0.6402
G01 X0.4743 Y-0.6421
G01 X0.4744 Y-0.6429
G01 X0.4745 Y-0.6437
G01 X0.4748 Y-0.6451
G01 X0.4748 Y-0.6465
G01 X0.4748 Y-0.6473
G01 X0.4749 Y-0.6482
G01 X0.4751 Y-0.6500
G01 X0.4749 Y-0.6518
G01 X0.4748 Y-0.6527
G01 X0.4748 Y-0.6535
G01 X0.4748 Y-0.6549
G01 X0.4745 Y-0.6563
G01 X0.4744 Y-0.6571
G01 X0.4743 Y-0.6579
G01 X0.4741 Y-0.6598
G01 X0.4736 Y-0.6615
G01 X0.4733 Y-0.6624
G01 X0.4732 Y-0.6631
G01 X0.4729 Y-0.6645
G01 X0.4723 Y-0.6659
G01 X0.4721 Y-0.6666
G01 X0.4718 Y-0.6674
G01 X0.4712 Y-0.6692
G01 X0.4704 Y-0.6708
G01 X0.4700 Y-0.6716
G01 X0.4697 Y-0.6723
G01 X0.4691 Y-0.6736
G01 X0.4681 Y-0.6751
G01 X0.4677 Y-0.6759
G01 X0.4673 Y-0.6765
G01 X0.4666 Y-0.6778
G01 X0.4657 Y-0.6789
G01 X0.4652 Y-0.6795
G01 X0.4647 Y-0.6802
G01 X0.4637 Y-0.6818
G01 X0.4624 Y-0.6830
G01 X0.4616 Y-0.6840
G01 X0.4589 Y-0.6872
G01 X0.4584 Y-0.6879
G01 X0.4580 Y-0.6885
G01 X0.4573 Y-0.6896
G01 X0.4569 Y-0.6903
G01 X0.4564 Y-0.6914
G01 X0.4559 Y-0.6925
G01 X0.4556 Y-0.6933
G01 X0.4554 Y-0.6940
G01 X0.4550 Y-0.6952
G01 X0.4548 Y-0.6963
G01 X0.4547 Y-0.6972
G01 X0.4546 Y-0.6980
G01 X0.4545 Y-0.6992
G01 X0.4545 Y-0.7004
G01 X0.4545 Y-0.7016
G01 X0.4547 Y-0.7028
G01 X0.4549 Y-0.7040
G01 X0.4550 Y-0.7048
G01 X0.4553 Y-0.7056
G01 X0.4556 Y-0.7067
G01 X0.4560 Y-0.7079
G01 X0.4566 Y-0.7090
G01 X0.4571 Y-0.7101
G01 X0.4575 Y-0.7108
G01 X0.4580 Y-0.7115
G01 X0.4584 Y-0.7121
G01 X0.4589 Y-0.7128
G01 X0.4616 Y-0.7160
G01 X0.4624 Y-0.7170
G01 X0.4637 Y-0.7182
G01 X0.4647 Y-0.7198
G01 X0.4652 Y-0.7205
G01 X0.4657 Y-0.7211
G01 X0.4666 Y-0.7222
G01 X0.4673 Y-0.7235
G01 X0.4677 Y-0.7241
G01 X0.4681 Y-0.7249
G01 X0.4691 Y-0.7264
G01 X0.4697 Y-0.7277
G01 X0.4700 Y-0.7284
G01 X0.4704 Y-0.7292
G01 X0.4712 Y-0.7308
G01 X0.4718 Y-0.7326
G01 X0.4721 Y-0.7334
G01 X0.4723 Y-0.7341
G01 X0.4729 Y-0.7355
G01 X0.4732 Y-0.7369
G01 X0.4733 Y-0.7376
G01 X0.4736 Y-0.7385
G01 X0.4741 Y-0.7402
G01 X0.4743 Y-0.7421
G01 X0.4744 Y-0.7429
G01 X0.4745 Y-0.7437
G01 X0.4748 Y-0.7451
G01 X0.4748 Y-0.7465
G01 X0.4748 Y-0.7473
G01 X0.4749 Y-0.7482
G01 X0.4751 Y-0.7500
G01 X0.4749 Y-0.7518
G01 X0.4748 Y-0.7527
G01 X0.4748 Y-0.7535
G01 X0.4748 Y-0.7549
G01 X0.4745 Y-0.7563
G01 X0.4744 Y-0.7571
G01 X0.4743 Y-0.7579
G01 X0.4741 Y-0.7598
G01 X0.4736 Y-0.7615
G01 X0.4733 Y-0.7624
G01 X0.4732 Y-0.7631
G01 X0.4729 Y-0.7645
G01 X0.4723 Y-0.7659
G01 X0.4721 Y-0.7666
G01 X0.4718 Y-0.7674
G01 X0.4712 Y-0.7692
G01 X0.4704 Y-0.7708
G01 X0.4700 Y-0.7716
G01 X0.4697 Y-0.7723
G01 X0.4691 Y-0.7736
G01 X0.4681 Y-0.7751
G01 X0.4677 Y-0.7759
G01 X0.4673 Y-0.7765
G01 X0.4666 Y-0.7778
G01 X0.4657 Y-0.7789
G01 X0.4652 Y-0.7795
G01 X0.4647 Y-0.7802
G01 X0.4637 Y-0.7818
G01 X0.4624 Y-0.7830
G01 X0.4616 Y-0.7840
G01 X0.4589 Y-0.7872
G01 X0.4584 Y-0.7879
G01 X0.4580 Y-0.7885
G01 X0.4573 Y-0.7896
G01 X0.4569 Y-0.7903
G01 X0.4564 Y-0.7914
G01 X0.4559 Y-0.7925
G01 X0.4555 Y-0.7936
G01 X0.4552 Y-0.7947
G01 X0.4549 Y-0.7960
G01 X0.4547 Y-0.7967
G01 X0.4546 Y-0.7976
G01 X0.4545 Y-0.7987
G01 X0.4545 Y-0.8000
G01 X0.4545 Y-0.8013
G01 X0.4546 Y-0.8024
G01 X0.4547 Y-0.8033
G01 X0.4549 Y-0.8040
G01 X0.4552 Y-0.8053
G01 X0.4555 Y-0.8064
G01 X0.4559 Y-0.8075
G01 X0.4564 Y-0.8086
G01 X0.4569 Y-0.8097
G01 X0.4573 Y-0.8104
G01 X0.4580 Y-0.8115
G01 X0.4584 Y-0.8121
G01 X0.4589 Y-0.8128
G01 X0.4616 Y-0.8160
G01 X0.4624 Y-0.8170
G01 X0.4637 Y-0.8182
G01 X0.4647 Y-0.8198
G01 X0.4652 Y-0.8205
G01 X0.4657 Y-0.8211
G01 X0.4666 Y-0.8222
G01 X0.4673 Y-0.8235
G01 X0.4677 Y-0.8241
G01 X0.4681 Y-0.8249
G01 X0.4691 Y-0.8264
G01 X0.4697 Y-0.8277
G01 X0.4700 Y-0.8284
G01 X0.4704 Y-0.8292
G01 X0.4712 Y-0.8308
G01 X0.4718 Y-0.8326
G01 X0.4721 Y-0.8334
G01 X0.4723 Y-0.8341
G01 X0.4729 Y-0.8355
G01 X0.4732 Y-0.8369
G01 X0.4733 Y-0.8376
G01 X0.4736 Y-0.8385
G01 X0.4741 Y-0.8402
G01 X0.4743 Y-0.8421
G01 X0.4744 Y-0.8429
G01 X0.4745 Y-0.8437
G01 X0.4748 Y-0.8451
G01 X0.4748 Y-0.8465
G01 X0.4748 Y-0.8473
G01 X0.4749 Y-0.8482
G01 X0.4751 Y-0.8500
G01 X0.4749 Y-0.8518
G01 X0.4748 Y-0.8527
G01 X0.4748 Y-0.8535
G01 X0.4748 Y-0.8549
G01 X0.4745 Y-0.8563
G01 X0.4744 Y-0.8571
G01 X0.4743 Y-0.8579
G01 X0.4741 Y-0.8598
G01 X0.4736 Y-0.8615
G01 X0.4733 Y-0.8624
G01 X0.4732 Y-0.8631
G01 X0.4729 Y-0.8645
G01 X0.4723 Y-0.8659
G01 X0.4721 Y-0.8666
G01 X0.4718 Y-0.8674
G01 X0.4712 Y-0.8692
G01 X0.4704 Y-0.8708
G01 X0.4700 Y-0.8716
G01 X0.4697 Y-0.8723
G01 X0.4691 Y-0.8736
G01 X0.4681 Y-0.8751
G01 X0.4677 Y-0.8759
G01 X0.4673 Y-0.8765
G01 X0.4666 Y-0.8778
G01 X0.4657 Y-0.8789
G01 X0.4652 Y-0.8795
G01 X0.4647 Y-0.8802
G01 X0.4637 Y-0.8818
G01 X0.4624 Y-0.8830
G01 X0.4616 Y-0.8840
G01 X0.4589 Y-0.8872
G01 X0.4584 Y-0.8879
G01 X0.4580 Y-0.8885
G01 X0.4573 Y-0.8896
G01 X0.4569 Y-0.8903
G01 X0.4564 Y-0.8914
G01 X0.4559 Y-0.8925
G01 X0.4555 Y-0.8936
G01 X0.4552 Y-0.8947
G01 X0.4549 Y-0.8960
G01 X0.4547 Y-0.8967
G01 X0.4546 Y-0.8976
G01 X0.4545 Y-0.8987
G01 X0.4545 Y-0.9000
G01 X0.4545 Y-0.9013
G01 X0.4546 Y-0.9024
G01 X0.4547 Y-0.9033
G01 X0.4549 Y-0.9040
G01 X0.4552 Y-0.9053
G01 X0.4555 Y-0.9064
G01 X0.4559 Y-0.9075
G01 X0.4564 Y-0.9086
