(G-CODE GENERATED BY FLATCAM v8.992 - www.flatcam.org - Version Date: 2020/05/03)

(Name: TeensyPCB.drl_cnc)
(Type: G-code from Excellon)
(Units: IN)

(Created on Sunday, 30 August 2020 at 11:59)

(This preprocessor is the default preprocessor used by FlatCAM.)
(It is made to work with MACH3 compatible motion controllers.)


(TOOLS DIAMETER: )
(Tool: 1 -> Dia: 0.0394)
(Tool: 2 -> Dia: 0.0433)
(Tool: 3 -> Dia: 0.0453)
(Tool: 4 -> Dia: 0.116)

(FEEDRATE Z: )
(Tool: 1 -> Feedrate: 10.0)
(Tool: 2 -> Feedrate: 10.0)
(Tool: 3 -> Feedrate: 10.0)
(Tool: 4 -> Feedrate: 11.811)

(FEEDRATE RAPIDS: )
(Tool: 1 -> Feedrate Rapids: 59.0551)
(Tool: 2 -> Feedrate Rapids: 59.0551)
(Tool: 3 -> Feedrate Rapids: 59.0551)
(Tool: 4 -> Feedrate Rapids: 59.0551)

(Z_CUT: )
(Tool: 1 -> Z_Cut: -0.055)
(Tool: 2 -> Z_Cut: -0.055)
(Tool: 3 -> Z_Cut: -0.055)
(Tool: 4 -> Z_Cut: -0.0669)

(Tools Offset: )
(Tool: 1 -> Offset Z: -0.0)
(Tool: 2 -> Offset Z: -0.0)
(Tool: 3 -> Offset Z: -0.0)

(Z_MOVE: )
(Tool: 1 -> Z_Move: 0.1)
(Tool: 2 -> Z_Move: 0.1)
(Tool: 3 -> Z_Move: 0.1)
(Tool: 4 -> Z_Move: 0.0787)

(Z Start: None in)
(Z End: 2.0 in)
(Steps per circle: 64)
(Preprocessor Excellon: default)

(X range:    0.0420 ...    2.7080  in)
(Y range:   -3.9580 ...   -0.0420  in)

(Spindle Speed: 16000.0 RPM)
G20
G90
G94



G00 Z0.1000

G01 F10.00
M03 S16000
G00 X0.2750 Y-0.3500
G01 Z-0.0550
G01 Z0
G00 Z0.1000
G00 X1.1750 Y-0.7500
G01 Z-0.0550
G01 Z0
G00 Z0.1000
G00 X1.2750 Y-0.9500
G01 Z-0.0550
G01 Z0
G00 Z0.1000
G00 X1.2750 Y-0.8500
G01 Z-0.0550
G01 Z0
G00 Z0.1000
G00 X1.2750 Y-0.7500
G01 Z-0.0550
G01 Z0
G00 Z0.1000
G00 X1.2750 Y-0.6500
G01 Z-0.0550
G01 Z0
G00 Z0.1000
G00 X1.5750 Y-1.5500
G01 Z-0.0550
G01 Z0
G00 Z0.1000
G00 X2.4750 Y-1.6500
G01 Z-0.0550
G01 Z0
G00 Z0.1000
G00 X2.5500 Y-2.0500
G01 Z-0.0550
G01 Z0
G00 Z0.1000
G00 X2.5500 Y-1.9500
G01 Z-0.0550
G01 Z0
G00 Z0.1000
G00 X2.4750 Y-1.5500
G01 Z-0.0550
G01 Z0
G00 Z0.1000
G00 X2.4750 Y-1.4500
G01 Z-0.0550
G01 Z0
G00 Z0.1000
G00 X2.4750 Y-1.3500
G01 Z-0.0550
G01 Z0
G00 Z0.1000
G00 X2.4750 Y-1.2500
G01 Z-0.0550
G01 Z0
G00 Z0.1000
G00 X2.4750 Y-1.1500
G01 Z-0.0550
G01 Z0
G00 Z0.1000
G00 X2.4750 Y-1.0500
G01 Z-0.0550
G01 Z0
G00 Z0.1000
G00 X2.4750 Y-0.9500
G01 Z-0.0550
G01 Z0
G00 Z0.1000
G00 X2.4750 Y-0.8500
G01 Z-0.0550
G01 Z0
G00 Z0.1000
G00 X2.4750 Y-0.7500
G01 Z-0.0550
G01 Z0
G00 Z0.1000
G00 X2.4750 Y-0.6500
G01 Z-0.0550
G01 Z0
G00 Z0.1000
G00 X2.4750 Y-0.5500
G01 Z-0.0550
G01 Z0
G00 Z0.1000
G00 X2.4750 Y-0.4500
G01 Z-0.0550
G01 Z0
G00 Z0.1000
G00 X2.4750 Y-0.3500
G01 Z-0.0550
G01 Z0
G00 Z0.1000
G00 X2.5750 Y-0.9500
G01 Z-0.0550
G01 Z0
G00 Z0.1000
G00 X2.5750 Y-0.8500
G01 Z-0.0550
G01 Z0
G00 Z0.1000
G00 X2.5750 Y-0.7500
G01 Z-0.0550
G01 Z0
G00 Z0.1000
G00 X2.5750 Y-0.6500
G01 Z-0.0550
G01 Z0
G00 Z0.1000
G00 X2.4750 Y-2.5500
G01 Z-0.0550
G01 Z0
G00 Z0.1000
G00 X2.4750 Y-3.4500
G01 Z-0.0550
G01 Z0
G00 Z0.1000
G00 X2.4750 Y-3.6500
G01 Z-0.0550
G01 Z0
G00 Z0.1000
G00 X2.4750 Y-3.5500
G01 Z-0.0550
G01 Z0
G00 Z0.1000
G00 X2.4750 Y-3.3500
G01 Z-0.0550
G01 Z0
G00 Z0.1000
G00 X2.4750 Y-3.2500
G01 Z-0.0550
G01 Z0
G00 Z0.1000
G00 X2.4750 Y-3.1500
G01 Z-0.0550
G01 Z0
G00 Z0.1000
G00 X2.4750 Y-3.0500
G01 Z-0.0550
G01 Z0
G00 Z0.1000
G00 X2.4750 Y-2.9500
G01 Z-0.0550
G01 Z0
G00 Z0.1000
G00 X2.4750 Y-2.8500
G01 Z-0.0550
G01 Z0
G00 Z0.1000
G00 X2.4750 Y-2.7500
G01 Z-0.0550
G01 Z0
G00 Z0.1000
G00 X2.4750 Y-2.6500
G01 Z-0.0550
G01 Z0
G00 Z0.1000
G00 X2.4750 Y-2.4500
G01 Z-0.0550
G01 Z0
G00 Z0.1000
G00 X2.4750 Y-2.3500
G01 Z-0.0550
G01 Z0
G00 Z0.1000
G00 X1.5750 Y-2.7500
G01 Z-0.0550
G01 Z0
G00 Z0.1000
G00 X1.4750 Y-3.3500
G01 Z-0.0550
G01 Z0
G00 Z0.1000
G00 X1.4750 Y-3.2500
G01 Z-0.0550
G01 Z0
G00 Z0.1000
G00 X1.4750 Y-3.1500
G01 Z-0.0550
G01 Z0
G00 Z0.1000
G00 X1.4750 Y-3.0500
G01 Z-0.0550
G01 Z0
G00 Z0.1000
G00 X1.1750 Y-3.6500
G01 Z-0.0550
G01 Z0
G00 Z0.1000
G00 X0.2750 Y-3.6500
G01 Z-0.0550
G01 Z0
G00 Z0.1000
G00 X0.2750 Y-3.5500
G01 Z-0.0550
G01 Z0
G00 Z0.1000
G00 X0.2750 Y-3.4500
G01 Z-0.0550
G01 Z0
G00 Z0.1000
G00 X0.2750 Y-3.3500
G01 Z-0.0550
G01 Z0
G00 Z0.1000
G00 X0.2750 Y-3.2500
G01 Z-0.0550
G01 Z0
G00 Z0.1000
G00 X0.2750 Y-3.1500
G01 Z-0.0550
G01 Z0
G00 Z0.1000
G00 X0.2750 Y-3.0500
G01 Z-0.0550
G01 Z0
G00 Z0.1000
G00 X0.2750 Y-2.9500
G01 Z-0.0550
G01 Z0
G00 Z0.1000
G00 X0.2750 Y-2.8500
G01 Z-0.0550
G01 Z0
G00 Z0.1000
G00 X0.2750 Y-2.7500
G01 Z-0.0550
G01 Z0
G00 Z0.1000
G00 X0.2750 Y-2.6500
G01 Z-0.0550
G01 Z0
G00 Z0.1000
G00 X0.2750 Y-2.5500
G01 Z-0.0550
G01 Z0
G00 Z0.1000
G00 X0.1750 Y-3.3500
G01 Z-0.0550
G01 Z0
G00 Z0.1000
G00 X0.1750 Y-3.2500
G01 Z-0.0550
G01 Z0
G00 Z0.1000
G00 X0.1750 Y-3.1500
G01 Z-0.0550
G01 Z0
G00 Z0.1000
G00 X0.1750 Y-3.0500
G01 Z-0.0550
G01 Z0
G00 Z0.1000
G00 X0.2750 Y-2.4500
G01 Z-0.0550
G01 Z0
G00 Z0.1000
G00 X0.2750 Y-1.5500
G01 Z-0.0550
G01 Z0
G00 Z0.1000
G00 X0.2750 Y-1.4500
G01 Z-0.0550
G01 Z0
G00 Z0.1000
G00 X0.2750 Y-1.3500
G01 Z-0.0550
G01 Z0
G00 Z0.1000
G00 X0.2750 Y-2.3500
G01 Z-0.0550
G01 Z0
G00 Z0.1000
G00 X0.1500 Y-2.0500
G01 Z-0.0550
G01 Z0
G00 Z0.1000
G00 X0.1500 Y-1.9500
G01 Z-0.0550
G01 Z0
G00 Z0.1000
G00 X0.2750 Y-1.6500
G01 Z-0.0550
G01 Z0
G00 Z0.1000
G00 X1.1750 Y-1.6500
G01 Z-0.0550
G01 Z0
G00 Z0.1000
G00 X1.1750 Y-2.5500
G01 Z-0.0550
G01 Z0
G00 Z0.1000
G00 X1.1750 Y-3.4500
G01 Z-0.0550
G01 Z0
G00 Z0.1000
G00 X1.1750 Y-3.5500
G01 Z-0.0550
G01 Z0
G00 Z0.1000
G00 X1.1750 Y-3.3500
G01 Z-0.0550
G01 Z0
G00 Z0.1000
G00 X1.1750 Y-3.2500
G01 Z-0.0550
G01 Z0
G00 Z0.1000
G00 X1.1750 Y-3.1500
G01 Z-0.0550
G01 Z0
G00 Z0.1000
G00 X1.1750 Y-3.0500
G01 Z-0.0550
G01 Z0
G00 Z0.1000
G00 X1.1750 Y-2.9500
G01 Z-0.0550
G01 Z0
G00 Z0.1000
G00 X1.1750 Y-2.8500
G01 Z-0.0550
G01 Z0
G00 Z0.1000
G00 X1.1750 Y-2.7500
G01 Z-0.0550
G01 Z0
G00 Z0.1000
G00 X1.1750 Y-2.6500
G01 Z-0.0550
G01 Z0
G00 Z0.1000
G00 X1.1750 Y-2.4500
G01 Z-0.0550
G01 Z0
G00 Z0.1000
G00 X1.1750 Y-2.3500
G01 Z-0.0550
G01 Z0
G00 Z0.1000
G00 X1.5750 Y-3.2500
G01 Z-0.0550
G01 Z0
G00 Z0.1000
G00 X1.5750 Y-3.6500
G01 Z-0.0550
G01 Z0
G00 Z0.1000
G00 X1.5750 Y-3.5500
G01 Z-0.0550
G01 Z0
G00 Z0.1000
G00 X1.5750 Y-3.4500
G01 Z-0.0550
G01 Z0
G00 Z0.1000
G00 X1.5750 Y-3.3500
G01 Z-0.0550
G01 Z0
G00 Z0.1000
G00 X1.5750 Y-3.1500
G01 Z-0.0550
G01 Z0
G00 Z0.1000
G00 X1.5750 Y-3.0500
G01 Z-0.0550
G01 Z0
G00 Z0.1000
G00 X1.5750 Y-2.9500
G01 Z-0.0550
G01 Z0
G00 Z0.1000
G00 X1.5750 Y-2.8500
G01 Z-0.0550
G01 Z0
G00 Z0.1000
G00 X1.5750 Y-2.6500
G01 Z-0.0550
G01 Z0
G00 Z0.1000
G00 X1.5750 Y-2.5500
G01 Z-0.0550
G01 Z0
G00 Z0.1000
G00 X1.5750 Y-2.4500
G01 Z-0.0550
G01 Z0
G00 Z0.1000
G00 X1.5750 Y-2.3500
G01 Z-0.0550
G01 Z0
G00 Z0.1000
G00 X1.5750 Y-1.6500
G01 Z-0.0550
G01 Z0
G00 Z0.1000
G00 X1.5750 Y-1.4500
G01 Z-0.0550
G01 Z0
G00 Z0.1000
G00 X1.5750 Y-1.3500
G01 Z-0.0550
G01 Z0
G00 Z0.1000
G00 X1.5750 Y-1.2500
G01 Z-0.0550
G01 Z0
G00 Z0.1000
G00 X1.5750 Y-1.1500
G01 Z-0.0550
G01 Z0
G00 Z0.1000
G00 X1.5750 Y-1.0500
G01 Z-0.0550
G01 Z0
G00 Z0.1000
G00 X1.5750 Y-0.9500
G01 Z-0.0550
G01 Z0
G00 Z0.1000
G00 X1.5750 Y-0.8500
G01 Z-0.0550
G01 Z0
G00 Z0.1000
G00 X1.5750 Y-0.7500
G01 Z-0.0550
G01 Z0
G00 Z0.1000
G00 X1.5750 Y-0.6500
G01 Z-0.0550
G01 Z0
G00 Z0.1000
G00 X1.5750 Y-0.5500
G01 Z-0.0550
G01 Z0
G00 Z0.1000
G00 X1.5750 Y-0.4500
G01 Z-0.0550
G01 Z0
G00 Z0.1000
G00 X1.5750 Y-0.3500
G01 Z-0.0550
G01 Z0
G00 Z0.1000
G00 X1.1750 Y-1.2500
G01 Z-0.0550
G01 Z0
G00 Z0.1000
G00 X1.1750 Y-1.5500
G01 Z-0.0550
G01 Z0
G00 Z0.1000
G00 X1.1750 Y-1.4500
G01 Z-0.0550
G01 Z0
G00 Z0.1000
G00 X1.1750 Y-1.3500
G01 Z-0.0550
G01 Z0
G00 Z0.1000
G00 X1.1750 Y-1.1500
G01 Z-0.0550
G01 Z0
G00 Z0.1000
G00 X1.1750 Y-1.0500
G01 Z-0.0550
G01 Z0
G00 Z0.1000
G00 X1.1750 Y-0.9500
G01 Z-0.0550
G01 Z0
G00 Z0.1000
G00 X1.1750 Y-0.8500
G01 Z-0.0550
G01 Z0
G00 Z0.1000
G00 X1.1750 Y-0.6500
G01 Z-0.0550
G01 Z0
G00 Z0.1000
G00 X1.1750 Y-0.5500
G01 Z-0.0550
G01 Z0
G00 Z0.1000
G00 X1.1750 Y-0.4500
G01 Z-0.0550
G01 Z0
G00 Z0.1000
G00 X1.1750 Y-0.3500
G01 Z-0.0550
G01 Z0
G00 Z0.1000
G00 X0.2750 Y-0.7500
G01 Z-0.0550
G01 Z0
G00 Z0.1000
G00 X0.2750 Y-0.4500
G01 Z-0.0550
G01 Z0
G00 Z0.1000
G00 X0.2750 Y-0.5500
G01 Z-0.0550
G01 Z0
G00 Z0.1000
G00 X0.2750 Y-0.6500
G01 Z-0.0550
G01 Z0
G00 Z0.1000
G00 X0.2750 Y-0.8500
G01 Z-0.0550
G01 Z0
G00 Z0.1000
G00 X0.2750 Y-0.9500
G01 Z-0.0550
G01 Z0
G00 Z0.1000
G00 X0.2750 Y-1.0500
G01 Z-0.0550
G01 Z0
G00 Z0.1000
G00 X0.2750 Y-1.1500
G01 Z-0.0550
G01 Z0
G00 Z0.1000
G00 X0.2750 Y-1.2500
G01 Z-0.0550
G01 Z0
G00 Z0.1000
G01 F10.00
M03 S16000
G00 X1.7250 Y-3.6500
G01 Z-0.0550
G01 Z0
G00 Z0.1000
G00 X0.4250 Y-3.6500
G01 Z-0.0550
G01 Z0
G00 Z0.1000
G00 X2.3250 Y-0.3500
G01 Z-0.0550
G01 Z0
G00 Z0.1000
G00 X1.0250 Y-0.3500
G01 Z-0.0550
G01 Z0
G00 Z0.1000
G01 F10.00
M03 S16000
G00 X2.4500 Y-1.9500
G01 Z-0.0550
G01 Z0
G00 Z0.1000
G00 X1.7250 Y-1.6500
G01 Z-0.0550
G01 Z0
G00 Z0.1000
G00 X2.3250 Y-2.3500
G01 Z-0.0550
G01 Z0
G00 Z0.1000
G00 X2.3250 Y-2.4500
G01 Z-0.0550
G01 Z0
G00 Z0.1000
G00 X2.3250 Y-2.5500
G01 Z-0.0550
G01 Z0
G00 Z0.1000
G00 X2.3250 Y-2.6500
G01 Z-0.0550
G01 Z0
G00 Z0.1000
G00 X2.3250 Y-2.7500
G01 Z-0.0550
G01 Z0
G00 Z0.1000
G00 X2.3250 Y-2.8500
G01 Z-0.0550
G01 Z0
G00 Z0.1000
G00 X2.3250 Y-2.9500
G01 Z-0.0550
G01 Z0
G00 Z0.1000
G00 X2.3250 Y-3.0500
G01 Z-0.0550
G01 Z0
G00 Z0.1000
G00 X2.3250 Y-3.1500
G01 Z-0.0550
G01 Z0
G00 Z0.1000
G00 X2.3250 Y-3.3500
G01 Z-0.0550
G01 Z0
G00 Z0.1000
G00 X2.3250 Y-3.4500
G01 Z-0.0550
G01 Z0
G00 Z0.1000
G00 X2.3250 Y-3.5500
G01 Z-0.0550
G01 Z0
G00 Z0.1000
G00 X2.3250 Y-3.6500
G01 Z-0.0550
G01 Z0
G00 Z0.1000
G00 X2.3250 Y-3.2500
G01 Z-0.0550
G01 Z0
G00 Z0.1000
G00 X2.2250 Y-2.3500
G01 Z-0.0550
G01 Z0
G00 Z0.1000
G00 X2.1250 Y-2.3500
G01 Z-0.0550
G01 Z0
G00 Z0.1000
G00 X2.0250 Y-2.3500
G01 Z-0.0550
G01 Z0
G00 Z0.1000
G00 X1.9250 Y-2.3500
G01 Z-0.0550
G01 Z0
G00 Z0.1000
G00 X1.8250 Y-2.3500
G01 Z-0.0550
G01 Z0
G00 Z0.1000
G00 X1.7250 Y-2.3500
G01 Z-0.0550
G01 Z0
G00 Z0.1000
G00 X1.7250 Y-2.4500
G01 Z-0.0550
G01 Z0
G00 Z0.1000
G00 X1.7250 Y-2.5500
G01 Z-0.0550
G01 Z0
G00 Z0.1000
G00 X1.7250 Y-2.6500
G01 Z-0.0550
G01 Z0
G00 Z0.1000
G00 X1.7250 Y-2.7500
G01 Z-0.0550
G01 Z0
G00 Z0.1000
G00 X1.7250 Y-2.8500
G01 Z-0.0550
G01 Z0
G00 Z0.1000
G00 X1.7250 Y-2.9500
G01 Z-0.0550
G01 Z0
G00 Z0.1000
G00 X1.7250 Y-3.1500
G01 Z-0.0550
G01 Z0
G00 Z0.1000
G00 X1.7250 Y-3.2500
G01 Z-0.0550
G01 Z0
G00 Z0.1000
G00 X1.7250 Y-3.3500
G01 Z-0.0550
G01 Z0
G00 Z0.1000
G00 X1.7250 Y-3.4500
G01 Z-0.0550
G01 Z0
G00 Z0.1000
G00 X1.7250 Y-3.5500
G01 Z-0.0550
G01 Z0
G00 Z0.1000
G00 X1.7250 Y-3.0500
G01 Z-0.0550
G01 Z0
G00 Z0.1000
G00 X1.0250 Y-2.3500
G01 Z-0.0550
G01 Z0
G00 Z0.1000
G00 X1.0250 Y-2.4500
G01 Z-0.0550
G01 Z0
G00 Z0.1000
G00 X1.0250 Y-2.5500
G01 Z-0.0550
G01 Z0
G00 Z0.1000
G00 X1.0250 Y-2.6500
G01 Z-0.0550
G01 Z0
G00 Z0.1000
G00 X1.0250 Y-2.7500
G01 Z-0.0550
G01 Z0
G00 Z0.1000
G00 X1.0250 Y-2.8500
G01 Z-0.0550
G01 Z0
G00 Z0.1000
G00 X1.0250 Y-2.9500
G01 Z-0.0550
G01 Z0
G00 Z0.1000
G00 X1.0250 Y-3.0500
G01 Z-0.0550
G01 Z0
G00 Z0.1000
G00 X1.0250 Y-3.1500
G01 Z-0.0550
G01 Z0
G00 Z0.1000
G00 X1.0250 Y-3.3500
G01 Z-0.0550
G01 Z0
G00 Z0.1000
G00 X1.0250 Y-3.4500
G01 Z-0.0550
G01 Z0
G00 Z0.1000
G00 X1.0250 Y-3.5500
G01 Z-0.0550
G01 Z0
G00 Z0.1000
G00 X1.0250 Y-3.6500
G01 Z-0.0550
G01 Z0
G00 Z0.1000
G00 X1.0250 Y-3.2500
G01 Z-0.0550
G01 Z0
G00 Z0.1000
G00 X0.9250 Y-2.3500
G01 Z-0.0550
G01 Z0
G00 Z0.1000
G00 X0.8250 Y-2.3500
G01 Z-0.0550
G01 Z0
G00 Z0.1000
G00 X0.7250 Y-2.3500
G01 Z-0.0550
G01 Z0
G00 Z0.1000
G00 X0.6250 Y-2.3500
G01 Z-0.0550
G01 Z0
G00 Z0.1000
G00 X0.5250 Y-2.3500
G01 Z-0.0550
G01 Z0
G00 Z0.1000
G00 X0.4250 Y-2.4500
G01 Z-0.0550
G01 Z0
G00 Z0.1000
G00 X0.4250 Y-2.5500
G01 Z-0.0550
G01 Z0
G00 Z0.1000
G00 X0.4250 Y-2.6500
G01 Z-0.0550
G01 Z0
G00 Z0.1000
G00 X0.4250 Y-2.7500
G01 Z-0.0550
G01 Z0
G00 Z0.1000
G00 X0.4250 Y-2.8500
G01 Z-0.0550
G01 Z0
G00 Z0.1000
G00 X0.4250 Y-2.9500
G01 Z-0.0550
G01 Z0
G00 Z0.1000
G00 X0.4250 Y-3.0500
G01 Z-0.0550
G01 Z0
G00 Z0.1000
G00 X0.4250 Y-3.1500
G01 Z-0.0550
G01 Z0
G00 Z0.1000
G00 X0.4250 Y-3.3500
G01 Z-0.0550
G01 Z0
G00 Z0.1000
G00 X0.4250 Y-3.4500
G01 Z-0.0550
G01 Z0
G00 Z0.1000
G00 X0.4250 Y-3.5500
G01 Z-0.0550
G01 Z0
G00 Z0.1000
G00 X0.4250 Y-3.2500
G01 Z-0.0550
G01 Z0
G00 Z0.1000
G00 X0.4250 Y-2.3500
G01 Z-0.0550
G01 Z0
G00 Z0.1000
G00 X0.2500 Y-2.0500
G01 Z-0.0550
G01 Z0
G00 Z0.1000
G00 X0.5250 Y-1.6500
G01 Z-0.0550
G01 Z0
G00 Z0.1000
G00 X0.6250 Y-1.6500
G01 Z-0.0550
G01 Z0
G00 Z0.1000
G00 X0.7250 Y-1.6500
G01 Z-0.0550
G01 Z0
G00 Z0.1000
G00 X0.8250 Y-1.6500
G01 Z-0.0550
G01 Z0
G00 Z0.1000
G00 X0.9250 Y-1.6500
G01 Z-0.0550
G01 Z0
G00 Z0.1000
G00 X1.0250 Y-1.6500
G01 Z-0.0550
G01 Z0
G00 Z0.1000
G00 X1.0250 Y-1.5500
G01 Z-0.0550
G01 Z0
G00 Z0.1000
G00 X1.0250 Y-1.4500
G01 Z-0.0550
G01 Z0
G00 Z0.1000
G00 X1.0250 Y-1.3500
G01 Z-0.0550
G01 Z0
G00 Z0.1000
G00 X1.0250 Y-1.2500
G01 Z-0.0550
G01 Z0
G00 Z0.1000
G00 X1.0250 Y-1.1500
G01 Z-0.0550
G01 Z0
G00 Z0.1000
G00 X1.0250 Y-0.9500
G01 Z-0.0550
G01 Z0
G00 Z0.1000
G00 X1.0250 Y-0.8500
G01 Z-0.0550
G01 Z0
G00 Z0.1000
G00 X1.0250 Y-0.7500
G01 Z-0.0550
G01 Z0
G00 Z0.1000
G00 X1.0250 Y-0.6500
G01 Z-0.0550
G01 Z0
G00 Z0.1000
G00 X1.0250 Y-0.5500
G01 Z-0.0550
G01 Z0
G00 Z0.1000
G00 X1.0250 Y-0.4500
G01 Z-0.0550
G01 Z0
G00 Z0.1000
G00 X1.0250 Y-1.0500
G01 Z-0.0550
G01 Z0
G00 Z0.1000
G00 X0.4250 Y-0.3500
G01 Z-0.0550
G01 Z0
G00 Z0.1000
G00 X0.4250 Y-0.4500
G01 Z-0.0550
G01 Z0
G00 Z0.1000
G00 X0.4250 Y-0.5500
G01 Z-0.0550
G01 Z0
G00 Z0.1000
G00 X0.4250 Y-0.6500
G01 Z-0.0550
G01 Z0
G00 Z0.1000
G00 X0.4250 Y-0.7500
G01 Z-0.0550
G01 Z0
G00 Z0.1000
G00 X0.4250 Y-0.8500
G01 Z-0.0550
G01 Z0
G00 Z0.1000
G00 X0.4250 Y-0.9500
G01 Z-0.0550
G01 Z0
G00 Z0.1000
G00 X0.4250 Y-1.1500
G01 Z-0.0550
G01 Z0
G00 Z0.1000
G00 X0.4250 Y-1.2500
G01 Z-0.0550
G01 Z0
G00 Z0.1000
G00 X0.4250 Y-1.3500
G01 Z-0.0550
G01 Z0
G00 Z0.1000
G00 X0.4250 Y-1.4500
G01 Z-0.0550
G01 Z0
G00 Z0.1000
G00 X0.4250 Y-1.5500
G01 Z-0.0550
G01 Z0
G00 Z0.1000
G00 X0.4250 Y-1.6500
G01 Z-0.0550
G01 Z0
G00 Z0.1000
G00 X0.4250 Y-1.0500
G01 Z-0.0550
G01 Z0
G00 Z0.1000
G00 X2.3250 Y-0.4500
G01 Z-0.0550
G01 Z0
G00 Z0.1000
G00 X2.3250 Y-0.5500
G01 Z-0.0550
G01 Z0
G00 Z0.1000
G00 X2.3250 Y-0.6500
G01 Z-0.0550
G01 Z0
G00 Z0.1000
G00 X2.3250 Y-0.7500
G01 Z-0.0550
G01 Z0
G00 Z0.1000
G00 X2.3250 Y-0.8500
G01 Z-0.0550
G01 Z0
G00 Z0.1000
G00 X2.3250 Y-0.9500
G01 Z-0.0550
G01 Z0
G00 Z0.1000
G00 X2.3250 Y-1.1500
G01 Z-0.0550
G01 Z0
G00 Z0.1000
G00 X2.3250 Y-1.2500
G01 Z-0.0550
G01 Z0
G00 Z0.1000
G00 X2.3250 Y-1.3500
G01 Z-0.0550
G01 Z0
G00 Z0.1000
G00 X2.3250 Y-1.4500
G01 Z-0.0550
G01 Z0
G00 Z0.1000
G00 X2.3250 Y-1.5500
G01 Z-0.0550
G01 Z0
G00 Z0.1000
G00 X2.3250 Y-1.6500
G01 Z-0.0550
G01 Z0
G00 Z0.1000
G00 X2.2250 Y-1.6500
G01 Z-0.0550
G01 Z0
G00 Z0.1000
G00 X2.1250 Y-1.6500
G01 Z-0.0550
G01 Z0
G00 Z0.1000
G00 X2.0250 Y-1.6500
G01 Z-0.0550
G01 Z0
G00 Z0.1000
G00 X1.9250 Y-1.6500
G01 Z-0.0550
G01 Z0
G00 Z0.1000
G00 X1.8250 Y-1.6500
G01 Z-0.0550
G01 Z0
G00 Z0.1000
G00 X2.3250 Y-1.0500
G01 Z-0.0550
G01 Z0
G00 Z0.1000
G00 X1.7250 Y-0.3500
G01 Z-0.0550
G01 Z0
G00 Z0.1000
G00 X1.7250 Y-0.4500
G01 Z-0.0550
G01 Z0
G00 Z0.1000
G00 X1.7250 Y-0.5500
G01 Z-0.0550
G01 Z0
G00 Z0.1000
G00 X1.7250 Y-0.6500
G01 Z-0.0550
G01 Z0
G00 Z0.1000
G00 X1.7250 Y-0.7500
G01 Z-0.0550
G01 Z0
G00 Z0.1000
G00 X1.7250 Y-0.8500
G01 Z-0.0550
G01 Z0
G00 Z0.1000
G00 X1.7250 Y-0.9500
G01 Z-0.0550
G01 Z0
G00 Z0.1000
G00 X1.7250 Y-1.0500
G01 Z-0.0550
G01 Z0
G00 Z0.1000
G00 X1.7250 Y-1.1500
G01 Z-0.0550
G01 Z0
G00 Z0.1000
G00 X1.7250 Y-1.2500
G01 Z-0.0550
G01 Z0
G00 Z0.1000
G00 X1.7250 Y-1.3500
G01 Z-0.0550
G01 Z0
G00 Z0.1000
G00 X1.7250 Y-1.4500
G01 Z-0.0550
G01 Z0
G00 Z0.1000
G00 X1.7250 Y-1.5500
G01 Z-0.0550
G01 Z0
G00 Z0.1000
M05
G00 Z2.00

